; generated by Slic3r Prusa Edition 1.41.3+ on 2021-03-22 at 14:09:52

; 

; external perimeters extrusion width = 0.60mm
; perimeters extrusion width = 0.43mm
; infill extrusion width = 0.45mm
; solid infill extrusion width = 0.70mm
; top infill extrusion width = 0.43mm
; first layer extrusion width = 0.42mm

M73 P0 R29
M201 X9000 Y9000 Z500 E10000 ; sets maximum accelerations, mm/sec^2
M203 X500 Y500 Z12 E120 ; sets maximum feedrates, mm/sec
M204 P2000 R1500 T2000 ; sets acceleration (P, T) and retract acceleration (R), mm/sec^2
M205 X10.00 Y10.00 Z0.20 E2.50 ; sets the jerk limits, mm/sec
M205 S0 T0 ; sets the minimum extruding and travel feed rate, mm/sec
M107
M115 U3.2.3 ; tell printer latest fw version
M83  ; extruder relative mode
M204 S2000 T1500 ; MK2 firmware only supports the old M204 format
M104 S215 ; set extruder temp
M140 S60 ; set bed temp
M190 S60 ; wait for bed temp
M109 S215 ; wait for extruder temp
G28 W ; home all without mesh bed level
G80 ; mesh bed leveling
G1 Y-3.0 F1000.0 ; go outside print area
G92 E0.0
G1 X60.0 E9.0  F1000.0 ; intro line
M73 P0 R29
G1 X100.0 E12.5  F1000.0 ; intro line
G92 E0.0
M900 K30 ; Filament gcode
G21 ; set units to millimeters
G90 ; use absolute coordinates
M83 ; use relative distances for extrusion
;BEFORE_LAYER_CHANGE
G92 E0.0
;0.2


G1 E-0.80000 F2100.00000
G1 Z0.600 F10800.000
;AFTER_LAYER_CHANGE
;0.2
G1 X94.097 Y78.006
G1 Z0.200
G1 E0.80000 F2100.00000
M204 S1000
G1 F1200
G1 X94.994 Y77.811 E0.02878
G1 X155.004 Y77.811 E1.88156
G1 X155.823 Y77.972 E0.02620
G1 X156.523 Y78.429 E0.02620
G1 X157.001 Y79.114 E0.02620
G1 X157.187 Y79.932 E0.02631
G1 X157.186 Y105.102 E0.78920
G1 X157.077 Y105.690 E0.01873
G1 X156.811 Y106.229 E0.01885
G1 X156.408 Y106.675 E0.01885
G1 X155.903 Y106.994 E0.01873
G1 X155.006 Y107.189 E0.02878
G1 X94.963 Y107.188 E1.88259
G1 X94.355 Y107.091 E0.01930
G1 X93.799 Y106.829 E0.01930
G1 X93.337 Y106.422 E0.01930
G1 X93.006 Y105.903 E0.01930
G1 X92.812 Y105.017 E0.02844
G1 X92.813 Y79.916 E0.78702
G1 X92.918 Y79.324 E0.01885
G1 X93.183 Y78.780 E0.01896
G1 X93.586 Y78.330 E0.01896
G1 X94.047 Y78.038 E0.01708
; PURGING FINISHED
G1 F8640
G1 X94.994 Y77.811 E-0.22499
G1 X97.311 Y77.811 E-0.53501
G1 E-0.04000 F2100.00000
G1 Z0.800 F10800.000
G1 X110.311 Y96.473
G1 Z0.200
G1 E0.80000 F2100.00000
G1 F1200
G1 X111.111 Y95.959 E0.02984
G1 X112.024 Y95.691 E0.02984
G1 X112.976 Y95.691 E0.02984
G1 X113.889 Y95.959 E0.02984
G1 X114.689 Y96.473 E0.02984
G1 X115.312 Y97.193 E0.02984
G1 X115.708 Y98.058 E0.02984
G1 X115.843 Y99.000 E0.02984
G1 X115.708 Y99.942 E0.02984
G1 X115.312 Y100.807 E0.02984
G1 X114.689 Y101.527 E0.02984
G1 X113.889 Y102.041 E0.02984
G1 X112.976 Y102.309 E0.02984
G1 X112.024 Y102.309 E0.02984
G1 X111.111 Y102.041 E0.02984
G1 X110.311 Y101.527 E0.02984
G1 X109.688 Y100.807 E0.02984
G1 X109.292 Y99.942 E0.02984
G1 X109.157 Y99.000 E0.02984
G1 X109.292 Y98.058 E0.02984
G1 X109.688 Y97.193 E0.02984
G1 X110.271 Y96.519 E0.02795
G1 X110.556 Y96.766 F10800.000
G1 F1200
G1 X111.269 Y96.306 E0.02661
G1 X112.078 Y96.068 E0.02644
G1 X112.922 Y96.068 E0.02644
G1 X113.731 Y96.306 E0.02644
G1 X114.440 Y96.761 E0.02644
G1 X114.992 Y97.399 E0.02644
G1 X115.342 Y98.165 E0.02644
G1 X115.462 Y99.000 E0.02644
G1 X115.342 Y99.835 E0.02644
G1 X114.992 Y100.601 E0.02644
G1 X114.440 Y101.239 E0.02644
G1 X113.731 Y101.694 E0.02644
G1 X112.922 Y101.932 E0.02644
G1 X112.078 Y101.932 E0.02644
G1 X111.269 Y101.694 E0.02644
G1 X110.560 Y101.239 E0.02644
G1 X110.008 Y100.601 E0.02644
G1 X109.658 Y99.835 E0.02644
G1 X109.538 Y99.000 E0.02644
G1 X109.658 Y98.165 E0.02644
G1 X110.008 Y97.399 E0.02644
G1 X110.517 Y96.811 E0.02437
G1 X110.480 Y96.373 F10800.000
G1 F8640
G1 X111.269 Y96.306 E-0.20930
G1 X112.078 Y96.068 E-0.19468
G1 X112.922 Y96.068 E-0.19468
G1 X113.592 Y96.265 E-0.16135
G1 E-0.04000 F2100.00000
G1 Z0.800 F10800.000
G1 X104.189 Y88.527
G1 Z0.200
G1 E0.80000 F2100.00000
G1 F1200
G1 X103.389 Y89.041 E0.02984
G1 X102.476 Y89.309 E0.02984
G1 X101.524 Y89.309 E0.02984
G1 X100.611 Y89.041 E0.02984
G1 X99.811 Y88.527 E0.02984
G1 X99.188 Y87.807 E0.02984
G1 X98.792 Y86.942 E0.02984
G1 X98.657 Y86.000 E0.02984
G1 X98.792 Y85.058 E0.02984
G1 X99.188 Y84.193 E0.02984
G1 X99.811 Y83.473 E0.02984
G1 X100.611 Y82.959 E0.02984
G1 X101.524 Y82.691 E0.02984
G1 X102.476 Y82.691 E0.02984
G1 X103.389 Y82.959 E0.02984
G1 X104.189 Y83.473 E0.02984
G1 X104.812 Y84.193 E0.02984
G1 X105.208 Y85.058 E0.02984
G1 X105.343 Y86.000 E0.02984
G1 X105.208 Y86.942 E0.02984
G1 X104.812 Y87.807 E0.02984
G1 X104.229 Y88.481 E0.02795
G1 X103.944 Y88.234 F10800.000
G1 F1200
G1 X103.231 Y88.694 E0.02661
G1 X102.422 Y88.932 E0.02644
G1 X101.578 Y88.932 E0.02644
G1 X100.769 Y88.694 E0.02644
G1 X100.060 Y88.239 E0.02644
G1 X99.508 Y87.601 E0.02644
G1 X99.158 Y86.835 E0.02644
G1 X99.038 Y86.000 E0.02644
G1 X99.158 Y85.165 E0.02644
G1 X99.508 Y84.399 E0.02644
G1 X100.060 Y83.761 E0.02644
G1 X100.769 Y83.306 E0.02644
G1 X101.578 Y83.068 E0.02644
G1 X102.422 Y83.068 E0.02644
G1 X103.231 Y83.306 E0.02644
G1 X103.940 Y83.761 E0.02644
G1 X104.492 Y84.399 E0.02644
G1 X104.842 Y85.165 E0.02644
G1 X104.962 Y86.000 E0.02644
G1 X104.842 Y86.835 E0.02644
G1 X104.492 Y87.601 E0.02644
G1 X103.983 Y88.189 E0.02437
G1 X104.020 Y88.627 F10800.000
G1 F8640
G1 X103.231 Y88.694 E-0.20930
G1 X102.422 Y88.932 E-0.19468
G1 X101.578 Y88.932 E-0.19468
G1 X100.908 Y88.735 E-0.16135
G1 E-0.04000 F2100.00000
G1 Z0.800 F10800.000
G1 X134.292 Y98.058
G1 Z0.200
G1 E0.80000 F2100.00000
G1 F1200
G1 X134.688 Y97.193 E0.02984
G1 X135.311 Y96.473 E0.02984
G1 X136.111 Y95.959 E0.02984
G1 X137.024 Y95.691 E0.02984
G1 X137.976 Y95.691 E0.02984
G1 X138.889 Y95.959 E0.02984
G1 X139.689 Y96.473 E0.02984
G1 X140.312 Y97.193 E0.02984
G1 X140.708 Y98.058 E0.02984
G1 X140.843 Y99.000 E0.02984
G1 X140.708 Y99.942 E0.02984
G1 X140.312 Y100.807 E0.02984
G1 X139.689 Y101.527 E0.02984
G1 X138.889 Y102.041 E0.02984
G1 X137.976 Y102.309 E0.02984
G1 X137.024 Y102.309 E0.02984
G1 X136.111 Y102.041 E0.02984
G1 X135.311 Y101.527 E0.02983
G1 X134.688 Y100.807 E0.02984
G1 X134.292 Y99.942 E0.02984
G1 X134.157 Y99.000 E0.02984
G1 X134.284 Y98.118 E0.02795
G1 X134.657 Y98.171 F10800.000
G1 F1200
G1 X135.008 Y97.399 E0.02661
G1 X135.560 Y96.761 E0.02644
G1 X136.269 Y96.306 E0.02644
G1 X137.078 Y96.068 E0.02644
G1 X137.922 Y96.068 E0.02644
G1 X138.731 Y96.306 E0.02644
G1 X139.440 Y96.761 E0.02644
G1 X139.992 Y97.399 E0.02644
G1 X140.342 Y98.165 E0.02644
G1 X140.462 Y99.000 E0.02644
G1 X140.342 Y99.835 E0.02644
G1 X139.992 Y100.601 E0.02644
G1 X139.440 Y101.239 E0.02644
G1 X138.731 Y101.694 E0.02644
G1 X137.922 Y101.932 E0.02644
G1 X137.078 Y101.932 E0.02644
G1 X136.269 Y101.694 E0.02644
G1 X135.560 Y101.239 E0.02644
G1 X135.008 Y100.601 E0.02644
G1 X134.658 Y99.835 E0.02644
G1 X134.538 Y99.000 E0.02644
G1 X134.648 Y98.231 E0.02437
G1 X134.381 Y97.882 F10800.000
G1 F8640
G1 X135.008 Y97.399 E-0.20930
G1 X135.560 Y96.761 E-0.19468
G1 X136.269 Y96.306 E-0.19468
G1 X136.940 Y96.109 E-0.16135
G1 E-0.04000 F2100.00000
G1 Z0.800 F10800.000
G1 X145.811 Y88.527
G1 Z0.200
G1 E0.80000 F2100.00000
G1 F1200
G1 X145.188 Y87.807 E0.02984
G1 X144.792 Y86.942 E0.02984
G1 X144.657 Y86.000 E0.02984
G1 X144.792 Y85.058 E0.02984
G1 X145.188 Y84.193 E0.02984
G1 X145.811 Y83.473 E0.02984
G1 X146.611 Y82.959 E0.02984
G1 X147.524 Y82.691 E0.02984
G1 X148.476 Y82.691 E0.02984
G1 X149.389 Y82.959 E0.02984
G1 X150.189 Y83.473 E0.02984
G1 X150.812 Y84.193 E0.02984
G1 X151.208 Y85.058 E0.02984
G1 X151.343 Y86.000 E0.02984
G1 X151.208 Y86.942 E0.02984
G1 X150.812 Y87.807 E0.02984
G1 X150.189 Y88.527 E0.02984
G1 X149.389 Y89.041 E0.02984
G1 X148.476 Y89.309 E0.02984
G1 X147.524 Y89.309 E0.02984
G1 X146.611 Y89.041 E0.02984
G1 X145.861 Y88.559 E0.02795
G1 X146.065 Y88.242 F10800.000
G1 F1200
G1 X145.508 Y87.601 E0.02661
G1 X145.158 Y86.835 E0.02644
G1 X145.038 Y86.000 E0.02644
G1 X145.158 Y85.165 E0.02644
G1 X145.508 Y84.399 E0.02644
G1 X146.060 Y83.761 E0.02644
G1 X146.769 Y83.306 E0.02644
G1 X147.578 Y83.068 E0.02644
G1 X148.422 Y83.068 E0.02644
G1 X149.231 Y83.306 E0.02644
G1 X149.940 Y83.761 E0.02644
G1 X150.492 Y84.399 E0.02644
G1 X150.842 Y85.165 E0.02644
G1 X150.962 Y86.000 E0.02644
G1 X150.842 Y86.835 E0.02644
G1 X150.492 Y87.601 E0.02644
G1 X149.940 Y88.239 E0.02644
G1 X149.231 Y88.694 E0.02644
G1 X148.422 Y88.932 E0.02644
G1 X147.578 Y88.932 E0.02644
G1 X146.769 Y88.694 E0.02644
G1 X146.116 Y88.274 E0.02437
G1 X145.687 Y88.373 F10800.000
G1 F8640
G1 X145.508 Y87.601 E-0.20930
G1 X145.158 Y86.835 E-0.19468
G1 X145.038 Y86.000 E-0.19468
G1 X145.137 Y85.308 E-0.16135
G1 E-0.04000 F2100.00000
G1 Z0.800 F10800.000
G1 X154.413 Y80.587
G1 Z0.200
G1 E0.80000 F2100.00000
G1 F1200
G1 X154.413 Y104.413 E0.74704
G1 X95.587 Y104.413 E1.84444
G1 X95.587 Y80.587 E0.74704
G1 X154.353 Y80.587 E1.84256
G1 X154.790 Y80.210 F10800.000
G1 F1200
G1 X154.790 Y104.790 E0.77069
G1 X95.210 Y104.790 E1.86809
G1 X95.210 Y80.210 E0.77069
G1 X154.730 Y80.210 E1.86621
G1 X154.637 Y80.579 F10800.000
G1 F8640
G1 X154.738 Y83.501 E-0.76000
G1 E-0.04000 F2100.00000
G1 Z0.800 F10800.000
G1 X154.300 Y81.464
G1 Z0.200
G1 E0.80000 F2100.00000
G1 F1200
G1 X153.706 Y80.870 E0.02639
G1 X153.172 Y80.870 E0.01678
G1 X154.130 Y81.828 E0.04258
G1 X154.130 Y82.363 E0.01678
G1 X152.637 Y80.870 E0.06632
G1 X152.103 Y80.870 E0.01678
G1 X154.130 Y82.897 E0.09005
G1 X154.130 Y83.431 E0.01678
G1 X151.569 Y80.870 E0.11378
G1 X151.035 Y80.870 E0.01678
G1 X154.130 Y83.965 E0.13752
G1 X154.130 Y84.500 E0.01678
G1 X150.500 Y80.870 E0.16125
G1 X149.966 Y80.870 E0.01678
G1 X154.130 Y85.034 E0.18498
G1 X154.130 Y85.568 E0.01678
G1 X149.432 Y80.870 E0.20872
G1 X148.898 Y80.870 E0.01678
G1 X154.130 Y86.102 E0.23245
G1 X154.130 Y86.637 E0.01678
G1 X148.363 Y80.870 E0.25618
G1 X147.829 Y80.870 E0.01678
G1 X154.130 Y87.171 E0.27992
G1 X154.130 Y87.705 E0.01678
G1 X151.495 Y85.070 E0.11705
G1 X151.585 Y85.694 E0.01980
G1 X154.130 Y88.239 E0.11307
G1 X154.130 Y88.774 E0.01678
G1 X151.595 Y86.238 E0.11264
G1 X151.527 Y86.705 E0.01482
G1 X154.130 Y89.308 E0.11562
G1 X154.130 Y89.842 E0.01678
G1 X151.428 Y87.140 E0.12004
G1 X151.261 Y87.507 E0.01267
G1 X154.130 Y90.376 E0.12748
G1 X154.130 Y90.911 E0.01678
G1 X151.093 Y87.874 E0.13492
G1 X151.053 Y87.962 E0.00305
G1 X150.864 Y88.179 E0.00903
G1 X154.130 Y91.445 E0.14507
G1 X154.130 Y91.979 E0.01678
G1 X150.616 Y88.465 E0.15609
G1 X150.366 Y88.749 E0.01189
G1 X154.130 Y92.513 E0.16722
G1 X154.130 Y93.048 E0.01678
G1 X150.041 Y88.958 E0.18167
G1 X149.715 Y89.167 E0.01214
G1 X154.130 Y93.582 E0.19612
G1 X154.130 Y94.116 E0.01678
G1 X149.359 Y89.345 E0.21197
G1 X148.946 Y89.466 E0.01352
G1 X154.130 Y94.650 E0.23032
G1 X154.130 Y95.185 E0.01678
G1 X148.533 Y89.587 E0.24866
G1 X148.003 Y89.592 E0.01663
G1 X154.130 Y95.719 E0.27219
G1 X154.130 Y96.253 E0.01678
G1 X147.463 Y89.586 E0.29619
G1 X146.706 Y89.364 E0.02476
G1 X154.130 Y96.787 E0.32979
G1 X154.130 Y97.322 E0.01678
G1 X137.678 Y80.870 E0.73084
G1 X138.213 Y80.870 E0.01678
G1 X144.647 Y87.304 E0.28584
G1 X144.518 Y87.022 E0.00974
G1 X144.454 Y86.577 E0.01412
G1 X138.747 Y80.870 E0.25354
G1 X139.281 Y80.870 E0.01678
G1 X144.376 Y85.965 E0.22634
G1 X144.443 Y85.498 E0.01482
G1 X139.815 Y80.870 E0.20559
G1 X140.350 Y80.870 E0.01678
G1 X144.511 Y85.031 E0.18485
G1 X144.518 Y84.978 E0.00169
G1 X144.667 Y84.653 E0.01122
G1 X140.884 Y80.870 E0.16804
G1 X141.418 Y80.870 E0.01678
G1 X144.834 Y84.286 E0.15175
G1 X144.947 Y84.038 E0.00856
G1 X145.028 Y83.945 E0.00386
G1 X141.952 Y80.870 E0.13662
G1 X142.487 Y80.870 E0.01678
G1 X145.276 Y83.659 E0.12390
G1 X145.524 Y83.373 E0.01190
G1 X143.021 Y80.870 E0.11119
G1 X143.555 Y80.870 E0.01678
G1 X145.818 Y83.133 E0.10052
G1 X146.143 Y82.924 E0.01214
G1 X144.089 Y80.870 E0.09124
G1 X144.624 Y80.870 E0.01678
G1 X146.468 Y82.715 E0.08195
G1 X146.875 Y82.587 E0.01338
G1 X145.158 Y80.870 E0.07628
G1 X145.692 Y80.870 E0.01678
G1 X147.288 Y82.466 E0.07089
G1 X147.484 Y82.408 E0.00641
G1 X147.765 Y82.408 E0.00883
G1 X146.226 Y80.870 E0.06833
G1 X146.761 Y80.870 E0.01678
G1 X148.299 Y82.408 E0.06833
G1 X148.516 Y82.408 E0.00684
G1 X148.965 Y82.540 E0.01467
G1 X147.125 Y80.700 E0.08172
G1 F8640
G1 X148.965 Y82.540 E-0.60070
G1 X148.516 Y82.408 E-0.10786
G1 X148.299 Y82.408 E-0.05026
G1 X148.295 Y82.404 E-0.00119
G1 E-0.04000 F2100.00000
G1 Z0.800 F10800.000
G1 X154.300 Y98.026
G1 Z0.200
G1 E0.80000 F2100.00000
G1 F1200
G1 X137.144 Y80.870 E0.76211
G1 X136.610 Y80.870 E0.01678
G1 X154.130 Y98.390 E0.77831
G1 X154.130 Y98.924 E0.01678
G1 X136.076 Y80.870 E0.80204
G1 X135.541 Y80.870 E0.01678
G1 X154.130 Y99.459 E0.82578
M73 P3 R28
G1 X154.130 Y99.993 E0.01678
G1 X135.007 Y80.870 E0.84951
G1 X134.473 Y80.870 E0.01678
G1 X154.130 Y100.527 E0.87324
G1 X154.130 Y101.061 E0.01678
G1 X133.939 Y80.870 E0.89697
G1 X133.404 Y80.870 E0.01678
G1 X154.130 Y101.596 E0.92071
G1 X154.130 Y102.130 E0.01678
G1 X132.870 Y80.870 E0.94444
G1 X132.336 Y80.870 E0.01678
G1 X154.130 Y102.664 E0.96817
G1 X154.130 Y103.198 E0.01678
G1 X131.802 Y80.870 E0.99191
G1 X131.267 Y80.870 E0.01678
G1 X154.130 Y103.733 E1.01564
G1 X154.130 Y104.130 E0.01248
G1 X153.993 Y104.130 E0.00430
G1 X130.733 Y80.870 E1.03329
G1 X130.199 Y80.870 E0.01678
G1 X153.459 Y104.130 E1.03329
G1 X152.925 Y104.130 E0.01678
G1 X129.665 Y80.870 E1.03329
G1 X129.130 Y80.870 E0.01678
G1 X152.391 Y104.130 E1.03329
G1 X151.856 Y104.130 E0.01678
G1 X128.596 Y80.870 E1.03329
G1 X128.062 Y80.870 E0.01678
G1 X151.322 Y104.130 E1.03329
G1 X150.788 Y104.130 E0.01678
G1 X127.527 Y80.870 E1.03329
G1 X126.993 Y80.870 E0.01678
G1 X150.254 Y104.130 E1.03329
G1 X149.719 Y104.130 E0.01678
G1 X126.459 Y80.870 E1.03329
G1 X125.925 Y80.870 E0.01678
G1 X149.185 Y104.130 E1.03329
G1 X148.651 Y104.130 E0.01678
G1 X125.390 Y80.870 E1.03329
G1 X124.856 Y80.870 E0.01678
G1 X148.117 Y104.130 E1.03329
G1 X147.582 Y104.130 E0.01678
G1 X124.322 Y80.870 E1.03329
G1 X123.788 Y80.870 E0.01678
G1 X138.455 Y95.537 E0.65155
G1 X138.016 Y95.408 E0.01435
G1 X137.792 Y95.408 E0.00706
G1 X123.253 Y80.870 E0.64583
G1 X122.719 Y80.870 E0.01678
G1 X137.258 Y95.408 E0.64583
G1 X136.984 Y95.408 E0.00861
G1 X136.782 Y95.467 E0.00659
G1 X122.185 Y80.870 E0.64846
G1 X121.651 Y80.870 E0.01678
G1 X136.369 Y95.588 E0.65385
G1 X135.964 Y95.717 E0.01336
G1 X121.116 Y80.870 E0.65957
G1 X120.582 Y80.870 E0.01678
G1 X135.639 Y95.926 E0.66886
G1 X135.314 Y96.135 E0.01214
G1 X120.048 Y80.870 E0.67814
G1 X119.514 Y80.870 E0.01678
G1 X135.020 Y96.377 E0.68886
G1 X134.772 Y96.663 E0.01190
G1 X118.979 Y80.870 E0.70157
G1 X118.445 Y80.870 E0.01678
G1 X134.524 Y96.949 E0.71429
G1 X134.447 Y97.038 E0.00370
G1 X134.332 Y97.291 E0.00872
G1 X117.911 Y80.870 E0.72947
G1 X117.377 Y80.870 E0.01678
G1 X134.164 Y97.658 E0.74576
G1 X134.018 Y97.978 E0.01106
G1 X134.010 Y98.037 E0.00188
G1 X116.842 Y80.870 E0.76262
G1 X116.308 Y80.870 E0.01678
G1 X133.942 Y98.504 E0.78337
G1 X133.875 Y98.971 E0.01482
G1 X115.774 Y80.870 E0.80412
G1 X115.240 Y80.870 E0.01678
G1 X133.955 Y99.585 E0.83141
G1 X134.018 Y100.022 E0.01386
G1 X134.153 Y100.317 E0.01018
G1 X114.705 Y80.870 E0.86391
G1 X114.171 Y80.870 E0.01678
G1 X137.432 Y104.130 E1.03329
G1 X137.966 Y104.130 E0.01678
G1 X136.196 Y102.361 E0.07860
G1 X136.953 Y102.583 E0.02476
G1 X138.500 Y104.130 E0.06874
G1 X139.034 Y104.130 E0.01678
G1 X137.496 Y102.592 E0.06833
G1 X138.027 Y102.589 E0.01668
G1 X139.569 Y104.130 E0.06847
G1 X140.103 Y104.130 E0.01678
G1 X138.440 Y102.467 E0.07386
G1 X138.853 Y102.346 E0.01352
G1 X140.637 Y104.130 E0.07925
G1 X141.171 Y104.130 E0.01678
G1 X139.211 Y102.170 E0.08708
G1 X139.536 Y101.961 E0.01214
G1 X141.706 Y104.130 E0.09636
G1 X142.240 Y104.130 E0.01678
G1 X139.862 Y101.752 E0.10565
G1 X140.113 Y101.469 E0.01189
G1 X142.774 Y104.130 E0.11821
G1 X143.308 Y104.130 E0.01678
G1 X140.361 Y101.183 E0.13092
G1 X140.553 Y100.962 E0.00919
G1 X140.591 Y100.878 E0.00288
G1 X143.843 Y104.130 E0.14445
G1 X144.377 Y104.130 E0.01678
G1 X140.758 Y100.512 E0.16074
G1 X140.926 Y100.145 E0.01267
G1 X144.911 Y104.130 E0.17703
G1 X145.445 Y104.130 E0.01678
