; generated by Slic3r Prusa Edition 1.41.3+ on 2021-03-16 at 15:02:20

; 

; external perimeters extrusion width = 0.60mm
; perimeters extrusion width = 0.43mm
; infill extrusion width = 0.45mm
; solid infill extrusion width = 0.70mm
; top infill extrusion width = 0.43mm
; first layer extrusion width = 0.42mm

M73 P0 R51
M201 X9000 Y9000 Z500 E10000 ; sets maximum accelerations, mm/sec^2
M203 X500 Y500 Z12 E120 ; sets maximum feedrates, mm/sec
M204 P2000 R1500 T2000 ; sets acceleration (P, T) and retract acceleration (R), mm/sec^2
M205 X10.00 Y10.00 Z0.20 E2.50 ; sets the jerk limits, mm/sec
M205 S0 T0 ; sets the minimum extruding and travel feed rate, mm/sec
M107
M115 U3.2.3 ; tell printer latest fw version
M83  ; extruder relative mode
M204 S2000 T1500 ; MK2 firmware only supports the old M204 format
M104 S215 ; set extruder temp
M140 S60 ; set bed temp
M190 S60 ; wait for bed temp
M109 S215 ; wait for extruder temp
G28 W ; home all without mesh bed level
G80 ; mesh bed leveling
G1 Y-3.0 F1000.0 ; go outside print area
G92 E0.0
G1 X60.0 E9.0  F1000.0 ; intro line
M73 P0 R51
G1 X100.0 E12.5  F1000.0 ; intro line
G92 E0.0
M900 K30 ; Filament gcode
G21 ; set units to millimeters
G90 ; use absolute coordinates
M83 ; use relative distances for extrusion
;BEFORE_LAYER_CHANGE
G92 E0.0
;0.2


G1 E-0.80000 F2100.00000
G1 Z0.600 F10800.000
;AFTER_LAYER_CHANGE
;0.2
G1 X99.287 Y95.431
G1 Z0.200
G1 E0.80000 F2100.00000
M204 S1000
G1 F1200
G1 X99.994 Y95.311 E0.02247
G1 X150.004 Y95.311 E1.56801
G1 X150.820 Y95.471 E0.02608
G1 X151.518 Y95.924 E0.02608
G1 X151.997 Y96.604 E0.02608
G1 X152.187 Y97.417 E0.02620
G1 X152.181 Y112.686 E0.47874
G1 X152.039 Y113.296 E0.01964
G1 X151.727 Y113.844 E0.01976
G1 X151.273 Y114.280 E0.01976
G1 X150.713 Y114.569 E0.01976
G1 X150.006 Y114.689 E0.02247
G1 X99.945 Y114.688 E1.56962
G1 X99.293 Y114.571 E0.02078
G1 X98.705 Y114.265 E0.02078
G1 X98.237 Y113.796 E0.02078
G1 X97.931 Y113.213 E0.02066
G1 X97.812 Y112.517 E0.02213
G1 X97.818 Y97.332 E0.47611
G1 X97.958 Y96.714 E0.01987
G1 X98.268 Y96.162 E0.01987
G1 X98.724 Y95.722 E0.01987
G1 X99.234 Y95.458 E0.01799
; PURGING FINISHED
G1 F8640
G1 X99.994 Y95.311 E-0.17875
G1 X102.511 Y95.311 E-0.58125
G1 E-0.04000 F2100.00000
G1 Z0.800 F10800.000
G1 X100.587 Y98.087
G1 Z0.200
G1 E0.80000 F2100.00000
G1 F1200
G1 X149.413 Y98.087 E1.53090
G1 X149.413 Y111.913 E0.43350
G1 X100.587 Y111.913 E1.53090
G1 X100.587 Y98.147 E0.43162
G1 X100.210 Y97.710 F10800.000
G1 F1200
G1 X149.790 Y97.710 E1.55455
G1 X149.790 Y112.290 E0.45715
G1 X100.210 Y112.290 E1.55455
G1 X100.210 Y97.770 E0.45526
G1 X100.608 Y97.748 F10800.000
G1 F8640
G1 X103.501 Y97.766 E-0.76000
G1 E-0.04000 F2100.00000
G1 Z0.800 F10800.000
G1 X101.468 Y111.800
G1 Z0.200
G1 E0.80000 F2100.00000
G1 F1200
G1 X100.870 Y111.202 E0.02669
G1 X100.870 Y110.665 E0.01695
G1 X101.835 Y111.630 E0.04308
G1 X102.372 Y111.630 E0.01695
G1 X100.870 Y110.128 E0.06705
G1 X100.870 Y109.591 E0.01695
G1 X102.909 Y111.630 E0.09101
G1 X103.446 Y111.630 E0.01695
G1 X100.870 Y109.054 E0.11498
G1 X100.870 Y108.518 E0.01695
G1 X103.982 Y111.630 E0.13894
G1 X104.519 Y111.630 E0.01695
G1 X100.870 Y107.981 E0.16290
G1 X100.870 Y107.444 E0.01695
G1 X105.056 Y111.630 E0.18687
G1 X105.593 Y111.630 E0.01695
G1 X100.870 Y106.907 E0.21083
G1 X100.870 Y106.370 E0.01695
G1 X106.130 Y111.630 E0.23480
G1 X106.667 Y111.630 E0.01695
G1 X100.870 Y105.833 E0.25876
G1 X100.870 Y105.297 E0.01695
G1 X107.203 Y111.630 E0.28273
G1 X107.740 Y111.630 E0.01695
G1 X100.870 Y104.760 E0.30669
G1 X100.870 Y104.223 E0.01695
G1 X108.277 Y111.630 E0.33066
G1 X108.814 Y111.630 E0.01695
G1 X100.870 Y103.686 E0.35462
G1 X100.870 Y103.149 E0.01695
G1 X109.351 Y111.630 E0.37859
G1 X109.888 Y111.630 E0.01695
G1 X100.870 Y102.612 E0.40255
G1 X100.870 Y102.075 E0.01695
G1 X110.425 Y111.630 E0.42651
G1 X110.961 Y111.630 E0.01695
G1 X100.870 Y101.539 E0.45048
G1 X100.870 Y101.002 E0.01695
G1 X111.498 Y111.630 E0.47444
G1 X112.035 Y111.630 E0.01695
G1 X100.870 Y100.465 E0.49841
G1 X100.870 Y99.928 E0.01695
G1 X112.572 Y111.630 E0.52237
G1 X113.109 Y111.630 E0.01695
G1 X100.870 Y99.391 E0.54634
G1 X100.870 Y98.854 E0.01695
G1 X113.646 Y111.630 E0.57030
G1 X114.183 Y111.630 E0.01695
G1 X100.922 Y98.370 E0.59193
G1 X101.459 Y98.370 E0.01695
G1 X114.719 Y111.630 E0.59193
G1 X115.256 Y111.630 E0.01695
G1 X101.996 Y98.370 E0.59193
G1 X102.533 Y98.370 E0.01695
G1 X115.793 Y111.630 E0.59193
G1 X116.330 Y111.630 E0.01695
G1 X103.070 Y98.370 E0.59193
G1 X103.606 Y98.370 E0.01695
G1 X116.867 Y111.630 E0.59193
G1 X117.404 Y111.630 E0.01695
G1 X104.143 Y98.370 E0.59193
G1 X104.680 Y98.370 E0.01695
G1 X117.940 Y111.630 E0.59193
G1 X118.477 Y111.630 E0.01695
G1 X105.217 Y98.370 E0.59193
G1 X105.754 Y98.370 E0.01695
G1 X119.014 Y111.630 E0.59193
G1 X119.551 Y111.630 E0.01695
G1 X106.291 Y98.370 E0.59193
G1 X106.828 Y98.370 E0.01695
G1 X120.088 Y111.630 E0.59193
G1 X120.625 Y111.630 E0.01695
G1 X107.364 Y98.370 E0.59193
G1 X107.901 Y98.370 E0.01695
G1 X121.162 Y111.630 E0.59193
G1 X121.698 Y111.630 E0.01695
G1 X108.438 Y98.370 E0.59193
G1 X108.975 Y98.370 E0.01695
G1 X122.235 Y111.630 E0.59193
G1 X122.772 Y111.630 E0.01695
G1 X109.512 Y98.370 E0.59193
G1 X110.049 Y98.370 E0.01695
G1 X123.309 Y111.630 E0.59193
G1 X123.846 Y111.630 E0.01695
G1 X110.586 Y98.370 E0.59193
G1 X111.122 Y98.370 E0.01695
G1 X124.383 Y111.630 E0.59193
G1 X124.920 Y111.630 E0.01695
G1 X111.659 Y98.370 E0.59193
G1 X112.196 Y98.370 E0.01695
G1 X125.456 Y111.630 E0.59193
G1 X125.993 Y111.630 E0.01695
G1 X112.733 Y98.370 E0.59193
G1 X113.270 Y98.370 E0.01695
G1 X126.530 Y111.630 E0.59193
G1 X127.067 Y111.630 E0.01695
G1 X113.807 Y98.370 E0.59193
M73 P2 R50
G1 X114.343 Y98.370 E0.01695
G1 X127.604 Y111.630 E0.59193
G1 X128.141 Y111.630 E0.01695
G1 X114.880 Y98.370 E0.59193
G1 X115.417 Y98.370 E0.01695
G1 X128.677 Y111.630 E0.59193
G1 X129.214 Y111.630 E0.01695
G1 X115.954 Y98.370 E0.59193
G1 X116.491 Y98.370 E0.01695
G1 X129.751 Y111.630 E0.59193
G1 X130.288 Y111.630 E0.01695
G1 X117.028 Y98.370 E0.59193
G1 X117.565 Y98.370 E0.01695
G1 X130.825 Y111.630 E0.59193
G1 X131.362 Y111.630 E0.01695
G1 X118.101 Y98.370 E0.59193
G1 X118.638 Y98.370 E0.01695
G1 X131.899 Y111.630 E0.59193
G1 X132.435 Y111.630 E0.01695
G1 X119.175 Y98.370 E0.59193
G1 X119.712 Y98.370 E0.01695
G1 X132.972 Y111.630 E0.59193
G1 X133.509 Y111.630 E0.01695
G1 X120.249 Y98.370 E0.59193
G1 X120.786 Y98.370 E0.01695
G1 X134.046 Y111.630 E0.59193
G1 X134.583 Y111.630 E0.01695
G1 X121.323 Y98.370 E0.59193
G1 X121.859 Y98.370 E0.01695
G1 X135.120 Y111.630 E0.59193
G1 X135.657 Y111.630 E0.01695
G1 X122.396 Y98.370 E0.59193
G1 X122.933 Y98.370 E0.01695
G1 X136.193 Y111.630 E0.59193
G1 X136.730 Y111.630 E0.01695
G1 X123.470 Y98.370 E0.59193
G1 X124.007 Y98.370 E0.01695
G1 X137.267 Y111.630 E0.59193
G1 X137.804 Y111.630 E0.01695
G1 X124.544 Y98.370 E0.59193
G1 X125.080 Y98.370 E0.01695
G1 X138.341 Y111.630 E0.59193
G1 X138.878 Y111.630 E0.01695
G1 X125.617 Y98.370 E0.59193
G1 X126.154 Y98.370 E0.01695
G1 X139.414 Y111.630 E0.59193
G1 X139.951 Y111.630 E0.01695
G1 X126.691 Y98.370 E0.59193
G1 X127.228 Y98.370 E0.01695
G1 X140.488 Y111.630 E0.59193
G1 X141.025 Y111.630 E0.01695
G1 X127.765 Y98.370 E0.59193
G1 X128.302 Y98.370 E0.01695
G1 X141.562 Y111.630 E0.59193
G1 X142.099 Y111.630 E0.01695
G1 X128.838 Y98.370 E0.59193
G1 X129.375 Y98.370 E0.01695
G1 X142.636 Y111.630 E0.59193
G1 X143.172 Y111.630 E0.01695
G1 X129.912 Y98.370 E0.59193
G1 X130.449 Y98.370 E0.01695
G1 X143.709 Y111.630 E0.59193
G1 X144.246 Y111.630 E0.01695
G1 X130.986 Y98.370 E0.59193
G1 X131.523 Y98.370 E0.01695
G1 X144.783 Y111.630 E0.59193
G1 X145.320 Y111.630 E0.01695
G1 X132.060 Y98.370 E0.59193
G1 X132.596 Y98.370 E0.01695
G1 X145.857 Y111.630 E0.59193
G1 X146.393 Y111.630 E0.01695
G1 X133.133 Y98.370 E0.59193
G1 X133.670 Y98.370 E0.01695
G1 X146.930 Y111.630 E0.59193
G1 X147.467 Y111.630 E0.01695
G1 X134.207 Y98.370 E0.59193
G1 X134.744 Y98.370 E0.01695
G1 X148.004 Y111.630 E0.59193
G1 X148.541 Y111.630 E0.01695
G1 X135.281 Y98.370 E0.59193
G1 X135.817 Y98.370 E0.01695
G1 X149.078 Y111.630 E0.59193
G1 X149.130 Y111.630 E0.00165
G1 X149.130 Y111.146 E0.01529
G1 X136.354 Y98.370 E0.57030
G1 X136.891 Y98.370 E0.01695
G1 X149.130 Y110.609 E0.54634
G1 X149.130 Y110.072 E0.01695
G1 X137.428 Y98.370 E0.52237
G1 X137.965 Y98.370 E0.01695
G1 X149.130 Y109.535 E0.49841
G1 X149.130 Y108.998 E0.01695
G1 X138.502 Y98.370 E0.47444
G1 X139.039 Y98.370 E0.01695
G1 X149.130 Y108.461 E0.45048
G1 X149.130 Y107.925 E0.01695
G1 X139.575 Y98.370 E0.42651
G1 X140.112 Y98.370 E0.01695
G1 X149.130 Y107.388 E0.40255
G1 X149.130 Y106.851 E0.01695
G1 X140.649 Y98.370 E0.37859
G1 X141.186 Y98.370 E0.01695
G1 X149.130 Y106.314 E0.35462
G1 X149.130 Y105.777 E0.01695
G1 X141.723 Y98.370 E0.33066
G1 X142.260 Y98.370 E0.01695
G1 X149.130 Y105.240 E0.30669
G1 X149.130 Y104.703 E0.01695
G1 X142.797 Y98.370 E0.28273
G1 X143.333 Y98.370 E0.01695
G1 X149.130 Y104.167 E0.25876
G1 X149.130 Y103.630 E0.01695
G1 X143.870 Y98.370 E0.23480
G1 X144.407 Y98.370 E0.01695
G1 X149.130 Y103.093 E0.21083
G1 X149.130 Y102.556 E0.01695
G1 X144.944 Y98.370 E0.18687
G1 X145.481 Y98.370 E0.01695
G1 X149.130 Y102.019 E0.16290
G1 X149.130 Y101.482 E0.01695
G1 X146.018 Y98.370 E0.13894
G1 X146.554 Y98.370 E0.01695
G1 X149.130 Y100.946 E0.11498
G1 X149.130 Y100.409 E0.01695
G1 X147.091 Y98.370 E0.09101
G1 X147.628 Y98.370 E0.01695
G1 X149.130 Y99.872 E0.06705
G1 X149.130 Y99.335 E0.01695
G1 X148.165 Y98.370 E0.04308
G1 X148.702 Y98.370 E0.01695
G1 X149.300 Y98.968 E0.02669
M106 S255
;BEFORE_LAYER_CHANGE
G92 E0.0
;0.55


G1 F8640
G1 X148.702 Y98.370 E-0.19526
G1 X148.165 Y98.370 E-0.12396
G1 X149.130 Y99.335 E-0.31515
G1 X149.130 Y99.872 E-0.12396
G1 X149.125 Y99.867 E-0.00167
G1 E-0.04000 F2100.00000
G1 Z0.800 F10800.000
;AFTER_LAYER_CHANGE
;0.55
M104 S210 ; set temperature
G1 X151.997 Y96.604
G1 Z0.550
G1 E0.80000 F2100.00000
G1 F3000
G1 X152.187 Y97.417 E0.04193
G1 X152.181 Y112.686 E0.76628
G1 X152.039 Y113.296 E0.03144
G1 X151.727 Y113.844 E0.03162
G1 X151.273 Y114.280 E0.03162
G1 X150.713 Y114.569 E0.03162
G1 X150.006 Y114.689 E0.03597
G1 X99.945 Y114.688 E2.51234
G1 X99.293 Y114.571 E0.03325
G1 X98.705 Y114.265 E0.03325
G1 X98.237 Y113.796 E0.03325
G1 X97.931 Y113.213 E0.03307
G1 X97.812 Y112.517 E0.03543
G1 X97.818 Y97.332 E0.76206
G1 X97.958 Y96.714 E0.03180
G1 X98.268 Y96.162 E0.03180
G1 X98.724 Y95.722 E0.03180
G1 X99.287 Y95.431 E0.03180
G1 X99.994 Y95.311 E0.03597
G1 X150.004 Y95.311 E2.50977
G1 X150.820 Y95.471 E0.04175
G1 X151.518 Y95.924 E0.04175
G1 X151.962 Y96.555 E0.03874
; PURGING FINISHED
G1 F8640
G1 X152.187 Y97.417 E-0.20582
G1 X152.186 Y99.817 E-0.55418
G1 E-0.04000 F2100.00000
G1 Z1.150 F10800.000
G1 X149.260 Y98.240
G1 Z0.550
G1 E0.80000 F2100.00000
M204 S800
G1 F3000
G1 X149.260 Y111.760 E0.69820
G1 X100.740 Y111.760 E2.50564
G1 X100.740 Y98.240 E0.69820
G1 X149.200 Y98.240 E2.50254
M204 S1000
G1 X149.700 Y97.800 F10800.000
M204 S800
G1 F2400
G1 X149.700 Y112.200 E1.09985
G1 X100.300 Y112.200 E3.77309
M73 P4 R49
G1 X100.300 Y97.800 E1.09985
G1 X149.640 Y97.800 E3.76850
M204 S1000
G1 X149.534 Y98.164 F10800.000
G1 F8640
G1 X149.654 Y101.091 E-0.76000
G1 E-0.04000 F2100.00000
G1 Z1.150 F10800.000
G1 X147.892 Y111.674
G1 Z0.550
G1 E0.80000 F2100.00000
M204 S2000
G1 F3600
G1 X148.893 Y110.674 E0.13041
G1 X148.893 Y109.778 E0.08260
G1 X147.278 Y111.393 E0.21056
G1 X146.382 Y111.393 E0.08260
G1 X148.893 Y108.882 E0.32737
G1 X148.893 Y107.986 E0.08260
G1 X145.486 Y111.393 E0.44417
G1 X144.590 Y111.393 E0.08260
G1 X148.893 Y107.090 E0.56098
G1 X148.893 Y106.194 E0.08260
G1 X143.694 Y111.393 E0.67779
G1 X142.798 Y111.393 E0.08260
G1 X148.893 Y105.298 E0.79459
G1 X148.893 Y104.402 E0.08260
G1 X141.902 Y111.393 E0.91140
G1 X141.006 Y111.393 E0.08260
G1 X148.893 Y103.506 E1.02821
G1 X148.893 Y102.610 E0.08260
G1 X140.110 Y111.393 E1.14502
G1 X139.214 Y111.393 E0.08260
G1 X148.893 Y101.714 E1.26182
G1 X148.893 Y100.818 E0.08260
G1 X138.318 Y111.393 E1.37863
G1 X137.422 Y111.393 E0.08260
G1 X148.893 Y99.922 E1.49544
G1 X148.893 Y99.026 E0.08260
G1 X136.526 Y111.393 E1.61224
G1 X135.630 Y111.393 E0.08260
G1 X148.416 Y98.607 E1.66686
G1 X147.520 Y98.607 E0.08260
G1 X134.734 Y111.393 E1.66686
G1 X133.838 Y111.393 E0.08260
G1 X146.624 Y98.607 E1.66686
G1 X145.728 Y98.607 E0.08260
G1 X132.942 Y111.393 E1.66686
G1 X132.047 Y111.393 E0.08260
G1 X144.832 Y98.607 E1.66686
G1 X143.936 Y98.607 E0.08260
G1 X131.151 Y111.393 E1.66686
G1 X130.255 Y111.393 E0.08260
G1 X143.040 Y98.607 E1.66686
G1 X142.144 Y98.607 E0.08260
G1 X129.359 Y111.393 E1.66686
G1 X128.463 Y111.393 E0.08260
G1 X141.248 Y98.607 E1.66686
G1 X140.352 Y98.607 E0.08260
G1 X127.567 Y111.393 E1.66686
G1 X126.671 Y111.393 E0.08260
G1 X139.456 Y98.607 E1.66686
G1 X138.560 Y98.607 E0.08260
G1 X125.775 Y111.393 E1.66686
G1 X124.879 Y111.393 E0.08260
G1 X137.664 Y98.607 E1.66686
G1 X136.768 Y98.607 E0.08260
G1 X123.983 Y111.393 E1.66686
G1 X123.087 Y111.393 E0.08260
G1 X135.872 Y98.607 E1.66686
G1 X134.976 Y98.607 E0.08260
G1 X122.191 Y111.393 E1.66686
G1 X121.295 Y111.393 E0.08260
G1 X134.081 Y98.607 E1.66686
G1 X133.185 Y98.607 E0.08260
G1 X120.399 Y111.393 E1.66686
G1 X119.503 Y111.393 E0.08260
G1 X132.289 Y98.607 E1.66686
G1 X131.393 Y98.607 E0.08260
G1 X118.607 Y111.393 E1.66686
G1 X117.711 Y111.393 E0.08260
G1 X130.497 Y98.607 E1.66686
G1 X129.601 Y98.607 E0.08260
G1 X116.815 Y111.393 E1.66686
G1 X115.919 Y111.393 E0.08260
G1 X128.705 Y98.607 E1.66686
G1 X127.809 Y98.607 E0.08260
G1 X115.023 Y111.393 E1.66686
G1 X114.128 Y111.393 E0.08260
G1 X126.913 Y98.607 E1.66686
G1 X126.017 Y98.607 E0.08260
G1 X113.232 Y111.393 E1.66686
G1 X112.336 Y111.393 E0.08260
G1 X125.121 Y98.607 E1.66686
G1 X124.225 Y98.607 E0.08260
G1 X111.440 Y111.393 E1.66686
G1 X110.544 Y111.393 E0.08260
G1 X123.329 Y98.607 E1.66686
G1 X122.433 Y98.607 E0.08260
G1 X109.648 Y111.393 E1.66686
G1 X108.752 Y111.393 E0.08260
G1 X121.537 Y98.607 E1.66686
G1 X120.641 Y98.607 E0.08260
G1 X107.856 Y111.393 E1.66686
G1 X106.960 Y111.393 E0.08260
G1 X119.745 Y98.607 E1.66686
G1 X118.849 Y98.607 E0.08260
G1 X106.064 Y111.393 E1.66686
G1 X105.168 Y111.393 E0.08260
G1 X117.953 Y98.607 E1.66686
G1 X117.057 Y98.607 E0.08260
G1 X104.272 Y111.393 E1.66686
G1 X103.376 Y111.393 E0.08260
G1 X116.162 Y98.607 E1.66686
G1 X115.266 Y98.607 E0.08260
G1 X102.480 Y111.393 E1.66686
G1 X101.584 Y111.393 E0.08260
G1 X114.370 Y98.607 E1.66686
G1 X113.474 Y98.607 E0.08260
G1 X101.107 Y110.974 E1.61223
G1 X101.107 Y110.078 E0.08260
G1 X112.578 Y98.607 E1.49543
G1 X111.682 Y98.607 E0.08260
G1 X101.107 Y109.182 E1.37862
G1 X101.107 Y108.286 E0.08260
G1 X110.786 Y98.607 E1.26181
G1 X109.890 Y98.607 E0.08260
G1 X101.107 Y107.390 E1.14501
G1 X101.107 Y106.494 E0.08260
G1 X108.994 Y98.607 E1.02820
G1 X108.098 Y98.607 E0.08260
G1 X101.107 Y105.598 E0.91139
G1 X101.107 Y104.702 E0.08260
G1 X107.202 Y98.607 E0.79459
G1 X106.306 Y98.607 E0.08260
G1 X101.107 Y103.806 E0.67778
G1 X101.107 Y102.910 E0.08260
G1 X105.410 Y98.607 E0.56097
G1 X104.514 Y98.607 E0.08260
G1 X101.107 Y102.014 E0.44416
G1 X101.107 Y101.118 E0.08260
G1 X103.618 Y98.607 E0.32736
G1 X102.722 Y98.607 E0.08260
G1 X101.107 Y100.222 E0.21055
G1 X101.107 Y99.326 E0.08260
G1 X102.108 Y98.326 E0.13040
M204 S1000
;BEFORE_LAYER_CHANGE
G92 E0.0
;0.9


G1 F8640
G1 X101.107 Y99.326 E-0.32662
G1 X101.107 Y100.222 E-0.20688
G1 X101.801 Y99.529 E-0.22650
G1 E-0.04000 F2100.00000
G1 Z1.150 F10800.000
;AFTER_LAYER_CHANGE
;0.9
G1 X99.287 Y95.431
G1 Z0.900
G1 E0.80000 F2100.00000
G1 F3000
G1 X99.994 Y95.311 E0.03597
G1 X150.004 Y95.311 E2.50977
G1 X150.820 Y95.471 E0.04175
G1 X151.518 Y95.924 E0.04175
G1 X151.997 Y96.604 E0.04175
G1 X152.187 Y97.417 E0.04193
G1 X152.181 Y112.686 E0.76628
G1 X152.039 Y113.296 E0.03144
G1 X151.727 Y113.844 E0.03162
G1 X151.273 Y114.280 E0.03162
G1 X150.713 Y114.569 E0.03162
G1 X150.006 Y114.689 E0.03597
G1 X99.945 Y114.688 E2.51234
G1 X99.293 Y114.571 E0.03325
G1 X98.705 Y114.265 E0.03325
G1 X98.237 Y113.796 E0.03325
G1 X97.931 Y113.213 E0.03307
