; generated by Slic3r Prusa Edition 1.41.3+ on 2020-12-18 at 14:22:48

; 

; external perimeters extrusion width = 0.60mm
; perimeters extrusion width = 0.43mm
; infill extrusion width = 0.45mm
; solid infill extrusion width = 0.70mm
; top infill extrusion width = 0.43mm
; first layer extrusion width = 0.42mm

M73 P0 R71
M201 X9000 Y9000 Z500 E10000 ; sets maximum accelerations, mm/sec^2
M203 X500 Y500 Z12 E120 ; sets maximum feedrates, mm/sec
M204 P2000 R1500 T2000 ; sets acceleration (P, T) and retract acceleration (R), mm/sec^2
M205 X10.00 Y10.00 Z0.20 E2.50 ; sets the jerk limits, mm/sec
M205 S0 T0 ; sets the minimum extruding and travel feed rate, mm/sec
M107
M115 U3.2.3 ; tell printer latest fw version
M83  ; extruder relative mode
M204 S2000 T1500 ; MK2 firmware only supports the old M204 format
M104 S215 ; set extruder temp
M140 S60 ; set bed temp
M190 S60 ; wait for bed temp
M109 S215 ; wait for extruder temp
G28 W ; home all without mesh bed level
G80 ; mesh bed leveling
G1 Y-3.0 F1000.0 ; go outside print area
G92 E0.0
G1 X60.0 E9.0  F1000.0 ; intro line
M73 P0 R71
G1 X100.0 E12.5  F1000.0 ; intro line
G92 E0.0
M900 K30 ; Filament gcode
G21 ; set units to millimeters
G90 ; use absolute coordinates
M83 ; use relative distances for extrusion
;BEFORE_LAYER_CHANGE
G92 E0.0
;0.2


G1 E-0.80000 F2100.00000
G1 Z0.600 F10800.000
;AFTER_LAYER_CHANGE
;0.2
G1 X99.304 Y83.685
G1 Z0.200
G1 E0.80000 F2100.00000
M204 S1000
G1 F1200
G1 X99.837 Y83.456 E0.01817
G1 X100.414 Y83.375 E0.01828
G1 X150.431 Y83.375 E1.56824
G1 X151.338 Y83.573 E0.02911
G1 X151.739 Y83.812 E0.01464
G1 X152.083 Y84.133 E0.01475
G1 X177.338 Y114.496 E1.23829
G1 X177.539 Y114.989 E0.01669
G1 X177.615 Y115.520 E0.01680
G1 X177.613 Y128.373 E0.40301
G1 X177.521 Y128.901 E0.01680
G1 X177.303 Y129.391 E0.01680
G1 X176.973 Y129.813 E0.01680
G1 X176.550 Y130.142 E0.01680
G1 X176.014 Y130.372 E0.01828
G1 X175.433 Y130.452 E0.01839
G1 X75.412 Y130.452 E3.13607
G1 X74.856 Y130.376 E0.01760
G1 X74.341 Y130.163 E0.01749
G1 X73.896 Y129.827 E0.01749
G1 X73.549 Y129.386 E0.01760
G1 X73.319 Y128.850 E0.01828
G1 X73.239 Y128.269 E0.01839
G1 X73.239 Y115.520 E0.39976
G1 X73.315 Y114.989 E0.01680
G1 X73.520 Y114.490 E0.01692
G1 X98.748 Y84.160 E1.23696
G1 X99.259 Y83.724 E0.02104
; PURGING FINISHED
G1 F8640
G1 X99.837 Y83.456 E-0.14708
G1 X100.414 Y83.375 E-0.13462
G1 X102.485 Y83.375 E-0.47830
G1 E-0.04000 F2100.00000
G1 Z0.800 F10800.000
G1 X113.333 Y109.961
G1 Z0.200
G1 E0.80000 F2100.00000
G1 F1200
G1 X114.136 Y109.802 E0.02567
G1 X114.939 Y109.961 E0.02567
G1 X115.620 Y110.416 E0.02567
G1 X116.075 Y111.097 E0.02567
G1 X116.235 Y111.900 E0.02567
G1 X116.075 Y112.703 E0.02567
G1 X115.620 Y113.384 E0.02567
G1 X114.939 Y113.839 E0.02567
G1 X114.136 Y113.999 E0.02567
G1 X113.333 Y113.839 E0.02567
G1 X112.652 Y113.384 E0.02567
G1 X112.197 Y112.703 E0.02567
G1 X112.038 Y111.900 E0.02567
G1 X112.197 Y111.097 E0.02567
G1 X112.652 Y110.416 E0.02567
G1 X113.283 Y109.995 E0.02379
G1 X113.480 Y110.316 F10800.000
G1 F1200
G1 X114.136 Y110.186 E0.02097
G1 X114.792 Y110.316 E0.02097
G1 X115.348 Y110.688 E0.02097
G1 X115.720 Y111.244 E0.02097
G1 X115.850 Y111.900 E0.02097
G1 X115.720 Y112.556 E0.02097
G1 X115.348 Y113.112 E0.02097
G1 X114.792 Y113.484 E0.02097
G1 X114.136 Y113.614 E0.02097
G1 X113.480 Y113.484 E0.02097
G1 X112.924 Y113.112 E0.02097
G1 X112.553 Y112.556 E0.02097
G1 X112.422 Y111.900 E0.02097
G1 X112.553 Y111.244 E0.02097
G1 X112.924 Y110.688 E0.02097
G1 X113.430 Y110.350 E0.01909
G1 X113.533 Y109.920 F10800.000
G1 F8640
G1 X114.136 Y110.186 E-0.16731
G1 X114.792 Y110.316 E-0.15443
G1 X115.348 Y110.688 E-0.15443
G1 X115.720 Y111.244 E-0.15443
G1 X115.829 Y111.794 E-0.12939
G1 E-0.04000 F2100.00000
G1 Z0.800 F10800.000
G1 X110.230 Y102.535
G1 Z0.200
G1 E0.80000 F2100.00000
G1 F1200
G1 X109.427 Y102.694 E0.02567
G1 X108.624 Y102.535 E0.02567
G1 X107.943 Y102.080 E0.02567
G1 X107.488 Y101.399 E0.02567
G1 X107.328 Y100.596 E0.02567
G1 X107.488 Y99.793 E0.02567
G1 X107.943 Y99.112 E0.02567
G1 X108.624 Y98.657 E0.02567
G1 X109.427 Y98.497 E0.02567
G1 X110.230 Y98.657 E0.02567
G1 X110.911 Y99.112 E0.02567
G1 X111.366 Y99.793 E0.02567
G1 X111.526 Y100.596 E0.02567
G1 X111.366 Y101.399 E0.02567
G1 X110.911 Y102.080 E0.02567
G1 X110.280 Y102.501 E0.02379
G1 X110.083 Y102.180 F10800.000
G1 F1200
G1 X109.427 Y102.310 E0.02097
G1 X108.771 Y102.180 E0.02097
G1 X108.215 Y101.808 E0.02097
G1 X107.843 Y101.252 E0.02097
G1 X107.713 Y100.596 E0.02097
G1 X107.843 Y99.940 E0.02097
G1 X108.215 Y99.384 E0.02097
G1 X108.771 Y99.012 E0.02097
G1 X109.427 Y98.882 E0.02097
G1 X110.083 Y99.012 E0.02097
G1 X110.639 Y99.384 E0.02097
G1 X111.011 Y99.940 E0.02097
G1 X111.141 Y100.596 E0.02097
G1 X111.011 Y101.252 E0.02097
G1 X110.639 Y101.808 E0.02097
G1 X110.133 Y102.146 E0.01909
G1 X110.031 Y102.576 F10800.000
G1 F8640
G1 X109.427 Y102.310 E-0.16732
G1 X108.771 Y102.180 E-0.15443
G1 X108.215 Y101.808 E-0.15443
G1 X107.843 Y101.252 E-0.15443
G1 X107.734 Y100.702 E-0.12939
G1 E-0.04000 F2100.00000
G1 Z0.800 F10800.000
G1 X113.287 Y91.212
G1 Z0.200
G1 E0.80000 F2100.00000
G1 F1200
G1 X112.607 Y90.757 E0.02567
G1 X112.152 Y90.076 E0.02567
G1 X111.992 Y89.273 E0.02567
G1 X112.152 Y88.470 E0.02567
G1 X112.607 Y87.789 E0.02567
G1 X113.287 Y87.334 E0.02567
G1 X114.090 Y87.174 E0.02567
G1 X114.894 Y87.334 E0.02567
G1 X115.574 Y87.789 E0.02567
G1 X116.029 Y88.470 E0.02567
G1 X116.189 Y89.273 E0.02567
G1 X116.029 Y90.076 E0.02567
G1 X115.574 Y90.757 E0.02567
G1 X114.894 Y91.212 E0.02567
G1 X114.090 Y91.371 E0.02567
G1 X113.346 Y91.223 E0.02379
G1 X113.434 Y90.856 F10800.000
G1 F1200
G1 X112.878 Y90.485 E0.02097
G1 X112.507 Y89.929 E0.02097
G1 X112.376 Y89.273 E0.02097
G1 X112.507 Y88.617 E0.02097
G1 X112.878 Y88.061 E0.02097
G1 X113.434 Y87.689 E0.02097
G1 X114.090 Y87.559 E0.02097
G1 X114.746 Y87.689 E0.02097
G1 X115.302 Y88.061 E0.02097
G1 X115.674 Y88.617 E0.02097
G1 X115.805 Y89.273 E0.02097
G1 X115.674 Y89.929 E0.02097
G1 X115.302 Y90.485 E0.02097
G1 X114.746 Y90.856 E0.02097
G1 X114.090 Y90.987 E0.02097
G1 X113.493 Y90.868 E0.01909
G1 X113.117 Y91.100 F10800.000
G1 F8640
G1 X112.878 Y90.485 E-0.16731
G1 X112.507 Y89.929 E-0.15443
G1 X112.376 Y89.273 E-0.15443
G1 X112.507 Y88.617 E-0.15443
G1 X112.818 Y88.151 E-0.12939
G1 E-0.04000 F2100.00000
G1 Z0.800 F10800.000
G1 X116.322 Y93.405
G1 Z0.200
G1 E0.80000 F2100.00000
G1 F1200
G1 X117.387 Y92.218 E0.05000
G1 X118.680 Y91.141 E0.05276
G1 X120.124 Y90.259 E0.05305
G1 X121.690 Y89.594 E0.05333
G1 X123.327 Y89.167 E0.05305
G1 X124.999 Y88.983 E0.05276
G1 X126.699 Y89.045 E0.05333
G1 X128.363 Y89.353 E0.05305
G1 X129.955 Y89.896 E0.05276
G1 X131.468 Y90.674 E0.05333
G1 X132.843 Y91.659 E0.05305
G1 X134.061 Y92.834 E0.05304
G1 X135.089 Y94.166 E0.05276
G1 X135.918 Y95.640 E0.05304
G1 X136.523 Y97.220 E0.05305
G1 X136.893 Y98.881 E0.05333
G1 X137.016 Y100.568 E0.05305
G1 X136.893 Y102.246 E0.05276
G1 X136.523 Y103.907 E0.05333
G1 X135.918 Y105.487 E0.05305
G1 X135.089 Y106.961 E0.05304
G1 X134.061 Y108.293 E0.05276
G1 X132.836 Y109.474 E0.05333
G1 X131.460 Y110.458 E0.05305
G1 X129.963 Y111.227 E0.05276
G1 X128.354 Y111.776 E0.05333
G1 X126.690 Y112.083 E0.05305
G1 X124.999 Y112.144 E0.05304
G1 X123.327 Y111.960 E0.05276
G1 X121.681 Y111.530 E0.05333
G1 X120.124 Y110.867 E0.05305
G1 X118.680 Y109.986 E0.05304
G1 X117.387 Y108.909 E0.05276
G1 X116.258 Y107.650 E0.05305
G1 X115.319 Y106.231 E0.05333
G1 X114.602 Y104.699 E0.05305
G1 X114.117 Y103.088 E0.05276
G1 X113.870 Y101.414 E0.05305
G1 X113.870 Y99.713 E0.05333
G1 X114.117 Y98.039 E0.05305
G1 X114.605 Y96.419 E0.05304
G1 X115.319 Y94.896 E0.05276
G1 X116.282 Y93.450 E0.05448
G1 X116.557 Y93.708 F10800.000
G1 F1200
G1 X117.649 Y92.490 E0.05131
G1 X118.901 Y91.449 E0.05103
G1 X120.297 Y90.596 E0.05131
G1 X121.812 Y89.952 E0.05160
G1 X123.395 Y89.539 E0.05131
G1 X125.013 Y89.361 E0.05103
G1 X126.658 Y89.421 E0.05160
G1 X128.267 Y89.719 E0.05131
G1 X129.807 Y90.244 E0.05103
G1 X131.271 Y90.997 E0.05160
G1 X132.602 Y91.950 E0.05132
G1 X133.779 Y93.086 E0.05131
G1 X134.774 Y94.374 E0.05103
G1 X135.576 Y95.801 E0.05131
G1 X136.161 Y97.329 E0.05132
G1 X136.519 Y98.936 E0.05160
G1 X136.637 Y100.568 E0.05131
G1 X136.519 Y102.191 E0.05103
G1 X136.161 Y103.798 E0.05160
G1 X135.576 Y105.326 E0.05132
G1 X134.774 Y106.753 E0.05131
G1 X133.779 Y108.041 E0.05103
G1 X132.595 Y109.183 E0.05160
G1 X131.263 Y110.135 E0.05131
G1 X129.816 Y110.879 E0.05103
G1 X128.258 Y111.411 E0.05160
G1 X126.649 Y111.707 E0.05132
G1 X125.013 Y111.766 E0.05131
G1 X123.395 Y111.588 E0.05103
G1 X121.803 Y111.172 E0.05160
G1 X120.297 Y110.531 E0.05132
G1 X118.901 Y109.678 E0.05131
G1 X117.649 Y108.637 E0.05103
G1 X116.557 Y107.419 E0.05131
G1 X115.649 Y106.046 E0.05160
G1 X114.955 Y104.564 E0.05131
G1 X114.486 Y103.005 E0.05103
G1 X114.247 Y101.386 E0.05131
G1 X114.247 Y99.741 E0.05160
G1 X114.486 Y98.122 E0.05132
G1 X114.958 Y96.555 E0.05131
G1 X115.649 Y95.081 E0.05103
G1 X116.524 Y93.758 E0.04971
G1 X116.405 Y93.338 F10800.000
G1 F8640
G1 X117.649 Y92.490 E-0.39161
G1 X118.876 Y91.469 E-0.36839
G1 E-0.04000 F2100.00000
G1 Z0.800 F10800.000
G1 X134.779 Y90.030
G1 Z0.200
G1 E0.80000 F2100.00000
G1 F1200
G1 X134.619 Y89.227 E0.02567
G1 X134.779 Y88.424 E0.02567
G1 X135.234 Y87.743 E0.02567
G1 X135.915 Y87.288 E0.02567
G1 X136.718 Y87.128 E0.02567
G1 X137.521 Y87.288 E0.02567
G1 X138.202 Y87.743 E0.02567
G1 X138.657 Y88.424 E0.02567
G1 X138.816 Y89.227 E0.02567
G1 X138.657 Y90.030 E0.02567
G1 X138.202 Y90.711 E0.02567
G1 X137.521 Y91.166 E0.02567
G1 X136.718 Y91.325 E0.02567
G1 X135.915 Y91.166 E0.02567
G1 X135.234 Y90.711 E0.02567
G1 X134.812 Y90.080 E0.02379
G1 X135.134 Y89.883 F10800.000
G1 F1200
G1 X135.004 Y89.227 E0.02097
G1 X135.134 Y88.571 E0.02097
G1 X135.506 Y88.015 E0.02097
G1 X136.062 Y87.643 E0.02097
G1 X136.718 Y87.513 E0.02097
G1 X137.374 Y87.643 E0.02097
G1 X137.930 Y88.015 E0.02097
G1 X138.301 Y88.571 E0.02097
G1 X138.432 Y89.227 E0.02097
G1 X138.301 Y89.883 E0.02097
G1 X137.930 Y90.439 E0.02097
G1 X137.374 Y90.811 E0.02097
G1 X136.718 Y90.941 E0.02097
G1 X136.062 Y90.811 E0.02097
G1 X135.506 Y90.439 E0.02097
G1 X135.167 Y89.933 E0.01909
G1 X134.738 Y89.831 F10800.000
G1 F8640
G1 X135.004 Y89.227 E-0.16731
G1 X135.134 Y88.571 E-0.15443
G1 X135.506 Y88.015 E-0.15443
G1 X136.062 Y87.643 E-0.15443
G1 X136.611 Y87.534 E-0.12939
G1 E-0.04000 F2100.00000
G1 Z0.800 F10800.000
G1 X140.624 Y98.592
G1 Z0.200
G1 E0.80000 F2100.00000
G1 F1200
G1 X141.427 Y98.432 E0.02567
G1 X142.230 Y98.592 E0.02567
G1 X142.911 Y99.047 E0.02567
G1 X143.366 Y99.728 E0.02567
G1 X143.526 Y100.531 E0.02567
G1 X143.366 Y101.334 E0.02567
G1 X142.911 Y102.015 E0.02567
G1 X142.230 Y102.470 E0.02567
G1 X141.427 Y102.630 E0.02567
G1 X140.624 Y102.470 E0.02567
G1 X139.943 Y102.015 E0.02567
G1 X139.488 Y101.334 E0.02567
G1 X139.328 Y100.531 E0.02567
G1 X139.488 Y99.728 E0.02567
G1 X139.943 Y99.047 E0.02567
G1 X140.574 Y98.626 E0.02379
G1 X140.771 Y98.947 F10800.000
G1 F1200
G1 X141.427 Y98.817 E0.02097
G1 X142.083 Y98.947 E0.02097
G1 X142.639 Y99.319 E0.02097
G1 X143.011 Y99.875 E0.02097
G1 X143.141 Y100.531 E0.02097
G1 X143.011 Y101.187 E0.02097
G1 X142.639 Y101.743 E0.02097
G1 X142.083 Y102.115 E0.02097
G1 X141.427 Y102.245 E0.02097
G1 X140.771 Y102.115 E0.02097
G1 X140.215 Y101.743 E0.02097
G1 X139.843 Y101.187 E0.02097
G1 X139.713 Y100.531 E0.02097
G1 X139.843 Y99.875 E0.02097
G1 X140.215 Y99.319 E0.02097
G1 X140.721 Y98.981 E0.01909
G1 X140.823 Y98.551 F10800.000
G1 F8640
G1 X141.427 Y98.817 E-0.16732
G1 X142.083 Y98.947 E-0.15443
G1 X142.639 Y99.319 E-0.15443
G1 X143.011 Y99.875 E-0.15443
G1 X143.120 Y100.425 E-0.12939
G1 E-0.04000 F2100.00000
G1 Z0.800 F10800.000
G1 X137.567 Y109.915
G1 Z0.200
G1 E0.80000 F2100.00000
G1 F1200
G1 X138.248 Y110.370 E0.02567
G1 X138.702 Y111.051 E0.02567
G1 X138.862 Y111.854 E0.02567
G1 X138.702 Y112.657 E0.02567
G1 X138.248 Y113.338 E0.02567
G1 X137.567 Y113.793 E0.02567
G1 X136.764 Y113.953 E0.02567
G1 X135.961 Y113.793 E0.02567
G1 X135.280 Y113.338 E0.02567
G1 X134.825 Y112.657 E0.02567
G1 X134.665 Y111.854 E0.02567
G1 X134.825 Y111.051 E0.02567
G1 X135.280 Y110.370 E0.02567
G1 X135.961 Y109.915 E0.02567
G1 X136.764 Y109.756 E0.02567
G1 X137.508 Y109.904 E0.02379
G1 X137.420 Y110.271 F10800.000
G1 F1200
G1 X137.976 Y110.642 E0.02097
G1 X138.347 Y111.198 E0.02097
G1 X138.478 Y111.854 E0.02097
G1 X138.347 Y112.510 E0.02097
G1 X137.976 Y113.066 E0.02097
G1 X137.420 Y113.438 E0.02097
G1 X136.764 Y113.568 E0.02097
G1 X136.108 Y113.438 E0.02097
G1 X135.552 Y113.066 E0.02097
G1 X135.180 Y112.510 E0.02097
G1 X135.050 Y111.854 E0.02097
G1 X135.180 Y111.198 E0.02097
G1 X135.552 Y110.642 E0.02097
G1 X136.108 Y110.271 E0.02097
G1 X136.764 Y110.140 E0.02097
G1 X137.361 Y110.259 E0.01909
G1 X137.737 Y110.027 F10800.000
G1 F8640
G1 X137.976 Y110.642 E-0.16732
G1 X138.347 Y111.198 E-0.15443
G1 X138.478 Y111.854 E-0.15443
G1 X138.347 Y112.510 E-0.15443
G1 X138.036 Y112.976 E-0.12939
G1 E-0.04000 F2100.00000
G1 Z0.800 F10800.000
G1 X149.840 Y116.151
G1 Z0.200
G1 E0.80000 F2100.00000
G1 F1200
G1 X174.840 Y116.151 E0.78386
G1 X174.840 Y127.676 E0.36138
G1 X76.014 Y127.676 E3.09861
G1 X76.014 Y116.151 E0.36138
G1 X101.014 Y116.151 E0.78386
G1 X101.014 Y86.151 E0.94063
G1 X149.840 Y86.151 E1.53090
G1 X149.840 Y116.091 E0.93875
G1 X150.217 Y115.773 F10800.000
G1 F1200
G1 X175.217 Y115.773 E0.78386
G1 X175.217 Y128.053 E0.38503
G1 X75.637 Y128.053 E3.12226
G1 X75.637 Y115.773 E0.38503
G1 X100.637 Y115.773 E0.78386
G1 X100.637 Y85.773 E0.94063
G1 X150.217 Y85.773 E1.55455
M73 P1 R70
G1 X150.217 Y115.713 E0.93875
G1 X150.351 Y116.150 F10800.000
G1 F8640
G1 X153.508 Y115.721 E-0.76000
G1 E-0.04000 F2100.00000
G1 Z0.800 F10800.000
G1 X149.727 Y112.697
G1 Z0.200
G1 E0.80000 F2100.00000
G1 F1200
G1 X137.276 Y100.246 E0.55366
G1 X137.299 Y100.568 E0.01017
G1 X137.283 Y100.788 E0.00693
G1 X149.557 Y113.062 E0.54578
G1 X149.557 Y113.597 E0.01681
G1 X137.247 Y101.286 E0.54740
G1 X137.210 Y101.784 E0.01571
G1 X149.557 Y114.132 E0.54903
G1 X149.557 Y114.666 E0.01681
G1 X137.174 Y102.283 E0.55065
G1 X137.077 Y102.721 E0.01410
G1 X149.557 Y115.201 E0.55495
G1 X149.557 Y115.736 E0.01681
G1 X136.837 Y103.016 E0.56561
G1 F8640
G1 X139.165 Y105.343 E-0.76000
G1 E-0.04000 F2100.00000
G1 Z0.800 F10800.000
G1 X135.088 Y107.149
G1 Z0.200
G1 E0.80000 F2100.00000
G1 F1200
G1 X137.566 Y109.627 E0.11020
G1 X136.898 Y109.494 E0.02140
G1 X134.976 Y107.571 E0.08550
G1 X134.743 Y107.873 E0.01199
G1 X136.408 Y109.538 E0.07404
G1 X135.962 Y109.627 E0.01430
G1 X134.510 Y108.175 E0.06456
G1 X134.277 Y108.477 E0.01199
G1 X135.610 Y109.810 E0.05928
G1 X135.289 Y110.024 E0.01212
G1 X134.005 Y108.740 E0.05710
G1 X133.733 Y109.002 E0.01189
G1 X135.004 Y110.274 E0.05653
G1 X134.790 Y110.594 E0.01212
G1 X133.461 Y109.265 E0.05911
G1 X133.188 Y109.527 E0.01189
G1 X134.576 Y110.915 E0.06170
G1 X134.477 Y111.351 E0.01405
G1 X132.901 Y109.775 E0.07006
G1 X132.589 Y109.998 E0.01205
G1 X134.388 Y111.797 E0.07999
G1 X134.377 Y111.854 E0.00184
G1 X134.492 Y112.436 E0.01865
G1 X132.278 Y110.221 E0.09849
G1 X131.966 Y110.444 E0.01205
G1 X148.915 Y127.394 E0.75368
G1 X149.450 Y127.394 E0.01681
G1 X136.182 Y114.125 E0.58998
G1 X136.764 Y114.241 E0.01865
G1 X136.821 Y114.230 E0.00184
G1 X149.985 Y127.394 E0.58534
G1 X150.520 Y127.394 E0.01681
G1 X137.267 Y114.141 E0.58929
G1 X137.703 Y114.042 E0.01405
G1 X151.054 Y127.394 E0.59368
G1 X151.589 Y127.394 E0.01681
G1 X138.024 Y113.828 E0.60321
G1 X138.344 Y113.614 E0.01212
G1 X152.124 Y127.394 E0.61273
G1 X152.659 Y127.394 E0.01681
G1 X138.594 Y113.329 E0.62540
G1 X138.808 Y113.008 E0.01212
G1 X153.194 Y127.394 E0.63966
G1 X153.728 Y127.394 E0.01681
G1 X138.991 Y112.656 E0.65531
G1 X139.080 Y112.210 E0.01430
G1 X154.263 Y127.394 E0.67514
G1 X154.798 Y127.394 E0.01681
G1 X139.124 Y111.720 E0.69696
G1 X138.991 Y111.052 E0.02140
G1 X155.333 Y127.394 E0.72664
G1 X155.867 Y127.394 E0.01681
G1 X135.421 Y106.948 E0.90915
G1 X135.614 Y106.605 E0.01235
G1 X156.402 Y127.394 E0.92437
G1 X156.937 Y127.394 E0.01681
G1 X135.806 Y106.263 E0.93960
