; generated by Slic3r Prusa Edition 1.41.3+ on 2021-04-06 at 09:15:14

; 

; external perimeters extrusion width = 0.60mm
; perimeters extrusion width = 0.43mm
; infill extrusion width = 0.45mm
; solid infill extrusion width = 0.70mm
; top infill extrusion width = 0.43mm
; first layer extrusion width = 0.42mm

M73 P0 R2
M201 X9000 Y9000 Z500 E10000 ; sets maximum accelerations, mm/sec^2
M203 X500 Y500 Z12 E120 ; sets maximum feedrates, mm/sec
M204 P2000 R1500 T2000 ; sets acceleration (P, T) and retract acceleration (R), mm/sec^2
M205 X10.00 Y10.00 Z0.20 E2.50 ; sets the jerk limits, mm/sec
M205 S0 T0 ; sets the minimum extruding and travel feed rate, mm/sec
M107
M115 U3.2.3 ; tell printer latest fw version
M83  ; extruder relative mode
M204 S2000 T1500 ; MK2 firmware only supports the old M204 format
M104 S215 ; set extruder temp
M140 S60 ; set bed temp
M190 S60 ; wait for bed temp
M109 S215 ; wait for extruder temp
G28 W ; home all without mesh bed level
G80 ; mesh bed leveling
G1 Y-3.0 F1000.0 ; go outside print area
G92 E0.0
G1 X60.0 E9.0  F1000.0 ; intro line
M73 P3 R2
G1 X100.0 E12.5  F1000.0 ; intro line
G92 E0.0
M900 K30 ; Filament gcode
G21 ; set units to millimeters
G90 ; use absolute coordinates
M83 ; use relative distances for extrusion
;BEFORE_LAYER_CHANGE
G92 E0.0
;0.2


G1 E-0.80000 F2100.00000
G1 Z0.600 F10800.000
;AFTER_LAYER_CHANGE
;0.2
G1 X120.218 Y99.288
G1 Z0.200
G1 E0.80000 F2100.00000
M204 S1000
G1 F900
G1 X121.215 Y99.043 E0.03219
G1 X128.505 Y99.030 E0.22857
G1 X129.583 Y99.212 E0.03428
G1 X130.543 Y99.734 E0.03428
G1 X131.282 Y100.539 E0.03428
G1 X131.719 Y101.537 E0.03414
G1 X131.820 Y102.307 E0.02436
G1 X131.768 Y105.582 E0.10269
G1 X131.380 Y106.651 E0.03567
G1 X130.653 Y107.527 E0.03567
G1 X129.778 Y108.064 E0.03219
G1 X128.781 Y108.308 E0.03219
G1 X121.396 Y108.318 E0.23153
G1 X120.715 Y108.226 E0.02156
G1 X120.064 Y107.993 E0.02170
G1 X119.474 Y107.630 E0.02170
G1 X118.973 Y107.153 E0.02170
G1 X118.485 Y106.389 E0.02842
G1 X118.222 Y105.522 E0.02842
G1 X118.184 Y102.184 E0.10469
G1 X118.286 Y101.517 E0.02113
G1 X118.521 Y100.885 E0.02113
G1 X118.878 Y100.314 E0.02113
G1 X119.347 Y99.823 E0.02127
G1 X120.167 Y99.319 E0.03017
G1 X120.425 Y99.611 F10800.000
G1 F900
G1 X121.285 Y99.415 E0.02767
G1 X128.504 Y99.407 E0.22634
G1 X129.469 Y99.571 E0.03068
G1 X130.330 Y100.046 E0.03082
G1 X130.987 Y100.777 E0.03082
G1 X131.366 Y101.683 E0.03082
G1 X131.443 Y102.330 E0.02042
G1 X131.394 Y105.531 E0.10038
G1 X131.026 Y106.509 E0.03278
G1 X130.336 Y107.300 E0.03291
G1 X129.571 Y107.741 E0.02767
G1 X128.710 Y107.935 E0.02767
G1 X121.377 Y107.940 E0.22993
G1 X120.758 Y107.848 E0.01963
G1 X120.169 Y107.624 E0.01976
G1 X119.644 Y107.283 E0.01963
G1 X119.200 Y106.836 E0.01976
G1 X118.794 Y106.157 E0.02477
G1 X118.584 Y105.396 E0.02477
G1 X118.564 Y102.151 E0.10174
G1 X118.668 Y101.551 E0.01910
G1 X118.893 Y100.985 E0.01910
G1 X119.230 Y100.477 E0.01910
G1 X119.664 Y100.050 E0.01910
G1 X120.373 Y99.641 E0.02565
G1 X120.622 Y99.939 F10800.000
G1 F900
G1 X121.348 Y99.789 E0.02324
G1 X128.504 Y99.784 E0.22437
G1 X129.358 Y99.932 E0.02717
G1 X130.117 Y100.358 E0.02729
G1 X130.690 Y101.013 E0.02729
G1 X131.011 Y101.822 E0.02729
G1 X131.066 Y102.340 E0.01635
G1 X131.022 Y105.472 E0.09820
G1 X130.678 Y106.356 E0.02973
G1 X130.034 Y107.057 E0.02985
G1 X129.378 Y107.411 E0.02337
G1 X128.648 Y107.561 E0.02337
G1 X121.373 Y107.562 E0.22809
G1 X120.820 Y107.474 E0.01758
G1 X120.295 Y107.265 E0.01771
G1 X119.829 Y106.947 E0.01771
G1 X119.443 Y106.534 E0.01771
G1 X119.115 Y105.944 E0.02116
G1 X118.951 Y105.290 E0.02116
G1 X118.943 Y102.137 E0.09887
G1 X119.045 Y101.605 E0.01697
G1 X119.256 Y101.107 E0.01697
G1 X119.569 Y100.661 E0.01709
G1 X119.966 Y100.293 E0.01697
G1 X120.569 Y99.968 E0.02149
G1 X120.801 Y100.276 F10800.000
G1 F900
G1 X121.395 Y100.164 E0.01896
G1 X128.504 Y100.161 E0.22287
G1 X129.248 Y100.293 E0.02372
G1 X129.901 Y100.669 E0.02360
G1 X130.388 Y101.243 E0.02360
G1 X130.651 Y101.948 E0.02360
G1 X130.651 Y105.403 E0.10834
G1 X130.335 Y106.192 E0.02664
G1 X129.743 Y106.801 E0.02664
G1 X129.199 Y107.074 E0.01908
G1 X128.601 Y107.186 E0.01908
G1 X121.379 Y107.185 E0.22642
G1 X120.891 Y107.102 E0.01555
G1 X120.430 Y106.909 E0.01567
G1 X120.027 Y106.619 E0.01555
G1 X119.699 Y106.243 E0.01567
G1 X119.443 Y105.747 E0.01749
G1 X119.321 Y105.199 E0.01760
G1 X119.322 Y102.138 E0.09597
G1 X119.418 Y101.674 E0.01487
G1 X119.613 Y101.242 E0.01487
G1 X119.896 Y100.861 E0.01487
G1 X120.257 Y100.549 E0.01498
G1 X120.748 Y100.303 E0.01719
; PURGING FINISHED
G1 F8640
G1 X121.395 Y100.164 E-0.15301
G1 X124.024 Y100.163 E-0.60699
G1 E-0.04000 F2100.00000
G1 Z0.800 F10800.000
G1 X122.290 Y103.140
G1 Z0.200
G1 E0.80000 F2100.00000
G1 F900
G1 X127.710 Y103.140 E0.16994
G1 X127.710 Y104.210 E0.03355
G1 X122.290 Y104.210 E0.16994
G1 X122.290 Y103.200 E0.03167
G1 X122.113 Y102.781 F10800.000
G1 X121.710 Y102.560
G1 F900
G1 X128.290 Y102.560 E0.20631
G1 X128.290 Y104.790 E0.06992
G1 X121.710 Y104.790 E0.20631
G1 X121.710 Y102.620 E0.06804
G1 X122.108 Y102.603 F10800.000
G1 X122.017 Y102.867
G1 F900
G1 X122.101 Y102.850 E0.00145
G1 X127.899 Y102.850 E0.09782
G1 X127.983 Y102.867 E0.00145
G1 X128.000 Y102.951 E0.00145
G1 X128.000 Y104.399 E0.02442
G1 X127.983 Y104.483 E0.00145
G1 X127.899 Y104.500 E0.00145
G1 X122.101 Y104.500 E0.09782
G1 X122.017 Y104.483 E0.00145
G1 X122.000 Y104.399 E0.00145
G1 X122.000 Y102.951 E0.02442
G1
G1 X122.005 Y102.926 E0.00051
M106 S255
;BEFORE_LAYER_CHANGE
G92 E0.0
;0.55


G1 F8640
G1 X122.101 Y102.850 E-0.02834
G1 X125.270 Y102.850 E-0.73166
G1 E-0.04000 F2100.00000
G1 Z0.800 F10800.000
;AFTER_LAYER_CHANGE
;0.55
M104 S210 ; set temperature
G1 X118.222 Y105.522
G1 Z0.550
G1 E0.80000 F2100.00000
G1 F900
G1 X118.184 Y102.184 E0.16756
G1 X118.286 Y101.517 E0.03383
G1 X118.521 Y100.885 E0.03383
G1 X118.878 Y100.314 E0.03383
G1 X119.347 Y99.823 E0.03405
G1 X120.218 Y99.288 E0.05130
G1 X121.215 Y99.043 E0.05152
G1 X128.505 Y99.030 E0.36585
G1 X129.583 Y99.212 E0.05487
G1 X130.543 Y99.734 E0.05487
G1 X131.282 Y100.539 E0.05487
G1 X131.719 Y101.537 E0.05465
G1 X131.820 Y102.307 E0.03899
G1 X131.768 Y105.582 E0.16437
G1 X131.380 Y106.651 E0.05710
G1 X130.653 Y107.527 E0.05710
G1 X129.778 Y108.064 E0.05152
G1 X128.781 Y108.308 E0.05152
G1 X121.396 Y108.318 E0.37059
G1 X120.715 Y108.226 E0.03450
G1 X120.064 Y107.993 E0.03473
G1 X119.474 Y107.630 E0.03473
G1 X118.973 Y107.153 E0.03473
G1 X118.485 Y106.389 E0.04549
G1 X118.239 Y105.579 E0.04248
; PURGING FINISHED
G1 F8640
G1 X118.186 Y102.288 E-0.76000
G1 E-0.04000 F2100.00000
G1 Z1.150 F10800.000
G1 X122.200 Y104.300
G1 Z0.550
G1 E0.80000 F2100.00000
M204 S800
G1 F900
G1 X122.200 Y103.050 E0.09547
G1 X127.800 Y103.050 E0.42772
G1 X127.800 Y104.300 E0.09547
G1 X122.260 Y104.300 E0.42314
M204 S1000
G1 X121.801 Y104.329 F10800.000
G1 X121.800 Y104.700
M204 S800
G1 F900
G1 X121.800 Y102.650 E0.15658
G1 X128.200 Y102.650 E0.48882
G1 X128.200 Y104.700 E0.15658
G1 X121.860 Y104.700 E0.48424
M204 S1000
G1 X121.963 Y104.335 F10800.000
;BEFORE_LAYER_CHANGE
G92 E0.0
;0.9


G1 F8640
G1 X121.800 Y102.650 E-0.47355
G1 X123.041 Y102.650 E-0.28645
G1 E-0.04000 F2100.00000
G1 Z1.150 F10800.000
;AFTER_LAYER_CHANGE
;0.9
G1 X131.380 Y106.651
G1 Z0.900
G1 E0.80000 F2100.00000
G1 F900
G1 X130.653 Y107.527 E0.05710
G1 X129.778 Y108.064 E0.05152
G1 X128.781 Y108.308 E0.05152
G1 X121.396 Y108.318 E0.37059
G1 X120.715 Y108.226 E0.03450
G1 X120.064 Y107.993 E0.03473
G1 X119.474 Y107.630 E0.03473
G1 X118.973 Y107.153 E0.03473
G1 X118.485 Y106.389 E0.04549
G1 X118.222 Y105.522 E0.04549
G1 X118.184 Y102.184 E0.16756
G1 X118.286 Y101.517 E0.03383
G1 X118.521 Y100.885 E0.03383
G1 X118.878 Y100.314 E0.03383
G1 X119.347 Y99.823 E0.03405
G1 X120.218 Y99.288 E0.05130
G1 X121.215 Y99.043 E0.05152
G1 X128.505 Y99.030 E0.36585
G1 X129.583 Y99.212 E0.05487
G1 X130.543 Y99.734 E0.05487
G1 X131.282 Y100.539 E0.05487
G1 X131.719 Y101.537 E0.05465
G1 X131.820 Y102.307 E0.03899
G1 X131.768 Y105.582 E0.16437
G1 X131.400 Y106.595 E0.05409
; PURGING FINISHED
G1 F8640
G1 X130.653 Y107.527 E-0.27578
G1 X129.778 Y108.064 E-0.23706
G1 X128.781 Y108.308 E-0.23706
G1 X128.737 Y108.308 E-0.01010
G1 E-0.04000 F2100.00000
G1 Z1.500 F10800.000
G1 X127.800 Y104.300
G1 Z0.900
G1 E0.80000 F2100.00000
M204 S800
G1 F900
G1 X122.200 Y104.300 E0.42772
G1 X122.200 Y103.050 E0.09547
G1 X127.800 Y103.050 E0.42772
G1 X127.800 Y104.240 E0.09089
M204 S1000
G1 X127.974 Y104.660 F10800.000
G1 X128.200 Y104.700
M204 S800
G1 F900
G1 X121.800 Y104.700 E0.48882
G1 X121.800 Y102.650 E0.15658
G1 X128.200 Y102.650 E0.48882
G1 X128.200 Y104.640 E0.15199
M204 S1000
G1 X127.802 Y104.659 F10800.000
;BEFORE_LAYER_CHANGE
G92 E0.0
;1.25


G1 F8640
G1 X124.909 Y104.671 E-0.76000
G1 E-0.04000 F2100.00000
G1 Z1.500 F10800.000
;AFTER_LAYER_CHANGE
;1.25
; PURGING FINISHED
G1 X127.800 Y104.300
G1 Z1.250
G1 E0.80000 F2100.00000
M204 S800
G1 F900
G1 X122.200 Y104.300 E0.42772
G1 X122.200 Y103.050 E0.09547
G1 X127.800 Y103.050 E0.42772
G1 X127.800 Y104.240 E0.09089
M204 S1000
G1 X127.974 Y104.660 F10800.000
G1 X128.200 Y104.700
M204 S800
G1 F900
G1 X121.800 Y104.700 E0.48882
G1 X121.800 Y102.650 E0.15658
G1 X128.200 Y102.650 E0.48882
G1 X128.200 Y104.640 E0.15199
M204 S1000
G1 X127.802 Y104.659 F10800.000
;BEFORE_LAYER_CHANGE
G92 E0.0
;1.6


G1 F8640
G1 X124.909 Y104.671 E-0.76000
G1 E-0.04000 F2100.00000
G1 Z1.850 F10800.000
;AFTER_LAYER_CHANGE
;1.6
; PURGING FINISHED
G1 X127.800 Y104.300
G1 Z1.600
G1 E0.80000 F2100.00000
M204 S800
G1 F900
G1 X122.200 Y104.300 E0.42772
G1 X122.200 Y103.050 E0.09547
G1 X127.800 Y103.050 E0.42772
G1 X127.800 Y104.240 E0.09089
M204 S1000
G1 X127.974 Y104.660 F10800.000
G1 X128.200 Y104.700
M204 S800
G1 F900
G1 X121.800 Y104.700 E0.48882
G1 X121.800 Y102.650 E0.15658
G1 X128.200 Y102.650 E0.48882
G1 X128.200 Y104.640 E0.15199
M204 S1000
G1 X127.802 Y104.659 F10800.000
;BEFORE_LAYER_CHANGE
G92 E0.0
;1.95


G1 F8640
G1 X124.909 Y104.671 E-0.76000
G1 E-0.04000 F2100.00000
G1 Z2.200 F10800.000
;AFTER_LAYER_CHANGE
;1.95
; PURGING FINISHED
G1 X127.800 Y104.300
G1 Z1.950
G1 E0.80000 F2100.00000
M204 S800
G1 F900
G1 X122.200 Y104.300 E0.42772
G1 X122.200 Y103.050 E0.09547
G1 X127.800 Y103.050 E0.42772
G1 X127.800 Y104.240 E0.09089
M204 S1000
G1 X127.974 Y104.660 F10800.000
G1 X128.200 Y104.700
M204 S800
G1 F900
G1 X121.800 Y104.700 E0.48882
G1 X121.800 Y102.650 E0.15658
G1 X128.200 Y102.650 E0.48882
G1 X128.200 Y104.640 E0.15199
M204 S1000
G1 X127.802 Y104.659 F10800.000
;BEFORE_LAYER_CHANGE
G92 E0.0
;2.3


G1 F8640
G1 X124.909 Y104.671 E-0.76000
G1 E-0.04000 F2100.00000
G1 Z2.550 F10800.000
;AFTER_LAYER_CHANGE
;2.3
; PURGING FINISHED
G1 X127.800 Y104.300
G1 Z2.300
G1 E0.80000 F2100.00000
M204 S800
G1 F900
G1 X122.200 Y104.300 E0.42772
G1 X122.200 Y103.050 E0.09547
G1 X127.800 Y103.050 E0.42772
G1 X127.800 Y104.240 E0.09089
M204 S1000
G1 X127.974 Y104.660 F10800.000
G1 X128.200 Y104.700
M204 S800
G1 F900
G1 X121.800 Y104.700 E0.48882
G1 X121.800 Y102.650 E0.15658
G1 X128.200 Y102.650 E0.48882
G1 X128.200 Y104.640 E0.15199
M204 S1000
G1 X127.802 Y104.659 F10800.000
;BEFORE_LAYER_CHANGE
G92 E0.0
;2.65


G1 F8640
G1 X124.909 Y104.671 E-0.76000
G1 E-0.04000 F2100.00000
G1 Z2.900 F10800.000
;AFTER_LAYER_CHANGE
;2.65
; PURGING FINISHED
G1 X127.800 Y104.300
G1 Z2.650
G1 E0.80000 F2100.00000
M204 S800
G1 F900
G1 X122.200 Y104.300 E0.42772
G1 X122.200 Y103.050 E0.09547
G1 X127.800 Y103.050 E0.42772
G1 X127.800 Y104.240 E0.09089
M204 S1000
G1 X127.974 Y104.660 F10800.000
G1 X128.200 Y104.700
M204 S800
G1 F900
G1 X121.800 Y104.700 E0.48882
G1 X121.800 Y102.650 E0.15658
G1 X128.200 Y102.650 E0.48882
G1 X128.200 Y104.640 E0.15199
M204 S1000
G1 X127.802 Y104.659 F10800.000
;BEFORE_LAYER_CHANGE
G92 E0.0
;3


G1 F8640
G1 X124.909 Y104.671 E-0.76000
G1 E-0.04000 F2100.00000
G1 Z3.250 F10800.000
;AFTER_LAYER_CHANGE
;3
; PURGING FINISHED
G1 X127.800 Y104.300
G1 Z3.000
G1 E0.80000 F2100.00000
M204 S800
G1 F900
G1 X122.200 Y104.300 E0.42772
G1 X122.200 Y103.050 E0.09547
G1 X127.800 Y103.050 E0.42772
G1 X127.800 Y104.240 E0.09089
M204 S1000
G1 X127.974 Y104.660 F10800.000
G1 X128.200 Y104.700
M204 S800
G1 F900
G1 X121.800 Y104.700 E0.48882
G1 X121.800 Y102.650 E0.15658
G1 X128.200 Y102.650 E0.48882
G1 X128.200 Y104.640 E0.15199
M204 S1000
G1 X127.802 Y104.659 F10800.000
;BEFORE_LAYER_CHANGE
G92 E0.0
;3.35


G1 F8640
G1 X124.909 Y104.671 E-0.76000
G1 E-0.04000 F2100.00000
G1 Z3.600 F10800.000
;AFTER_LAYER_CHANGE
;3.35
; PURGING FINISHED
G1 X127.800 Y104.300
G1 Z3.350
G1 E0.80000 F2100.00000
M204 S800
G1 F900
G1 X122.200 Y104.300 E0.42772
G1 X122.200 Y103.050 E0.09547
G1 X127.800 Y103.050 E0.42772
G1 X127.800 Y104.240 E0.09089
M204 S1000
G1 X127.974 Y104.660 F10800.000
G1 X128.200 Y104.700
M204 S800
G1 F900
G1 X121.800 Y104.700 E0.48882
G1 X121.800 Y102.650 E0.15658
G1 X128.200 Y102.650 E0.48882
G1 X128.200 Y104.640 E0.15199
M204 S1000
G1 X127.802 Y104.659 F10800.000
;BEFORE_LAYER_CHANGE
G92 E0.0
;3.7


G1 F8640
G1 X124.909 Y104.671 E-0.76000
G1 E-0.04000 F2100.00000
G1 Z3.950 F10800.000
;AFTER_LAYER_CHANGE
;3.7
; PURGING FINISHED
G1 X127.800 Y104.300
G1 Z3.700
G1 E0.80000 F2100.00000
M204 S800
G1 F900
G1 X122.200 Y104.300 E0.42772
G1 X122.200 Y103.050 E0.09547
G1 X127.800 Y103.050 E0.42772
G1 X127.800 Y104.240 E0.09089
M204 S1000
G1 X127.974 Y104.660 F10800.000
G1 X128.200 Y104.700
M204 S800
G1 F900
G1 X121.800 Y104.700 E0.48882
G1 X121.800 Y102.650 E0.15658
G1 X128.200 Y102.650 E0.48882
G1 X128.200 Y104.640 E0.15199
M204 S1000
G1 X127.802 Y104.659 F10800.000
;BEFORE_LAYER_CHANGE
G92 E0.0
;4.05


G1 F8640
G1 X124.909 Y104.671 E-0.76000
G1 E-0.04000 F2100.00000
G1 Z4.300 F10800.000
;AFTER_LAYER_CHANGE
;4.05
; PURGING FINISHED
G1 X127.800 Y104.300
G1 Z4.050
G1 E0.80000 F2100.00000
M204 S800
G1 F900
G1 X122.200 Y104.300 E0.42772
G1 X122.200 Y103.050 E0.09547
G1 X127.800 Y103.050 E0.42772
G1 X127.800 Y104.240 E0.09089
M204 S1000
G1 X127.974 Y104.660 F10800.000
G1 X128.200 Y104.700
M204 S800
G1 F900
G1 X121.800 Y104.700 E0.48882
G1 X121.800 Y102.650 E0.15658
G1 X128.200 Y102.650 E0.48882
G1 X128.200 Y104.640 E0.15199
M204 S1000
G1 X127.802 Y104.659 F10800.000
;BEFORE_LAYER_CHANGE
G92 E0.0
;4.4


G1 F8640
G1 X124.909 Y104.671 E-0.76000
G1 E-0.04000 F2100.00000
G1 Z4.650 F10800.000
;AFTER_LAYER_CHANGE
;4.4
; PURGING FINISHED
G1 X127.800 Y104.300
G1 Z4.400
G1 E0.80000 F2100.00000
M204 S800
G1 F900
G1 X122.200 Y104.300 E0.42772
G1 X122.200 Y103.050 E0.09547
G1 X127.800 Y103.050 E0.42772
G1 X127.800 Y104.240 E0.09089
M204 S1000
G1 X127.974 Y104.660 F10800.000
G1 X128.200 Y104.700
M204 S800
G1 F900
G1 X121.800 Y104.700 E0.48882
G1 X121.800 Y102.650 E0.15658
G1 X128.200 Y102.650 E0.48882
G1 X128.200 Y104.640 E0.15199
M204 S1000
G1 X127.802 Y104.659 F10800.000
;BEFORE_LAYER_CHANGE
G92 E0.0
;4.75


G1 F8640
G1 X124.909 Y104.671 E-0.76000
G1 E-0.04000 F2100.00000
G1 Z5.000 F10800.000
;AFTER_LAYER_CHANGE
;4.75
; PURGING FINISHED
G1 X127.800 Y104.300
G1 Z4.750
G1 E0.80000 F2100.00000
M204 S800
G1 F900
G1 X122.200 Y104.300 E0.42772
G1 X122.200 Y103.050 E0.09547
G1 X127.800 Y103.050 E0.42772
G1 X127.800 Y104.240 E0.09089
M204 S1000
G1 X127.974 Y104.660 F10800.000
G1 X128.200 Y104.700
M204 S800
G1 F900
G1 X121.800 Y104.700 E0.48882
G1 X121.800 Y102.650 E0.15658
G1 X128.200 Y102.650 E0.48882
G1 X128.200 Y104.640 E0.15199
M204 S1000
G1 X127.802 Y104.659 F10800.000
;BEFORE_LAYER_CHANGE
G92 E0.0
;5.1


G1 F8640
G1 X124.909 Y104.671 E-0.76000
G1 E-0.04000 F2100.00000
G1 Z5.350 F10800.000
;AFTER_LAYER_CHANGE
;5.1
; PURGING FINISHED
G1 X127.800 Y104.300
G1 Z5.100
G1 E0.80000 F2100.00000
M204 S800
G1 F900
G1 X122.200 Y104.300 E0.42772
G1 X122.200 Y103.050 E0.09547
G1 X127.800 Y103.050 E0.42772
G1 X127.800 Y104.240 E0.09089
M204 S1000
G1 X127.974 Y104.660 F10800.000
G1 X128.200 Y104.700
M204 S800
G1 F900
G1 X121.800 Y104.700 E0.48882
G1 X121.800 Y102.650 E0.15658
G1 X128.200 Y102.650 E0.48882
G1 X128.200 Y104.640 E0.15199
M204 S1000
G1 X127.802 Y104.659 F10800.000
;BEFORE_LAYER_CHANGE
G92 E0.0
;5.45


G1 F8640
G1 X124.909 Y104.671 E-0.76000
