; generated by Slic3r Prusa Edition 1.41.3+ on 2021-04-02 at 15:46:04

; 

; external perimeters extrusion width = 0.60mm
; perimeters extrusion width = 0.43mm
; infill extrusion width = 0.45mm
; solid infill extrusion width = 0.70mm
; top infill extrusion width = 0.43mm
; first layer extrusion width = 0.42mm

M73 P0 R46
M201 X9000 Y9000 Z500 E10000 ; sets maximum accelerations, mm/sec^2
M203 X500 Y500 Z12 E120 ; sets maximum feedrates, mm/sec
M204 P2000 R1500 T2000 ; sets acceleration (P, T) and retract acceleration (R), mm/sec^2
M205 X10.00 Y10.00 Z0.20 E2.50 ; sets the jerk limits, mm/sec
M205 S0 T0 ; sets the minimum extruding and travel feed rate, mm/sec
M107
M115 U3.2.3 ; tell printer latest fw version
M83  ; extruder relative mode
M204 S2000 T1500 ; MK2 firmware only supports the old M204 format
M104 S215 ; set extruder temp
M140 S60 ; set bed temp
M190 S60 ; wait for bed temp
M109 S215 ; wait for extruder temp
G28 W ; home all without mesh bed level
G80 ; mesh bed leveling
G1 Y-3.0 F1000.0 ; go outside print area
G92 E0.0
G1 X60.0 E9.0  F1000.0 ; intro line
M73 P0 R46
G1 X100.0 E12.5  F1000.0 ; intro line
G92 E0.0
M900 K30 ; Filament gcode
G21 ; set units to millimeters
G90 ; use absolute coordinates
M83 ; use relative distances for extrusion
;BEFORE_LAYER_CHANGE
G92 E0.0
;0.2


G1 E-0.80000 F2100.00000
G1 Z0.600 F10800.000
;AFTER_LAYER_CHANGE
;0.2
G1 X101.312 Y35.775
G1 Z0.200
G1 E0.80000 F2100.00000
M204 S1000
G1 F1200
G1 X102.323 Y34.838 E0.04321
G1 X103.553 Y34.205 E0.04338
G1 X104.903 Y33.927 E0.04321
G1 X145.252 Y33.915 E1.26511
G1 X146.216 Y34.008 E0.03036
G1 X147.139 Y34.280 E0.03019
G1 X148.000 Y34.724 E0.03036
G1 X148.761 Y35.323 E0.03036
G1 X149.392 Y36.051 E0.03019
G1 X149.876 Y36.889 E0.03036
G1 X150.193 Y37.805 E0.03036
G1 X150.331 Y38.763 E0.03036
G1 X150.337 Y79.017 E1.26213
G1 X150.090 Y125.038 E1.44300
G1 X149.977 Y126.067 E0.03245
G1 X149.656 Y127.057 E0.03263
G1 X148.923 Y128.244 E0.04373
G1 X147.896 Y129.187 E0.04373
G1 X146.651 Y129.815 E0.04373
G1 X145.282 Y130.083 E0.04373
G1 X104.950 Y130.090 E1.26459
G1 X103.927 Y129.976 E0.03228
G1 X102.942 Y129.656 E0.03245
G1 X102.307 Y129.320 E0.02253
G1 X101.730 Y128.902 E0.02235
G1 X101.214 Y128.402 E0.02253
G1 X100.772 Y127.836 E0.02253
G1 X100.415 Y127.212 E0.02253
G1 X100.149 Y126.545 E0.02253
G1 X99.980 Y125.846 E0.02253
G1 X99.911 Y125.131 E0.02253
G1 X99.909 Y84.983 E1.25881
G1 X100.156 Y38.967 E1.44282
G1 X100.269 Y37.938 E0.03245
G1 X100.590 Y36.949 E0.03263
G1 X101.281 Y35.826 E0.04133
G1 F8640
G1 X102.323 Y34.838 E-0.33158
G1 X103.553 Y34.205 E-0.31949
G1 X104.015 Y34.110 E-0.10893
G1 E-0.04000 F2100.00000
G1 Z0.800 F10800.000
G1 X125.366 Y82.129
G1 Z0.200
G1 E0.80000 F2100.00000
G1 F1200
G1 X125.958 Y83.112 E0.03597
G1 X126.316 Y84.488 E0.04461
G1 X126.282 Y125.739 E1.29338
G1 X125.968 Y126.865 E0.03665
G1 X125.295 Y127.974 E0.04067
G1 X124.558 Y128.699 E0.03242
G1 X123.719 Y129.252 E0.03151
G1 X122.395 Y129.674 E0.04358
G1 X104.263 Y129.679 E0.56850
G1 X103.195 Y129.391 E0.03469
G1 X102.235 Y128.851 E0.03453
G1 X101.358 Y128.025 E0.03777
G1 X100.623 Y126.837 E0.04381
G1 X100.287 Y125.513 E0.04282
G1 X100.287 Y84.548 E1.28443
G1 X100.575 Y83.278 E0.04083
G1 X101.103 Y82.299 E0.03490
G1 X101.477 Y81.883 E0.01753
G1 X100.909 Y80.937 E0.03460
G1 X100.533 Y79.517 E0.04605
G1 X100.567 Y38.267 E1.29337
G1 X100.881 Y37.141 E0.03665
G1 X101.554 Y36.032 E0.04067
G1 X102.291 Y35.307 E0.03242
G1 X103.130 Y34.754 E0.03152
G1 X104.455 Y34.332 E0.04359
G1 X122.496 Y34.313 E0.56566
G1 X123.369 Y34.507 E0.02804
G1 X124.195 Y34.872 E0.02833
G1 X125.411 Y35.894 E0.04980
G1 X126.202 Y37.111 E0.04551
G1 X126.563 Y38.494 E0.04481
G1 X126.563 Y79.458 E1.28438
G1 X126.274 Y80.727 E0.04083
G1 X125.746 Y81.707 E0.03489
G1 X125.406 Y82.084 E0.01592
G1 X124.853 Y82.126 F10800.000
G1 F1200
G1 X125.043 Y82.326 E0.00866
G1 X125.601 Y83.236 E0.03347
G1 X125.939 Y84.513 E0.04143
G1 X125.911 Y125.664 E1.29027
G1 X125.631 Y126.694 E0.03345
G1 X125.013 Y127.723 E0.03765
G1 X124.335 Y128.395 E0.02991
G1 X123.534 Y128.922 E0.03007
G1 X122.310 Y129.305 E0.04022
G1 X104.335 Y129.309 E0.56358
G1 X103.358 Y129.050 E0.03168
G1 X102.440 Y128.534 E0.03302
G1 X101.636 Y127.769 E0.03483
G1 X100.981 Y126.714 E0.03892
G1 X100.664 Y125.489 E0.03969
G1 X100.664 Y84.569 E1.28302
G1 X100.920 Y83.434 E0.03646
G1 X101.423 Y82.499 E0.03330
G1 X101.997 Y81.879 E0.02649
G1 X101.764 Y81.628 E0.01073
G1 X101.266 Y80.812 E0.03000
G1 X100.910 Y79.492 E0.04285
G1 X100.938 Y38.341 E1.29025
G1 X101.218 Y37.312 E0.03345
G1 X101.837 Y36.283 E0.03765
G1 X102.514 Y35.611 E0.02991
G1 X103.315 Y35.083 E0.03008
G1 X104.540 Y34.700 E0.04023
G1 X122.434 Y34.685 E0.56107
G1 X123.268 Y34.871 E0.02679
G1 X124.016 Y35.205 E0.02569
G1 X125.146 Y36.164 E0.04646
G1 X125.845 Y37.238 E0.04018
G1 X126.186 Y38.519 E0.04157
G1 X126.186 Y79.437 E1.28295
G1 X125.930 Y80.571 E0.03646
G1 X125.426 Y81.506 E0.03330
G1 X124.894 Y82.082 E0.02458
G1 X124.313 Y82.146 F10800.000
G1 F1200
G1 X124.739 Y82.550 E0.01841
G1 X125.245 Y83.362 E0.02998
G1 X125.562 Y84.538 E0.03821
G1 X125.541 Y125.592 E1.28721
G1 X125.293 Y126.524 E0.03025
G1 X124.730 Y127.472 E0.03457
G1 X124.083 Y128.113 E0.02854
G1 X123.351 Y128.592 E0.02743
G1 X122.227 Y128.937 E0.03687
G1 X104.408 Y128.938 E0.55869
G1 X103.479 Y128.692 E0.03013
G1 X102.648 Y128.219 E0.02998
G1 X101.914 Y127.513 E0.03193
G1 X101.338 Y126.590 E0.03412
G1 X101.041 Y125.464 E0.03651
G1 X101.041 Y84.589 E1.28160
G1 X101.264 Y83.590 E0.03210
G1 X101.743 Y82.701 E0.03167
G1 X102.523 Y81.873 E0.03566
G1 X102.074 Y81.412 E0.02019
G1 X101.602 Y80.638 E0.02841
G1 X101.287 Y79.467 E0.03801
G1 X101.309 Y38.414 E1.28721
G1 X101.556 Y37.481 E0.03025
G1 X102.119 Y36.533 E0.03457
G1 X102.766 Y35.893 E0.02854
G1 X103.498 Y35.414 E0.02744
G1 X104.623 Y35.069 E0.03688
G1 X122.374 Y35.058 E0.55658
G1 X123.132 Y35.223 E0.02433
G1 X123.837 Y35.538 E0.02420
G1 X124.879 Y36.431 E0.04303
G1 X125.512 Y37.416 E0.03669
G1 X125.808 Y38.543 E0.03655
G1 X125.808 Y79.416 E1.28155
G1 X125.585 Y80.415 E0.03210
G1 X125.106 Y81.305 E0.03167
G1 X124.354 Y82.103 E0.03439
G1 X123.688 Y82.090 F10800.000
G1 F1200
G1 X124.433 Y82.773 E0.03169
G1 X124.910 Y83.537 E0.02825
G1 X125.185 Y84.563 E0.03329
G1 X125.170 Y125.522 E1.28423
G1 X124.954 Y126.357 E0.02706
G1 X124.445 Y127.223 E0.03149
G1 X123.861 Y127.808 E0.02594
G1 X123.168 Y128.261 E0.02594
G1 X122.145 Y128.567 E0.03348
G1 X104.478 Y128.567 E0.55393
G1 X103.643 Y128.352 E0.02704
G1 X102.856 Y127.903 E0.02841
G1 X102.193 Y127.259 E0.02899
G1 X101.694 Y126.464 E0.02941
G1 X101.418 Y125.439 E0.03330
G1 X101.418 Y84.610 E1.28017
G1 X101.608 Y83.746 E0.02774
G1 X102.062 Y82.902 E0.03003
G1 X102.741 Y82.193 E0.03077
G1 X103.123 Y81.940 E0.01438
G1 X102.384 Y81.195 E0.03289
G1 X101.938 Y80.465 E0.02684
G1 X101.664 Y79.443 E0.03317
G1 X101.680 Y38.484 E1.28423
M73 P2 R45
G1 X101.895 Y37.648 E0.02706
G1 X102.404 Y36.782 E0.03149
G1 X102.989 Y36.197 E0.02594
G1 X103.681 Y35.745 E0.02594
G1 X104.704 Y35.438 E0.03348
G1 X122.316 Y35.431 E0.55219
G1 X122.997 Y35.576 E0.02184
G1 X123.657 Y35.871 E0.02267
G1 X124.611 Y36.698 E0.03960
G1 X125.155 Y37.542 E0.03149
G1 X125.431 Y38.569 E0.03331
G1 X125.431 Y79.396 E1.28012
G1 X125.241 Y80.260 E0.02774
G1 X124.787 Y81.103 E0.03003
G1 X124.109 Y81.812 E0.03076
G1 X123.738 Y82.057 E0.01392
G1 X123.061 Y82.036 F10800.000
G1 F1200
G1 X124.128 Y82.995 E0.04500
G1 X124.575 Y83.713 E0.02651
G1 X124.808 Y84.587 E0.02837
G1 X124.798 Y125.454 E1.28133
G1 X124.614 Y126.193 E0.02388
G1 X124.161 Y126.975 E0.02833
G1 X123.608 Y127.527 E0.02451
G1 X122.987 Y127.929 E0.02319
G1 X122.066 Y128.198 E0.03010
G1 X104.546 Y128.195 E0.54931
G1 X103.807 Y128.011 E0.02390
G1 X103.065 Y127.588 E0.02678
G1 X102.473 Y127.006 E0.02603
G1 X102.050 Y126.336 E0.02483
G1 X101.795 Y125.413 E0.03004
G1 X101.795 Y84.631 E1.27868
G1 X101.970 Y83.856 E0.02493
G1 X102.380 Y83.107 E0.02677
G1 X102.994 Y82.473 E0.02765
G1 X103.868 Y81.920 E0.03244
G1 X103.316 Y81.598 E0.02005
G1 X102.694 Y80.979 E0.02751
G1 X102.274 Y80.292 E0.02525
G1 X102.041 Y79.418 E0.02833
G1 X102.051 Y38.552 E1.28133
G1 X102.235 Y37.813 E0.02388
G1 X102.688 Y37.031 E0.02833
G1 X103.241 Y36.478 E0.02451
G1 X103.862 Y36.077 E0.02319
G1 X104.784 Y35.808 E0.03010
G1 X122.259 Y35.804 E0.54793
G1 X122.862 Y35.928 E0.01932
G1 X123.477 Y36.203 E0.02110
G1 X124.341 Y36.963 E0.03609
G1 X124.821 Y37.719 E0.02809
G1 X125.054 Y38.593 E0.02835
G1 X125.054 Y79.375 E1.27868
G1 X124.879 Y80.150 E0.02493
G1 X124.469 Y80.899 E0.02677
G1 X123.855 Y81.532 E0.02766
G1 X123.111 Y82.003 E0.02761
G1 F8640
G1 X124.128 Y82.995 E-0.32793
G1 X124.575 Y83.713 E-0.19520
G1 X124.808 Y84.587 E-0.20895
G1 X124.808 Y84.708 E-0.02791
G1 E-0.04000 F2100.00000
G1 Z0.800 F10800.000
G1 X122.018 Y81.844
G1 Z0.200
G1 E0.80000 F2100.00000
G1 F1200
G1 X121.991 Y82.169 E0.01024
G1 X122.553 Y82.299 E0.01809
G1 X123.047 Y82.528 E0.01707
G1 X123.825 Y83.221 E0.03265
G1 X124.219 Y83.841 E0.02306
G1 X124.431 Y84.613 E0.02510
G1 X124.426 Y125.388 E1.27847
G1 X124.272 Y126.031 E0.02071
G1 X123.876 Y126.726 E0.02510
G1 X123.357 Y127.246 E0.02303
G1 X122.809 Y127.595 E0.02038
G1 X121.989 Y127.828 E0.02672
G1 X104.612 Y127.823 E0.54484
G1 X103.969 Y127.670 E0.02071
G1 X103.274 Y127.273 E0.02510
G1 X102.754 Y126.754 E0.02303
G1 X102.405 Y126.206 E0.02038
G1 X102.172 Y125.386 E0.02672
G1 X102.172 Y84.653 E1.27715
G1 X102.331 Y83.968 E0.02205
G1 X102.696 Y83.314 E0.02349
G1 X103.246 Y82.755 E0.02460
G1 X103.842 Y82.383 E0.02203
G1 X104.567 Y82.178 E0.02361
G1 X104.858 Y82.164 E0.00913
G1 X104.889 Y81.839 E0.01024
G1 X104.215 Y81.675 E0.02174
G1 X103.560 Y81.309 E0.02352
G1 X103.001 Y80.760 E0.02460
G1 X102.630 Y80.164 E0.02200
G1 X102.418 Y79.393 E0.02508
G1 X102.423 Y38.617 E1.27847
G1 X102.577 Y37.975 E0.02071
G1 X102.973 Y37.279 E0.02510
G1 X103.492 Y36.760 E0.02303
G1 X104.040 Y36.410 E0.02038
G1 X104.861 Y36.178 E0.02673
G1 X122.238 Y36.181 E0.54487
G1 X122.763 Y36.293 E0.01681
G1 X123.294 Y36.534 E0.01829
G1 X124.071 Y37.226 E0.03263
G1 X124.466 Y37.847 E0.02306
G1 X124.677 Y38.619 E0.02510
G1 X124.677 Y79.352 E1.27717
G1 X124.518 Y80.038 E0.02205
G1 X124.153 Y80.692 E0.02349
G1 X123.603 Y81.251 E0.02460
G1 X123.007 Y81.623 E0.02203
G1 X122.281 Y81.828 E0.02364
G1 X122.078 Y81.840 E0.00637
G1 X122.878 Y81.267 F10800.000
G1 F1200
G1 X122.209 Y81.457 E0.02179
G1 X104.920 Y81.457 E0.54208
G1 X104.374 Y81.332 E0.01755
G1 X103.768 Y80.993 E0.02179
G1 X103.283 Y80.508 E0.02151
G1 X102.985 Y80.034 E0.01755
G1 X102.795 Y79.366 E0.02179
G1 X102.795 Y38.680 E1.27568
G1 X102.920 Y38.134 E0.01755
G1 X103.259 Y37.527 E0.02179
G1 X103.744 Y37.042 E0.02151
G1 X104.218 Y36.744 E0.01755
G1 X104.887 Y36.555 E0.02180
G1 X122.217 Y36.558 E0.54339
G1 X122.660 Y36.656 E0.01423
G1 X123.108 Y36.863 E0.01548
G1 X123.799 Y37.488 E0.02920
G1 X124.111 Y37.977 E0.01818
G1 X124.300 Y38.646 E0.02179
G1 X124.300 Y79.332 E1.27568
G1 X124.176 Y79.878 E0.01755
G1 X123.837 Y80.484 E0.02179
G1 X123.352 Y80.969 E0.02151
G1 X122.929 Y81.235 E0.01567
G1 X122.745 Y80.914 F10800.000
G1 F1200
G1 X122.181 Y81.080 E0.01842
G1 X104.941 Y81.080 E0.54056
G1 X104.530 Y80.988 E0.01318
G1 X104.015 Y80.707 E0.01842
G1 X103.564 Y80.256 E0.01999
G1 X103.338 Y79.901 E0.01318
G1 X103.172 Y79.338 E0.01842
G1 X103.172 Y38.700 E1.27417
G1 X103.264 Y38.290 E0.01318
G1 X103.545 Y37.774 E0.01842
G1 X103.996 Y37.323 E0.01999
G1 X104.351 Y37.098 E0.01318
G1 X104.914 Y36.932 E0.01842
G1 X122.195 Y36.935 E0.54181
G1 X122.554 Y37.018 E0.01157
G1 X122.920 Y37.191 E0.01268
G1 X123.525 Y37.749 E0.02580
G1 X123.757 Y38.110 E0.01347
G1 X123.923 Y38.674 E0.01841
G1 X123.923 Y79.311 E1.27417
G1 X123.832 Y79.722 E0.01318
G1 X123.550 Y80.237 E0.01842
G1 X123.099 Y80.688 E0.01999
G1 X122.795 Y80.882 E0.01130
G1 X122.151 Y80.703 F10800.000
G1 F1200
G1 X104.960 Y80.703 E0.53902
G1 X104.682 Y80.642 E0.00892
G1 X104.260 Y80.419 E0.01496
G1 X103.844 Y80.003 E0.01845
G1 X103.690 Y79.764 E0.00892
G1 X103.549 Y79.308 E0.01496
G1 X103.549 Y38.720 E1.27262
G1 X103.610 Y38.441 E0.00892
G1 X103.833 Y38.020 E0.01496
G1 X104.249 Y37.604 E0.01845
G1 X104.488 Y37.450 E0.00892
G1 X104.944 Y37.309 E0.01496
G1 X122.173 Y37.312 E0.54021
G1 X122.411 Y37.368 E0.00767
G1 X122.731 Y37.519 E0.01109
G1 X123.250 Y38.007 E0.02233
G1 X123.405 Y38.248 E0.00898
G1 X123.546 Y38.703 E0.01495
G1 X123.546 Y79.292 E1.27262
G1 X123.486 Y79.570 E0.00892
G1 X123.263 Y79.992 E0.01496
G1 X122.847 Y80.408 E0.01845
G1 X122.607 Y80.562 E0.00892
G1 X122.209 Y80.685 E0.01308
G1 F8640
G1 X118.917 Y80.688 E-0.76000
G1 E-0.04000 F2100.00000
G1 Z0.800 F10800.000
G1 X123.137 Y79.424
G1 Z0.200
G1 E0.80000 F2100.00000
G1 F1200
G1 X122.974 Y79.748 E0.01136
G1 X122.593 Y80.128 E0.01687
G1 X122.464 Y80.212 E0.00484
G1 X122.120 Y80.325 E0.01136
G1 X104.979 Y80.325 E0.53744
G1 X104.828 Y80.294 E0.00484
G1 X104.504 Y80.130 E0.01136
G1 X104.124 Y79.750 E0.01687
G1 X104.040 Y79.621 E0.00484
G1 X103.927 Y79.276 E0.01136
G1 X103.927 Y38.738 E1.27104
G1 X103.958 Y38.587 E0.00484
G1 X104.122 Y38.264 E0.01136
G1 X104.502 Y37.883 E0.01687
G1 X104.631 Y37.799 E0.00484
G1 X104.976 Y37.686 E0.01136
G1 X122.151 Y37.690 E0.53852
G1 X122.268 Y37.717 E0.00377
G1 X122.541 Y37.846 E0.00947
G1 X122.972 Y38.263 E0.01880
G1 X123.056 Y38.391 E0.00479
G1 X123.169 Y38.735 E0.01136
G1 X123.169 Y79.273 E1.27104
G1 X123.150 Y79.365 E0.00296
G1 X122.785 Y79.287 F10800.000
G1 F1200
G1 X122.682 Y79.506 E0.00757
G1 X122.339 Y79.849 E0.01522
G1 X122.085 Y79.948 E0.00856
G1 X104.997 Y79.948 E0.53579
G1 X104.746 Y79.839 E0.00856
G1 X104.385 Y79.469 E0.01622
G1 X104.304 Y79.241 E0.00757
G1 X104.304 Y38.756 E1.26939
G1 X104.413 Y38.506 E0.00856
G1 X104.783 Y38.144 E0.01622
G1 X105.011 Y38.063 E0.00757
G1 X122.099 Y38.063 E0.53579
G1 X122.349 Y38.173 E0.00856
G1 X122.710 Y38.543 E0.01622
G1 X122.792 Y38.770 E0.00757
G1 X122.792 Y79.228 E1.26853
G1 X122.386 Y79.269 F10800.000
G1 F1200
G1 X122.112 Y79.543 E0.01215
G1 X122.043 Y79.571 E0.00235
G1 X105.053 Y79.571 E0.53272
G1 X104.983 Y79.543 E0.00235
G1 X104.709 Y79.269 E0.01215
G1 X104.681 Y79.199 E0.00235
G1 X104.681 Y38.812 E1.26632
M73 P4 R44
G1 X104.709 Y38.743 E0.00235
G1 X104.983 Y38.469 E0.01215
G1 X105.053 Y38.440 E0.00235
G1 X122.043 Y38.440 E0.53272
G1 X122.112 Y38.469 E0.00235
G1 X122.386 Y38.743 E0.01215
G1 X122.415 Y38.812 E0.00235
G1 X122.409 Y79.213 E1.26675
G1 X122.038 Y79.084 F10800.000
G1 F1200
G1 X121.927 Y79.194 E0.00490
G1 X105.168 Y79.194 E0.52547
G1 X105.058 Y79.084 E0.00490
G1 X105.058 Y38.928 E1.25907
G1 X105.168 Y38.817 E0.00490
G1 X121.927 Y38.817 E0.52547
G1 X122.038 Y38.928 E0.00490
G1 X122.038 Y79.024 E1.25719
G1 F8640
G1 X121.927 Y79.194 E-0.04690
G1 X118.839 Y79.194 E-0.71310
G1 E-0.04000 F2100.00000
G1 Z0.800 F10800.000
G1 X122.862 Y82.858
G1 Z0.200
G1 E0.80000 F2100.00000
G1 F1200
G1 X123.552 Y83.483 E0.02920
G1 X123.864 Y83.971 E0.01818
G1 X124.054 Y84.640 E0.02179
G1 X124.054 Y125.326 E1.27568
G1 X123.929 Y125.872 E0.01755
G1 X123.590 Y126.479 E0.02179
G1 X123.105 Y126.964 E0.02151
G1 X122.631 Y127.262 E0.01755
G1 X121.963 Y127.451 E0.02179
G1 X104.674 Y127.451 E0.54208
G1 X104.128 Y127.327 E0.01755
G1 X103.521 Y126.988 E0.02179
G1 X103.036 Y126.503 E0.02151
G1 X102.738 Y126.029 E0.01755
G1 X102.549 Y125.360 E0.02179
G1 X102.549 Y84.674 E1.27568
G1 X102.673 Y84.128 E0.01755
G1 X103.012 Y83.521 E0.02179
G1 X103.497 Y83.036 E0.02151
G1 X103.971 Y82.738 E0.01755
G1 X104.640 Y82.549 E0.02180
G1 X121.971 Y82.553 E0.54339
G1 X122.414 Y82.650 E0.01423
G1 X122.808 Y82.832 E0.01359
G1 X122.647 Y83.173 F10800.000
G1 F1200
G1 X123.279 Y83.743 E0.02669
G1 X123.511 Y84.105 E0.01347
G1 X123.677 Y84.668 E0.01841
G1 X123.677 Y125.306 E1.27417
G1 X123.585 Y125.716 E0.01318
G1 X123.304 Y126.232 E0.01842
G1 X122.853 Y126.683 E0.01999
G1 X122.498 Y126.908 E0.01318
G1 X121.935 Y127.074 E0.01842
G1 X104.694 Y127.074 E0.54056
G1 X104.284 Y126.982 E0.01318
G1 X103.768 Y126.701 E0.01842
G1 X103.317 Y126.250 E0.01999
G1 X103.092 Y125.896 E0.01318
G1 X102.926 Y125.332 E0.01842
G1 X102.926 Y84.694 E1.27417
G1 X103.018 Y84.284 E0.01318
