; generated by Slic3r Prusa Edition 1.41.3+ on 2021-04-01 at 16:56:51

; 

; external perimeters extrusion width = 0.60mm
; perimeters extrusion width = 0.43mm
; infill extrusion width = 0.45mm
; solid infill extrusion width = 0.70mm
; top infill extrusion width = 0.43mm
; first layer extrusion width = 0.42mm

M73 P0 R27
M201 X9000 Y9000 Z500 E10000 ; sets maximum accelerations, mm/sec^2
M203 X500 Y500 Z12 E120 ; sets maximum feedrates, mm/sec
M204 P2000 R1500 T2000 ; sets acceleration (P, T) and retract acceleration (R), mm/sec^2
M205 X10.00 Y10.00 Z0.20 E2.50 ; sets the jerk limits, mm/sec
M205 S0 T0 ; sets the minimum extruding and travel feed rate, mm/sec
M107
M115 U3.2.3 ; tell printer latest fw version
M83  ; extruder relative mode
M204 S2000 T1500 ; MK2 firmware only supports the old M204 format
M104 S215 ; set extruder temp
M140 S60 ; set bed temp
M190 S60 ; wait for bed temp
M109 S215 ; wait for extruder temp
G28 W ; home all without mesh bed level
G80 ; mesh bed leveling
G1 Y-3.0 F1000.0 ; go outside print area
G92 E0.0
G1 X60.0 E9.0  F1000.0 ; intro line
M73 P0 R27
G1 X100.0 E12.5  F1000.0 ; intro line
G92 E0.0
M900 K30 ; Filament gcode
G21 ; set units to millimeters
G90 ; use absolute coordinates
M83 ; use relative distances for extrusion
;BEFORE_LAYER_CHANGE
G92 E0.0
;0.2


G1 E-0.80000 F2100.00000
G1 Z0.600 F10800.000
;AFTER_LAYER_CHANGE
;0.2
G1 X113.986 Y84.143
G1 Z0.200
G1 E0.80000 F2100.00000
M204 S1000
G1 F1200
G1 X114.296 Y83.627 E0.01885
G1 X114.733 Y83.215 E0.01885
G1 X115.267 Y82.938 E0.01885
G1 X115.855 Y82.816 E0.01885
G1 X134.004 Y82.811 E0.56903
G1 X134.817 Y82.970 E0.02597
G1 X135.513 Y83.418 E0.02597
G1 X135.992 Y84.094 E0.02597
G1 X136.186 Y84.899 E0.02597
G1 X136.189 Y125.007 E1.25756
G1 X136.014 Y125.857 E0.02721
G1 X135.700 Y126.378 E0.01908
G1 X135.258 Y126.791 E0.01896
G1 X134.716 Y127.068 E0.01908
G1 X134.123 Y127.185 E0.01896
G1 X115.982 Y127.188 E0.56880
G1 X115.143 Y127.014 E0.02687
G1 X114.613 Y126.693 E0.01942
G1 X114.192 Y126.234 E0.01953
G1 X113.918 Y125.674 E0.01953
G1 X113.812 Y125.061 E0.01953
G1 X113.811 Y84.989 E1.25642
G1 X113.974 Y84.202 E0.02521
; PURGING FINISHED
G1 F8640
G1 X114.296 Y83.627 E-0.15195
G1 X114.733 Y83.215 E-0.13881
G1 X115.267 Y82.938 E-0.13881
G1 X115.855 Y82.816 E-0.13881
G1 X116.685 Y82.816 E-0.19163
G1 E-0.04000 F2100.00000
G1 Z0.800 F10800.000
G1 X116.587 Y85.587
G1 Z0.200
G1 E0.80000 F2100.00000
G1 F1200
G1 X133.413 Y85.587 E0.52756
G1 X133.413 Y124.413 E1.21736
G1 X116.587 Y124.413 E0.52756
G1 X116.587 Y85.647 E1.21548
G1 X116.210 Y85.210 F10800.000
G1 F1200
G1 X133.790 Y85.210 E0.55121
G1 X133.790 Y124.790 E1.24100
G1 X116.210 Y124.790 E0.55121
G1 X116.210 Y85.270 E1.23912
G1 X116.581 Y85.360 F10800.000
G1 F8640
G1 X119.501 Y85.259 E-0.76000
G1 E-0.04000 F2100.00000
G1 Z0.800 F10800.000
G1 X133.300 Y86.468
G1 Z0.200
G1 E0.80000 F2100.00000
G1 F1200
G1 X132.702 Y85.870 E0.02667
G1 X132.166 Y85.870 E0.01693
G1 X133.130 Y86.834 E0.04304
G1 X133.130 Y87.371 E0.01693
G1 X131.629 Y85.870 E0.06699
G1 X131.092 Y85.870 E0.01693
G1 X133.130 Y87.908 E0.09094
G1 X133.130 Y88.444 E0.01693
G1 X130.556 Y85.870 E0.11488
G1 X130.019 Y85.870 E0.01693
G1 X133.130 Y88.981 E0.13883
G1 X133.130 Y89.518 E0.01693
G1 X129.482 Y85.870 E0.16278
G1 X128.946 Y85.870 E0.01693
G1 X133.130 Y90.054 E0.18672
G1 X133.130 Y90.591 E0.01693
G1 X128.409 Y85.870 E0.21067
G1 X127.872 Y85.870 E0.01693
G1 X133.130 Y91.128 E0.23462
G1 X133.130 Y91.664 E0.01693
G1 X127.336 Y85.870 E0.25856
G1 X126.799 Y85.870 E0.01693
G1 X133.130 Y92.201 E0.28251
G1 X133.130 Y92.738 E0.01693
G1 X126.262 Y85.870 E0.30645
G1 X125.726 Y85.870 E0.01693
G1 X133.130 Y93.274 E0.33040
G1 X133.130 Y93.811 E0.01693
G1 X125.189 Y85.870 E0.35435
G1 X124.652 Y85.870 E0.01693
G1 X133.130 Y94.348 E0.37829
G1 X133.130 Y94.884 E0.01693
G1 X124.116 Y85.870 E0.40224
G1 X123.579 Y85.870 E0.01693
G1 X133.130 Y95.421 E0.42619
G1 X133.130 Y95.957 E0.01693
G1 X123.043 Y85.870 E0.45013
G1 X122.506 Y85.870 E0.01693
G1 X133.130 Y96.494 E0.47408
G1 X133.130 Y97.031 E0.01693
G1 X121.969 Y85.870 E0.49803
G1 X121.433 Y85.870 E0.01693
G1 X133.130 Y97.567 E0.52197
G1 X133.130 Y98.104 E0.01693
G1 X120.896 Y85.870 E0.54592
G1 X120.359 Y85.870 E0.01693
G1 X133.130 Y98.641 E0.56987
G1 X133.130 Y99.177 E0.01693
G1 X119.823 Y85.870 E0.59381
G1 X119.286 Y85.870 E0.01693
G1 X133.130 Y99.714 E0.61776
G1 X133.130 Y100.251 E0.01693
G1 X118.749 Y85.870 E0.64171
G1 X118.213 Y85.870 E0.01693
G1 X133.130 Y100.787 E0.66565
G1 X133.130 Y101.324 E0.01693
G1 X117.676 Y85.870 E0.68960
G1 X117.139 Y85.870 E0.01693
G1 X133.130 Y101.861 E0.71355
G1 X133.130 Y102.397 E0.01693
G1 X116.870 Y86.137 E0.72557
G1 X116.870 Y86.674 E0.01693
G1 X133.130 Y102.934 E0.72557
G1 X133.130 Y103.471 E0.01693
G1 X116.870 Y87.210 E0.72557
G1 X116.870 Y87.747 E0.01693
G1 X133.130 Y104.007 E0.72557
G1 X133.130 Y104.544 E0.01693
G1 X116.870 Y88.284 E0.72557
G1 X116.870 Y88.820 E0.01693
G1 X133.130 Y105.080 E0.72557
G1 X133.130 Y105.617 E0.01693
G1 X116.870 Y89.357 E0.72557
G1 X116.870 Y89.894 E0.01693
G1 X133.130 Y106.154 E0.72557
G1 X133.130 Y106.690 E0.01693
G1 X116.870 Y90.430 E0.72557
G1 X116.870 Y90.967 E0.01693
G1 X133.130 Y107.227 E0.72557
G1 X133.130 Y107.764 E0.01693
G1 X116.870 Y91.503 E0.72557
G1 X116.870 Y92.040 E0.01693
G1 X133.130 Y108.300 E0.72557
G1 X133.130 Y108.837 E0.01693
G1 X116.870 Y92.577 E0.72557
G1 X116.870 Y93.113 E0.01693
G1 X133.130 Y109.374 E0.72557
G1 X133.130 Y109.910 E0.01693
G1 X116.870 Y93.650 E0.72557
G1 X116.870 Y94.187 E0.01693
G1 X133.130 Y110.447 E0.72557
G1 X133.130 Y110.984 E0.01693
G1 X116.870 Y94.723 E0.72557
M73 P4 R26
G1 X116.870 Y95.260 E0.01693
G1 X133.130 Y111.520 E0.72557
G1 X133.130 Y112.057 E0.01693
G1 X116.870 Y95.797 E0.72557
G1 X116.870 Y96.333 E0.01693
G1 X133.130 Y112.594 E0.72557
G1 X133.130 Y113.130 E0.01693
G1 X116.870 Y96.870 E0.72557
G1 X116.870 Y97.407 E0.01693
G1 X133.130 Y113.667 E0.72557
G1 X133.130 Y114.203 E0.01693
G1 X116.870 Y97.943 E0.72557
G1 X116.870 Y98.480 E0.01693
G1 X133.130 Y114.740 E0.72557
G1 X133.130 Y115.277 E0.01693
G1 X116.870 Y99.017 E0.72557
G1 X116.870 Y99.553 E0.01693
G1 X133.130 Y115.813 E0.72557
G1 X133.130 Y116.350 E0.01693
G1 X116.870 Y100.090 E0.72557
G1 X116.870 Y100.626 E0.01693
G1 X133.130 Y116.887 E0.72557
G1 X133.130 Y117.423 E0.01693
G1 X116.870 Y101.163 E0.72557
G1 X116.870 Y101.700 E0.01693
G1 X133.130 Y117.960 E0.72557
G1 X133.130 Y118.497 E0.01693
G1 X116.870 Y102.236 E0.72557
G1 X116.870 Y102.773 E0.01693
G1 X133.130 Y119.033 E0.72557
G1 X133.130 Y119.570 E0.01693
G1 X116.870 Y103.310 E0.72557
G1 X116.870 Y103.846 E0.01693
G1 X133.130 Y120.107 E0.72557
G1 X133.130 Y120.643 E0.01693
G1 X116.870 Y104.383 E0.72557
G1 X116.870 Y104.920 E0.01693
G1 X133.130 Y121.180 E0.72557
G1 X133.130 Y121.717 E0.01693
G1 X116.870 Y105.456 E0.72557
G1 X116.870 Y105.993 E0.01693
G1 X133.130 Y122.253 E0.72557
G1 X133.130 Y122.790 E0.01693
G1 X116.870 Y106.530 E0.72557
G1 X116.870 Y107.066 E0.01693
G1 X133.130 Y123.327 E0.72557
G1 X133.130 Y123.863 E0.01693
G1 X116.870 Y107.603 E0.72557
G1 X116.870 Y108.140 E0.01693
G1 X132.860 Y124.130 E0.71354
G1 X132.324 Y124.130 E0.01693
G1 X116.870 Y108.676 E0.68959
G1 X116.870 Y109.213 E0.01693
G1 X131.787 Y124.130 E0.66565
G1 X131.251 Y124.130 E0.01693
G1 X116.870 Y109.749 E0.64170
G1 X116.870 Y110.286 E0.01693
G1 X130.714 Y124.130 E0.61775
G1 X130.177 Y124.130 E0.01693
G1 X116.870 Y110.823 E0.59381
G1 X116.870 Y111.359 E0.01693
G1 X129.641 Y124.130 E0.56986
G1 X129.104 Y124.130 E0.01693
G1 X116.870 Y111.896 E0.54591
G1 X116.870 Y112.433 E0.01693
G1 X128.567 Y124.130 E0.52197
G1 X128.031 Y124.130 E0.01693
G1 X116.870 Y112.969 E0.49802
G1 X116.870 Y113.506 E0.01693
G1 X127.494 Y124.130 E0.47407
G1 X126.957 Y124.130 E0.01693
G1 X116.870 Y114.043 E0.45013
G1 X116.870 Y114.579 E0.01693
G1 X126.421 Y124.130 E0.42618
G1 X125.884 Y124.130 E0.01693
G1 X116.870 Y115.116 E0.40224
G1 X116.870 Y115.653 E0.01693
G1 X125.347 Y124.130 E0.37829
G1 X124.811 Y124.130 E0.01693
G1 X116.870 Y116.189 E0.35434
G1 X116.870 Y116.726 E0.01693
G1 X124.274 Y124.130 E0.33040
G1 X123.737 Y124.130 E0.01693
G1 X116.870 Y117.263 E0.30645
G1 X116.870 Y117.799 E0.01693
G1 X123.201 Y124.130 E0.28250
G1 X122.664 Y124.130 E0.01693
G1 X116.870 Y118.336 E0.25856
G1 X116.870 Y118.872 E0.01693
G1 X122.128 Y124.130 E0.23461
G1 X121.591 Y124.130 E0.01693
G1 X116.870 Y119.409 E0.21066
G1 X116.870 Y119.946 E0.01693
G1 X121.054 Y124.130 E0.18672
G1 X120.518 Y124.130 E0.01693
G1 X116.870 Y120.482 E0.16277
G1 X116.870 Y121.019 E0.01693
G1 X119.981 Y124.130 E0.13882
G1 X119.444 Y124.130 E0.01693
G1 X116.870 Y121.556 E0.11488
G1 X116.870 Y122.092 E0.01693
G1 X118.908 Y124.130 E0.09093
G1 X118.371 Y124.130 E0.01693
G1 X116.870 Y122.629 E0.06698
G1 X116.870 Y123.166 E0.01693
G1 X117.834 Y124.130 E0.04304
G1 X117.298 Y124.130 E0.01693
G1 X116.700 Y123.533 E0.02666
M106 S255
;BEFORE_LAYER_CHANGE
G92 E0.0
;0.55


G1 F8640
G1 X117.298 Y124.130 E-0.19512
G1 X117.834 Y124.130 E-0.12391
G1 X116.870 Y123.166 E-0.31495
G1 X116.870 Y122.629 E-0.12391
G1 X116.876 Y122.635 E-0.00211
G1 E-0.04000 F2100.00000
G1 Z0.800 F10800.000
;AFTER_LAYER_CHANGE
;0.55
M104 S210 ; set temperature
G1 X115.143 Y127.014
G1 Z0.550
G1 E0.80000 F2100.00000
G1 F3000
G1 X114.613 Y126.693 E0.03108
G1 X114.192 Y126.234 E0.03126
G1 X113.918 Y125.674 E0.03126
G1 X113.812 Y125.061 E0.03126
G1 X113.811 Y84.989 E2.01103
G1 X113.986 Y84.143 E0.04337
G1 X114.296 Y83.627 E0.03017
G1 X114.733 Y83.215 E0.03017
G1 X115.267 Y82.938 E0.03017
G1 X115.855 Y82.816 E0.03017
G1 X134.004 Y82.811 E0.91079
G1 X134.817 Y82.970 E0.04157
G1 X135.513 Y83.418 E0.04157
G1 X135.992 Y84.094 E0.04157
G1 X136.186 Y84.899 E0.04157
G1 X136.189 Y125.007 E2.01286
G1 X136.014 Y125.857 E0.04355
G1 X135.700 Y126.378 E0.03053
G1 X135.258 Y126.791 E0.03035
G1 X134.716 Y127.068 E0.03053
G1 X134.123 Y127.185 E0.03035
G1 X115.982 Y127.188 E0.91042
G1 X115.202 Y127.026 E0.04000
; PURGING FINISHED
G1 F8640
G1 X114.613 Y126.693 E-0.15612
G1 X114.192 Y126.234 E-0.14382
G1 X113.918 Y125.674 E-0.14382
G1 X113.812 Y125.061 E-0.14382
G1 X113.812 Y124.314 E-0.17243
G1 E-0.04000 F2100.00000
G1 Z1.150 F10800.000
G1 X116.740 Y124.260
G1 Z0.550
G1 E0.80000 F2100.00000
M204 S800
G1 F3000
G1 X116.740 Y85.740 E1.98922
G1 X133.260 Y85.740 E0.85312
G1 X133.260 Y124.260 E1.98922
G1 X116.800 Y124.260 E0.85002
M204 S1000
G1 X116.300 Y124.700 F10800.000
M204 S800
G1 F2400
G1 X116.300 Y85.300 E3.00930
G1 X133.700 Y85.300 E1.32898
G1 X133.700 Y124.700 E3.00930
G1 X116.360 Y124.700 E1.32440
M204 S1000
G1 X116.355 Y124.304 F10800.000
G1 F8640
G1 X116.355 Y121.409 E-0.76000
G1 E-0.04000 F2100.00000
G1 Z1.150 F10800.000
G1 X131.910 Y124.174
G1 Z0.550
G1 E0.80000 F2100.00000
M204 S2000
G1 F3600
G1 X132.893 Y123.191 E0.12644
G1 X132.893 Y122.307 E0.08044
G1 X131.307 Y123.893 E0.20402
G1 X130.423 Y123.893 E0.08044
G1 X132.893 Y121.423 E0.31778
G1 X132.893 Y120.539 E0.08044
G1 X129.539 Y123.893 E0.43155
G1 X128.654 Y123.893 E0.08044
G1 X132.893 Y119.654 E0.54531
G1 X132.893 Y118.770 E0.08044
G1 X127.770 Y123.893 E0.65908
G1 X126.886 Y123.893 E0.08044
G1 X132.893 Y117.886 E0.77284
G1 X132.893 Y117.002 E0.08044
G1 X126.002 Y123.893 E0.88661
G1 X125.118 Y123.893 E0.08044
G1 X132.893 Y116.118 E1.00037
G1 X132.893 Y115.233 E0.08044
G1 X124.233 Y123.893 E1.11413
G1 X123.349 Y123.893 E0.08044
G1 X132.893 Y114.349 E1.22790
G1 X132.893 Y113.465 E0.08044
G1 X122.465 Y123.893 E1.34166
G1 X121.581 Y123.893 E0.08044
G1 X132.893 Y112.581 E1.45543
G1 X132.893 Y111.697 E0.08044
G1 X120.697 Y123.893 E1.56919
G1 X119.812 Y123.893 E0.08044
G1 X132.893 Y110.812 E1.68296
G1 X132.893 Y109.928 E0.08044
G1 X118.928 Y123.893 E1.79672
G1 X118.044 Y123.893 E0.08044
G1 X132.893 Y109.044 E1.91048
M73 P7 R25
G1 X132.893 Y108.160 E0.08044
G1 X117.160 Y123.893 E2.02425
G1 X117.107 Y123.893 E0.00477
G1 X117.107 Y123.061 E0.07567
G1 X132.893 Y107.276 E2.03100
G1 X132.893 Y106.391 E0.08044
G1 X117.107 Y122.177 E2.03100
G1 X117.107 Y121.293 E0.08044
G1 X132.893 Y105.507 E2.03100
G1 X132.893 Y104.623 E0.08044
G1 X117.107 Y120.408 E2.03100
G1 X117.107 Y119.524 E0.08044
G1 X132.893 Y103.739 E2.03100
G1 X132.893 Y102.855 E0.08044
G1 X117.107 Y118.640 E2.03100
G1 X117.107 Y117.756 E0.08044
G1 X132.893 Y101.970 E2.03100
G1 X132.893 Y101.086 E0.08044
G1 X117.107 Y116.872 E2.03100
G1 X117.107 Y115.987 E0.08044
G1 X132.893 Y100.202 E2.03100
G1 X132.893 Y99.318 E0.08044
G1 X117.107 Y115.103 E2.03100
G1 X117.107 Y114.219 E0.08044
G1 X132.893 Y98.434 E2.03100
G1 X132.893 Y97.549 E0.08044
G1 X117.107 Y113.335 E2.03100
G1 X117.107 Y112.451 E0.08044
G1 X132.893 Y96.665 E2.03100
G1 X132.893 Y95.781 E0.08044
G1 X117.107 Y111.566 E2.03100
G1 X117.107 Y110.682 E0.08044
G1 X132.893 Y94.897 E2.03100
G1 X132.893 Y94.013 E0.08044
G1 X117.107 Y109.798 E2.03100
G1 X117.107 Y108.914 E0.08044
G1 X132.893 Y93.128 E2.03100
G1 X132.893 Y92.244 E0.08044
G1 X117.107 Y108.030 E2.03100
G1 X117.107 Y107.145 E0.08044
G1 X132.893 Y91.360 E2.03100
G1 X132.893 Y90.476 E0.08044
G1 X117.107 Y106.261 E2.03100
G1 X117.107 Y105.377 E0.08044
G1 X132.893 Y89.592 E2.03100
G1 X132.893 Y88.707 E0.08044
G1 X117.107 Y104.493 E2.03100
G1 X117.107 Y103.609 E0.08044
G1 X132.893 Y87.823 E2.03100
G1 X132.893 Y86.939 E0.08044
G1 X117.107 Y102.724 E2.03100
G1 X117.107 Y101.840 E0.08044
G1 X132.840 Y86.107 E2.02423
G1 X131.956 Y86.107 E0.08044
G1 X117.107 Y100.956 E1.91047
G1 X117.107 Y100.072 E0.08044
G1 X131.072 Y86.107 E1.79670
G1 X130.187 Y86.107 E0.08044
G1 X117.107 Y99.187 E1.68294
G1 X117.107 Y98.303 E0.08044
G1 X129.303 Y86.107 E1.56917
G1 X128.419 Y86.107 E0.08044
G1 X117.107 Y97.419 E1.45541
G1 X117.107 Y96.535 E0.08044
G1 X127.535 Y86.107 E1.34165
G1 X126.651 Y86.107 E0.08044
G1 X117.107 Y95.651 E1.22788
G1 X117.107 Y94.766 E0.08044
G1 X125.766 Y86.107 E1.11412
G1 X124.882 Y86.107 E0.08044
G1 X117.107 Y93.882 E1.00035
G1 X117.107 Y92.998 E0.08044
G1 X123.998 Y86.107 E0.88659
G1 X123.114 Y86.107 E0.08044
G1 X117.107 Y92.114 E0.77282
G1 X117.107 Y91.230 E0.08044
G1 X122.230 Y86.107 E0.65906
G1 X121.345 Y86.107 E0.08044
G1 X117.107 Y90.345 E0.54530
G1 X117.107 Y89.461 E0.08044
G1 X120.461 Y86.107 E0.43153
G1 X119.577 Y86.107 E0.08044
G1 X117.107 Y88.577 E0.31777
G1 X117.107 Y87.693 E0.08044
G1 X118.693 Y86.107 E0.20400
G1 X117.809 Y86.107 E0.08044
G1 X116.826 Y87.090 E0.12642
M204 S1000
;BEFORE_LAYER_CHANGE
G92 E0.0
;0.9


G1 F8640
G1 X117.809 Y86.107 E-0.32085
G1 X118.693 Y86.107 E-0.20416
G1 X117.973 Y86.827 E-0.23499
G1 E-0.04000 F2100.00000
G1 Z1.150 F10800.000
;AFTER_LAYER_CHANGE
;0.9
G1 X113.986 Y84.143
G1 Z0.900
G1 E0.80000 F2100.00000
G1 F3000
G1 X114.296 Y83.627 E0.03017
G1 X114.733 Y83.215 E0.03017
G1 X115.267 Y82.938 E0.03017
G1 X115.855 Y82.816 E0.03017
G1 X134.004 Y82.811 E0.91079
G1 X134.817 Y82.970 E0.04157
G1 X135.513 Y83.418 E0.04157
G1 X135.992 Y84.094 E0.04157
G1 X136.186 Y84.899 E0.04157
G1 X136.189 Y125.007 E2.01286
G1 X136.014 Y125.857 E0.04355
G1 X135.700 Y126.378 E0.03053
G1 X135.258 Y126.791 E0.03035
G1 X134.716 Y127.068 E0.03053
G1 X134.123 Y127.185 E0.03035
G1 X115.982 Y127.188 E0.91042
G1 X115.143 Y127.014 E0.04301
G1 X114.613 Y126.693 E0.03108
G1 X114.192 Y126.234 E0.03126
G1 X113.918 Y125.674 E0.03126
G1 X113.812 Y125.061 E0.03126
G1 X113.811 Y84.989 E2.01103
G1 X113.974 Y84.202 E0.04036
; PURGING FINISHED
G1 F8640
G1 X114.296 Y83.627 E-0.15195
G1 X114.733 Y83.215 E-0.13881
G1 X115.267 Y82.938 E-0.13881
G1 X115.855 Y82.816 E-0.13881
G1 X116.685 Y82.816 E-0.19163
G1 E-0.04000 F2100.00000
G1 Z1.500 F10800.000
G1 X116.740 Y85.740
G1 Z0.900
G1 E0.80000 F2100.00000
M204 S800
G1 F3000
G1 X133.260 Y85.740 E0.85312
G1 X133.260 Y124.260 E1.98922
G1 X116.740 Y124.260 E0.85312
G1 X116.740 Y85.800 E1.98613
M204 S1000
G1 X116.300 Y85.300 F10800.000
M204 S800
G1 F2400
G1 X133.700 Y85.300 E1.32898
G1 X133.700 Y124.700 E3.00930
G1 X116.300 Y124.700 E1.32898
G1 X116.300 Y85.360 E3.00472
M204 S1000
G1 X116.671 Y85.450 F10800.000
G1 F8640
G1 X119.591 Y85.349 E-0.76000
G1 E-0.04000 F2100.00000
G1 Z1.500 F10800.000
G1 X121.189 Y87.102
G1 Z0.900
G1 E0.80000 F2100.00000
