; generated by Slic3r Prusa Edition 1.41.3+ on 2021-04-02 at 15:57:06

; 

; external perimeters extrusion width = 0.60mm
; perimeters extrusion width = 0.43mm
; infill extrusion width = 0.45mm
; solid infill extrusion width = 0.70mm
; top infill extrusion width = 0.43mm
; first layer extrusion width = 0.42mm

M73 P0 R26
M201 X9000 Y9000 Z500 E10000 ; sets maximum accelerations, mm/sec^2
M203 X500 Y500 Z12 E120 ; sets maximum feedrates, mm/sec
M204 P2000 R1500 T2000 ; sets acceleration (P, T) and retract acceleration (R), mm/sec^2
M205 X10.00 Y10.00 Z0.20 E2.50 ; sets the jerk limits, mm/sec
M205 S0 T0 ; sets the minimum extruding and travel feed rate, mm/sec
M107
M115 U3.2.3 ; tell printer latest fw version
M83  ; extruder relative mode
M204 S2000 T1500 ; MK2 firmware only supports the old M204 format
M104 S215 ; set extruder temp
M140 S60 ; set bed temp
M190 S60 ; wait for bed temp
M109 S215 ; wait for extruder temp
G28 W ; home all without mesh bed level
G80 ; mesh bed leveling
G1 Y-3.0 F1000.0 ; go outside print area
G92 E0.0
G1 X60.0 E9.0  F1000.0 ; intro line
M73 P0 R26
G1 X100.0 E12.5  F1000.0 ; intro line
G92 E0.0
M900 K30 ; Filament gcode
G21 ; set units to millimeters
G90 ; use absolute coordinates
M83 ; use relative distances for extrusion
;BEFORE_LAYER_CHANGE
G92 E0.0
;0.2


G1 E-0.80000 F2100.00000
G1 Z0.600 F10800.000
;AFTER_LAYER_CHANGE
;0.2
G1 X101.193 Y81.621
G1 Z0.200
G1 E0.80000 F2100.00000
M204 S1000
G1 F1200
G1 X101.946 Y80.927 E0.03210
G1 X102.823 Y80.398 E0.03210
G1 X103.788 Y80.056 E0.03210
G1 X104.802 Y79.913 E0.03210
G1 X145.006 Y79.909 E1.26056
G1 X145.948 Y79.998 E0.02967
G1 X146.857 Y80.260 E0.02967
G1 X147.702 Y80.686 E0.02967
G1 X148.458 Y81.264 E0.02984
G1 X149.090 Y81.969 E0.02967
G1 X149.580 Y82.778 E0.02967
G1 X149.912 Y83.664 E0.02967
G1 X150.075 Y84.602 E0.02984
G1 X150.089 Y125.145 E1.27121
G1 X149.986 Y126.024 E0.02775
G1 X149.734 Y126.872 E0.02775
G1 X149.335 Y127.669 E0.02793
G1 X148.807 Y128.379 E0.02775
G1 X148.027 Y129.093 E0.03315
G1 X147.111 Y129.632 E0.03332
G1 X146.103 Y129.970 E0.03332
G1 X145.048 Y130.090 E0.03332
G1 X104.850 Y130.088 E1.26038
G1 X103.970 Y129.985 E0.02775
G1 X103.122 Y129.732 E0.02775
G1 X102.331 Y129.335 E0.02775
G1 X101.621 Y128.807 E0.02775
G1 X100.907 Y128.027 E0.03315
G1 X100.368 Y127.111 E0.03332
G1 X100.030 Y126.103 E0.03332
G1 X99.910 Y125.048 E0.03332
G1 X99.912 Y84.850 E1.26038
G1 X100.015 Y83.970 E0.02775
G1 X100.268 Y83.122 E0.02775
G1 X100.665 Y82.331 E0.02775
G1 X101.157 Y81.669 E0.02587
G1 F8640
G1 X101.946 Y80.927 E-0.25004
G1 X102.823 Y80.398 E-0.23642
G1 X103.788 Y80.056 E-0.23642
G1 X103.947 Y80.033 E-0.03711
G1 E-0.04000 F2100.00000
G1 Z0.800 F10800.000
G1 X100.563 Y83.312
G1 Z0.200
G1 E0.80000 F2100.00000
G1 F1200
G1 X101.212 Y82.150 E0.04173
G1 X102.099 Y81.257 E0.03945
G1 X103.179 Y80.616 E0.03936
G1 X104.397 Y80.298 E0.03946
G1 X122.125 Y80.294 E0.55588
G1 X123.075 Y80.486 E0.03039
G1 X123.946 Y80.865 E0.02976
G1 X125.165 Y81.888 E0.04991
G1 X125.955 Y83.106 E0.04551
G1 X126.316 Y84.489 E0.04481
G1 X126.316 Y125.454 E1.28444
G1 X126.040 Y126.689 E0.03969
G1 X125.420 Y127.810 E0.04015
G1 X124.501 Y128.744 E0.04109
G1 X123.421 Y129.385 E0.03940
G1 X122.158 Y129.708 E0.04087
G1 X104.546 Y129.713 E0.55219
G1 X103.312 Y129.437 E0.03967
G1 X102.149 Y128.787 E0.04176
G1 X101.227 Y127.862 E0.04096
G1 X100.595 Y126.770 E0.03956
G1 X100.287 Y125.510 E0.04066
G1 X100.287 Y84.546 E1.28439
G1 X100.550 Y83.370 E0.03779
G1 X100.907 Y83.469 F10800.000
G1 F1200
G1 X101.500 Y82.395 E0.03847
G1 X102.315 Y81.567 E0.03643
G1 X103.301 Y80.974 E0.03608
G1 X104.468 Y80.669 E0.03784
G1 X122.071 Y80.667 E0.55191
G1 X122.944 Y80.840 E0.02790
G1 X123.769 Y81.199 E0.02823
G1 X124.900 Y82.158 E0.04647
G1 X125.599 Y83.232 E0.04018
G1 X125.939 Y84.513 E0.04157
G1 X125.939 Y125.433 E1.28302
G1 X125.696 Y126.531 E0.03523
G1 X125.103 Y127.604 E0.03846
G1 X124.252 Y128.461 E0.03786
G1 X123.254 Y129.046 E0.03627
G1 X122.089 Y129.336 E0.03764
G1 X104.567 Y129.336 E0.54941
G1 X103.469 Y129.093 E0.03523
G1 X102.396 Y128.500 E0.03846
G1 X101.539 Y127.649 E0.03786
G1 X100.954 Y126.651 E0.03627
G1 X100.664 Y125.486 E0.03764
G1 X100.664 Y84.567 E1.28301
G1 X100.894 Y83.528 E0.03335
G1 X101.261 Y83.611 F10800.000
G1 F1200
G1 X101.815 Y82.603 E0.03607
G1 X102.564 Y81.851 E0.03328
G1 X103.469 Y81.313 E0.03301
G1 X104.538 Y81.041 E0.03458
G1 X122.051 Y81.044 E0.54912
G1 X122.848 Y81.205 E0.02549
G1 X123.591 Y81.533 E0.02545
G1 X124.633 Y82.426 E0.04302
G1 X125.265 Y83.410 E0.03669
G1 X125.562 Y84.538 E0.03655
G1 X125.562 Y125.412 E1.28159
G1 X125.335 Y126.420 E0.03240
G1 X124.787 Y127.397 E0.03511
G1 X124.038 Y128.149 E0.03328
G1 X123.134 Y128.687 E0.03301
G1 X122.065 Y128.959 E0.03457
G1 X104.588 Y128.959 E0.54799
G1 X103.580 Y128.732 E0.03240
G1 X102.603 Y128.185 E0.03511
G1 X101.851 Y127.436 E0.03328
G1 X101.313 Y126.531 E0.03301
G1 X101.041 Y125.462 E0.03457
G1 X101.041 Y84.588 E1.28159
G1 X101.248 Y83.669 E0.02952
G1 X101.629 Y83.692 F10800.000
G1 F1200
G1 X102.130 Y82.813 E0.03173
G1 X102.813 Y82.135 E0.03019
G1 X103.591 Y81.670 E0.02839
G1 X104.562 Y81.418 E0.03148
G1 X122.032 Y81.421 E0.54774
G1 X122.751 Y81.570 E0.02303
G1 X123.411 Y81.865 E0.02266
G1 X124.365 Y82.692 E0.03960
G1 X124.909 Y83.537 E0.03149
G1 X125.185 Y84.563 E0.03331
G1 X125.185 Y125.390 E1.28012
G1 X124.974 Y126.308 E0.02951
G1 X124.473 Y127.187 E0.03173
G1 X123.789 Y127.865 E0.03019
G1 X123.012 Y128.330 E0.02839
G1 X122.041 Y128.582 E0.03147
G1 X104.610 Y128.582 E0.54654
G1 X103.692 Y128.371 E0.02951
G1 X102.813 Y127.870 E0.03173
G1 X102.135 Y127.187 E0.03019
G1 X101.670 Y126.409 E0.02839
G1 X101.418 Y125.438 E0.03147
G1 X101.418 Y84.610 E1.28014
G1 X101.616 Y83.751 E0.02763
G1 X101.982 Y83.837 F10800.000
G1 F1200
G1 X102.442 Y83.025 E0.02926
G1 X103.061 Y82.420 E0.02713
G1 X103.714 Y82.028 E0.02390
G1 X104.588 Y81.795 E0.02834
G1 X122.013 Y81.798 E0.54635
G1 X122.616 Y81.923 E0.01932
G1 X123.231 Y82.197 E0.02110
G1 X124.095 Y82.957 E0.03609
G1 X124.575 Y83.714 E0.02809
G1 X124.808 Y84.587 E0.02835
G1 X124.808 Y125.368 E1.27865
G1 X124.614 Y126.193 E0.02658
G1 X124.161 Y126.975 E0.02833
G1 X123.542 Y127.580 E0.02713
G1 X122.889 Y127.972 E0.02390
G1 X122.016 Y128.205 E0.02833
G1 X104.632 Y128.205 E0.54505
G1 X103.807 Y128.011 E0.02658
G1 X103.025 Y127.558 E0.02833
G1 X102.420 Y126.939 E0.02713
G1 X102.028 Y126.286 E0.02390
G1 X101.795 Y125.413 E0.02833
G1 X101.795 Y84.632 E1.27865
G1 X101.968 Y83.896 E0.02372
G1 X102.328 Y83.979 F10800.000
G1 F1200
G1 X102.726 Y83.274 E0.02538
G1 X103.278 Y82.729 E0.02430
G1 X103.841 Y82.384 E0.02073
G1 X104.613 Y82.172 E0.02511
G1 X121.992 Y82.176 E0.54490
G1 X122.517 Y82.287 E0.01681
G1 X123.048 Y82.528 E0.01829
G1 X123.825 Y83.221 E0.03263
G1 X124.219 Y83.841 E0.02306
G1 X124.431 Y84.613 E0.02510
G1 X124.431 Y125.347 E1.27717
G1 X124.272 Y126.031 E0.02203
G1 X123.876 Y126.726 E0.02507
G1 X123.325 Y127.271 E0.02430
G1 X122.762 Y127.616 E0.02073
G1 X121.990 Y127.828 E0.02510
G1 X104.653 Y127.828 E0.54357
G1 X103.969 Y127.669 E0.02203
G1 X103.274 Y127.274 E0.02507
G1 X102.729 Y126.722 E0.02430
G1 X102.384 Y126.159 E0.02073
G1 X102.172 Y125.387 E0.02510
G1 X102.172 Y84.653 E1.27717
G1 X102.315 Y84.038 E0.01981
G1 X102.673 Y84.128 F10800.000
G1 F1200
G1 X103.012 Y83.521 E0.02179
G1 X103.497 Y83.036 E0.02151
G1 X103.971 Y82.738 E0.01755
G1 X104.640 Y82.549 E0.02180
G1 X121.971 Y82.553 E0.54339
G1 X122.414 Y82.650 E0.01423
G1 X122.862 Y82.858 E0.01548
G1 X123.552 Y83.483 E0.02920
G1 X123.864 Y83.971 E0.01818
G1 X124.054 Y84.640 E0.02179
G1 X124.054 Y125.326 E1.27568
G1 X123.929 Y125.872 E0.01755
G1 X123.590 Y126.479 E0.02179
G1 X123.105 Y126.964 E0.02151
G1 X122.631 Y127.262 E0.01755
G1 X121.963 Y127.451 E0.02179
G1 X104.674 Y127.451 E0.54208
G1 X104.128 Y127.327 E0.01755
G1 X103.521 Y126.988 E0.02179
G1 X103.036 Y126.503 E0.02151
G1 X102.738 Y126.029 E0.01755
G1 X102.549 Y125.360 E0.02179
G1 X102.549 Y84.674 E1.27568
M73 P4 R25
G1 X102.660 Y84.187 E0.01567
G1 X103.018 Y84.284 F10800.000
G1 F1200
G1 X103.299 Y83.768 E0.01842
G1 X103.750 Y83.317 E0.01999
G1 X104.104 Y83.092 E0.01318
G1 X104.668 Y82.926 E0.01842
G1 X121.949 Y82.930 E0.54181
G1 X122.308 Y83.013 E0.01157
G1 X122.674 Y83.185 E0.01268
G1 X123.279 Y83.743 E0.02580
G1 X123.511 Y84.105 E0.01347
G1 X123.677 Y84.668 E0.01841
G1 X123.677 Y125.306 E1.27417
G1 X123.585 Y125.716 E0.01318
G1 X123.304 Y126.232 E0.01842
G1 X122.853 Y126.683 E0.01999
G1 X122.498 Y126.908 E0.01318
G1 X121.935 Y127.074 E0.01842
G1 X104.694 Y127.074 E0.54056
G1 X104.284 Y126.982 E0.01318
G1 X103.768 Y126.701 E0.01842
G1 X103.317 Y126.250 E0.01999
G1 X103.092 Y125.896 E0.01318
G1 X102.926 Y125.332 E0.01842
G1 X102.926 Y84.694 E1.27417
G1 X103.005 Y84.343 E0.01130
G1 X103.586 Y84.014 F10800.000
G1 F1200
G1 X104.002 Y83.598 E0.01845
G1 X104.242 Y83.444 E0.00892
G1 X104.698 Y83.303 E0.01496
G1 X121.927 Y83.307 E0.54021
G1 X122.165 Y83.362 E0.00767
G1 X122.485 Y83.513 E0.01109
G1 X123.003 Y84.001 E0.02233
G1 X123.159 Y84.242 E0.00898
G1 X123.300 Y84.698 E0.01495
G1 X123.300 Y125.286 E1.27262
G1 X123.239 Y125.564 E0.00892
G1 X123.016 Y125.986 E0.01496
G1 X122.600 Y126.402 E0.01845
G1 X122.361 Y126.556 E0.00892
G1 X121.905 Y126.697 E0.01496
G1 X104.714 Y126.697 E0.53902
G1 X104.436 Y126.636 E0.00892
G1 X104.014 Y126.414 E0.01496
G1 X103.598 Y125.998 E0.01845
G1 X103.444 Y125.758 E0.00892
G1 X103.303 Y125.302 E0.01496
G1 X103.303 Y84.714 E1.27262
G1 X103.364 Y84.436 E0.00892
G1 X103.558 Y84.067 E0.01308
G1 X103.712 Y84.582 F10800.000
G1 F1200
G1 X103.875 Y84.258 E0.01136
G1 X104.256 Y83.878 E0.01687
G1 X104.385 Y83.793 E0.00484
G1 X104.729 Y83.680 E0.01136
G1 X121.905 Y83.684 E0.53852
G1 X122.022 Y83.711 E0.00377
G1 X122.295 Y83.840 E0.00947
G1 X122.726 Y84.257 E0.01880
G1 X122.810 Y84.385 E0.00479
G1 X122.923 Y84.729 E0.01136
G1 X122.923 Y125.267 E1.27104
G1 X122.891 Y125.418 E0.00484
G1 X122.727 Y125.742 E0.01136
G1 X122.347 Y126.122 E0.01687
G1 X122.218 Y126.207 E0.00484
G1 X121.873 Y126.320 E0.01136
G1 X104.733 Y126.320 E0.53744
G1 X104.582 Y126.288 E0.00484
G1 X104.258 Y126.125 E0.01136
G1 X103.878 Y125.744 E0.01687
G1 X103.793 Y125.615 E0.00484
G1 X103.680 Y125.271 E0.01136
G1 X103.680 Y84.733 E1.27104
G1 X103.700 Y84.640 E0.00296
G1 X104.064 Y84.718 F10800.000
G1 F1200
G1 X104.167 Y84.500 E0.00757
G1 X104.510 Y84.157 E0.01522
G1 X104.764 Y84.057 E0.00856
G1 X121.853 Y84.057 E0.53579
G1 X122.103 Y84.167 E0.00856
G1 X122.464 Y84.537 E0.01622
G1 X122.545 Y84.764 E0.00757
G1 X122.545 Y125.250 E1.26939
G1 X122.436 Y125.500 E0.00856
G1 X122.066 Y125.861 E0.01622
G1 X121.838 Y125.943 E0.00757
G1 X104.750 Y125.943 E0.53579
G1 X104.500 Y125.833 E0.00856
G1 X104.139 Y125.463 E0.01622
G1 X104.057 Y125.236 E0.00757
G1 X104.057 Y84.778 E1.26853
G1 X104.463 Y84.737 F10800.000
G1 F1200
G1 X104.737 Y84.463 E0.01215
G1 X104.806 Y84.434 E0.00235
G1 X121.796 Y84.434 E0.53272
G1 X121.866 Y84.463 E0.00235
G1 X122.140 Y84.737 E0.01215
G1 X122.168 Y84.806 E0.00235
G1 X122.168 Y125.194 E1.26632
G1 X122.140 Y125.263 E0.00235
G1 X121.866 Y125.537 E0.01215
G1 X121.796 Y125.566 E0.00235
G1 X104.806 Y125.566 E0.53272
G1 X104.737 Y125.537 E0.00235
G1 X104.463 Y125.263 E0.01215
G1 X104.434 Y125.194 E0.00235
G1 X104.440 Y84.792 E1.26675
G1 X104.811 Y84.922 F10800.000
G1 F1200
G1 X104.922 Y84.811 E0.00490
G1 X121.681 Y84.811 E0.52547
G1 X121.791 Y84.922 E0.00490
G1 X121.791 Y125.078 E1.25907
G1 X121.681 Y125.189 E0.00490
G1 X104.922 Y125.189 E0.52547
G1 X104.811 Y125.078 E0.00490
G1 X104.811 Y84.982 E1.25719
G1 F8640
G1 X104.922 Y84.811 E-0.04690
G1 X108.010 Y84.811 E-0.71310
G1 E-0.04000 F2100.00000
G1 Z0.800 F10800.000
G1 X130.348 Y82.530
G1 Z0.200
G1 E0.80000 F2100.00000
G1 F1200
G1 X131.326 Y81.401 E0.04686
G1 X132.335 Y80.724 E0.03808
G1 X133.554 Y80.334 E0.04013
G1 X145.696 Y80.313 E0.38072
G1 X146.564 Y80.516 E0.02795
G1 X147.349 Y80.868 E0.02698
G1 X148.562 Y81.889 E0.04970
G1 X149.353 Y83.106 E0.04550
G1 X149.713 Y84.489 E0.04481
G1 X149.713 Y125.398 E1.28269
G1 X149.621 Y126.119 E0.02280
G1 X149.050 Y127.470 E0.04597
G1 X148.071 Y128.599 E0.04686
G1 X147.062 Y129.276 E0.03808
G1 X145.844 Y129.666 E0.04011
G1 X134.001 Y129.714 E0.37133
G1 X133.278 Y129.621 E0.02287
G1 X131.928 Y129.050 E0.04597
G1 X130.795 Y128.068 E0.04699
G1 X130.040 Y126.884 E0.04403
G1 X129.684 Y125.510 E0.04451
G1 X129.684 Y84.602 E1.28265
G1 X129.776 Y83.881 E0.02280
G1 X130.324 Y82.586 E0.04409
G1 X130.670 Y82.734 F10800.000
G1 F1200
G1 X131.592 Y81.669 E0.04417
G1 X132.520 Y81.053 E0.03490
G1 X133.639 Y80.702 E0.03677
G1 X145.633 Y80.685 E0.37606
G1 X146.427 Y80.868 E0.02555
G1 X147.170 Y81.201 E0.02554
G1 X148.297 Y82.158 E0.04635
G1 X148.996 Y83.232 E0.04018
G1 X149.336 Y84.513 E0.04157
G1 X149.336 Y125.386 E1.28152
G1 X149.250 Y126.044 E0.02082
G1 X148.715 Y127.293 E0.04260
G1 X147.805 Y128.331 E0.04330
G1 X146.877 Y128.947 E0.03490
G1 X145.759 Y129.298 E0.03675
G1 X134.013 Y129.336 E0.36829
G1 X133.353 Y129.250 E0.02086
G1 X132.104 Y128.715 E0.04260
G1 X131.065 Y127.804 E0.04336
G1 X130.375 Y126.709 E0.04057
G1 X130.061 Y125.486 E0.03957
G1 X130.061 Y84.614 E1.28152
G1 X130.147 Y83.956 E0.02082
G1 X130.647 Y82.789 E0.03980
G1 X130.992 Y82.939 F10800.000
G1 F1200
G1 X131.015 Y82.886 E0.00183
G1 X131.857 Y81.939 E0.03973
G1 X132.704 Y81.384 E0.03174
G1 X133.722 Y81.071 E0.03342
G1 X145.571 Y81.057 E0.37150
G1 X146.290 Y81.220 E0.02312
G1 X146.991 Y81.534 E0.02407
G1 X148.030 Y82.426 E0.04293
G1 X148.663 Y83.410 E0.03669
G1 X148.959 Y84.538 E0.03655
G1 X148.959 Y125.373 E1.28037
G1 X148.880 Y125.968 E0.01881
G1 X148.382 Y127.114 E0.03920
G1 X147.540 Y128.061 E0.03973
G1 X146.694 Y128.616 E0.03173
G1 X145.675 Y128.929 E0.03341
G1 X134.025 Y128.959 E0.36529
G1 X133.429 Y128.880 E0.01883
G1 X132.283 Y128.382 E0.03920
G1 X131.335 Y127.540 E0.03975
G1 X130.732 Y126.584 E0.03542
G1 X130.438 Y125.462 E0.03639
G1 X130.438 Y84.627 E1.28035
G1 X130.517 Y84.032 E0.01881
G1 X130.968 Y82.994 E0.03549
G1 X131.348 Y83.067 F10800.000
G1 F1200
G1 X132.119 Y82.210 E0.03614
G1 X132.885 Y81.716 E0.02858
G1 X133.804 Y81.440 E0.03009
G1 X145.508 Y81.430 E0.36699
G1 X146.188 Y81.583 E0.02185
G1 X146.809 Y81.865 E0.02139
G1 X147.762 Y82.692 E0.03957
G1 X148.306 Y83.537 E0.03149
G1 X148.582 Y84.563 E0.03331
G1 X148.582 Y125.360 E1.27917
G1 X148.510 Y125.890 E0.01677
G1 X148.050 Y126.933 E0.03576
G1 X147.278 Y127.790 E0.03614
G1 X146.512 Y128.284 E0.02857
G1 X145.594 Y128.560 E0.03008
G1 X134.037 Y128.582 E0.36234
M73 P7 R24
G1 X133.507 Y128.510 E0.01678
G1 X132.464 Y128.050 E0.03576
G1 X131.608 Y127.278 E0.03612
G1 X131.068 Y126.410 E0.03206
G1 X130.815 Y125.438 E0.03150
G1 X130.815 Y84.640 E1.27919
G1 X130.887 Y84.110 E0.01677
G1 X131.323 Y83.121 E0.03388
G1 X131.667 Y83.276 F10800.000
G1 F1200
G1 X132.380 Y82.484 E0.03340
G1 X133.064 Y82.049 E0.02543
G1 X133.883 Y81.809 E0.02677
G1 X145.448 Y81.803 E0.36261
G1 X146.051 Y81.935 E0.01934
G1 X146.627 Y82.197 E0.01986
G1 X147.492 Y82.957 E0.03611
G1 X147.972 Y83.714 E0.02809
G1 X148.205 Y84.587 E0.02835
G1 X148.205 Y125.347 E1.27799
G1 X148.141 Y125.811 E0.01468
G1 X147.719 Y126.750 E0.03230
G1 X147.018 Y127.516 E0.03255
G1 X146.334 Y127.951 E0.02542
G1 X145.514 Y128.191 E0.02676
G1 X134.050 Y128.205 E0.35944
G1 X133.587 Y128.141 E0.01469
G1 X132.647 Y127.719 E0.03230
G1 X131.882 Y127.018 E0.03252
G1 X131.425 Y126.285 E0.02709
G1 X131.192 Y125.413 E0.02831
G1 X131.192 Y84.653 E1.27799
G1 X131.256 Y84.189 E0.01468
G1 X131.642 Y83.330 E0.02952
G1 X132.008 Y83.436 F10800.000
G1 F1200
G1 X132.637 Y82.760 E0.02895
G1 X133.240 Y82.383 E0.02228
G1 X133.960 Y82.179 E0.02347
G1 X145.390 Y82.176 E0.35837
G1 X145.914 Y82.287 E0.01680
G1 X146.445 Y82.528 E0.01829
G1 X147.222 Y83.221 E0.03263
G1 X147.616 Y83.841 E0.02306
G1 X147.828 Y84.613 E0.02510
G1 X147.828 Y125.333 E1.27674
G1 X147.771 Y125.729 E0.01256
G1 X147.389 Y126.564 E0.02879
G1 X146.760 Y127.240 E0.02895
G1 X146.158 Y127.617 E0.02228
G1 X145.438 Y127.821 E0.02346
G1 X134.064 Y127.828 E0.35661
G1 X133.668 Y127.771 E0.01255
G1 X132.833 Y127.389 E0.02879
G1 X132.157 Y126.760 E0.02895
