; generated by Slic3r Prusa Edition 1.41.3+ on 2021-04-06 at 16:27:09

; 

; external perimeters extrusion width = 0.45mm
; perimeters extrusion width = 0.45mm
; infill extrusion width = 0.45mm
; solid infill extrusion width = 0.45mm
; top infill extrusion width = 0.40mm
; first layer extrusion width = 0.42mm

M73 P0 R28
M201 X9000 Y9000 Z500 E10000 ; sets maximum accelerations, mm/sec^2
M203 X500 Y500 Z12 E120 ; sets maximum feedrates, mm/sec
M204 P2000 R1500 T2000 ; sets acceleration (P, T) and retract acceleration (R), mm/sec^2
M205 X10.00 Y10.00 Z0.20 E2.50 ; sets the jerk limits, mm/sec
M205 S0 T0 ; sets the minimum extruding and travel feed rate, mm/sec
M107
M115 U3.2.3 ; tell printer latest fw version
M83  ; extruder relative mode
M204 S2000 T1500 ; MK2 firmware only supports the old M204 format
M104 S215 ; set extruder temp
M140 S60 ; set bed temp
M190 S60 ; wait for bed temp
M109 S215 ; wait for extruder temp
G28 W ; home all without mesh bed level
G80 ; mesh bed leveling
G1 Y-3.0 F1000.0 ; go outside print area
G92 E0.0
G1 X60.0 E9.0  F1000.0 ; intro line
M73 P0 R28
G1 X100.0 E12.5  F1000.0 ; intro line
G92 E0.0
M900 K30 ; Filament gcode
G21 ; set units to millimeters
G90 ; use absolute coordinates
M83 ; use relative distances for extrusion
;BEFORE_LAYER_CHANGE
G92 E0.0
;0.2


G1 E-0.80000 F2100.00000
G1 Z0.600 F10800.000
;AFTER_LAYER_CHANGE
;0.2
G1 X112.985 Y81.646
G1 Z0.200
G1 E0.80000 F2100.00000
M204 S1000
G1 F1200
G1 X113.296 Y81.127 E0.01896
G1 X113.736 Y80.713 E0.01896
G1 X114.274 Y80.436 E0.01896
G1 X114.866 Y80.316 E0.01896
G1 X135.004 Y80.311 E0.63139
G1 X135.817 Y80.470 E0.02597
G1 X136.515 Y80.921 E0.02608
G1 X136.995 Y81.601 E0.02608
G1 X137.187 Y82.406 E0.02597
G1 X137.189 Y127.507 E1.41411
G1 X137.015 Y128.354 E0.02709
G1 X136.700 Y128.878 E0.01919
G1 X136.255 Y129.293 E0.01908
G1 X135.709 Y129.570 E0.01919
G1 X135.112 Y129.686 E0.01908
G1 X114.982 Y129.688 E0.63116
G1 X114.146 Y129.515 E0.02676
G1 X113.613 Y129.193 E0.01953
G1 X113.190 Y128.731 E0.01964
G1 X112.916 Y128.168 E0.01964
G1 X112.812 Y127.553 E0.01953
G1 X112.811 Y82.493 E1.41285
G1 X112.973 Y81.705 E0.02521
; PURGING FINISHED
G1 F8640
G1 X113.296 Y81.127 E-0.15278
G1 X113.736 Y80.713 E-0.13964
G1 X114.274 Y80.436 E-0.13964
G1 X114.866 Y80.316 E-0.13964
G1 X115.682 Y80.315 E-0.18829
G1 E-0.04000 F2100.00000
G1 Z0.800 F10800.000
G1 X115.587 Y83.087
G1 Z0.200
G1 E0.80000 F2100.00000
G1 F1200
G1 X134.413 Y83.087 E0.59027
G1 X134.413 Y126.913 E1.37413
G1 X115.587 Y126.913 E0.59027
G1 X115.587 Y83.147 E1.37225
G1 X115.210 Y82.710 F10800.000
G1 F1200
G1 X134.790 Y82.710 E0.61392
G1 X134.790 Y127.290 E1.39777
G1 X115.210 Y127.290 E0.61392
G1 X115.210 Y82.770 E1.39589
G1 X115.581 Y82.860 F10800.000
G1 F8640
G1 X118.501 Y82.760 E-0.76000
G1 E-0.04000 F2100.00000
G1 Z0.800 F10800.000
G1 X134.300 Y83.968
G1 Z0.200
G1 E0.80000 F2100.00000
G1 F1200
G1 X133.702 Y83.370 E0.02669
G1 X133.165 Y83.370 E0.01695
G1 X134.130 Y84.335 E0.04308
G1 X134.130 Y84.872 E0.01695
G1 X132.628 Y83.370 E0.06705
G1 X132.091 Y83.370 E0.01695
G1 X134.130 Y85.409 E0.09101
G1 X134.130 Y85.946 E0.01695
G1 X131.554 Y83.370 E0.11498
G1 X131.018 Y83.370 E0.01695
G1 X134.130 Y86.482 E0.13894
G1 X134.130 Y87.019 E0.01695
G1 X130.481 Y83.370 E0.16290
G1 X129.944 Y83.370 E0.01695
G1 X134.130 Y87.556 E0.18687
G1 X134.130 Y88.093 E0.01695
G1 X129.407 Y83.370 E0.21083
G1 X128.870 Y83.370 E0.01695
G1 X134.130 Y88.630 E0.23480
G1 X134.130 Y89.167 E0.01695
G1 X128.333 Y83.370 E0.25876
G1 X127.797 Y83.370 E0.01695
G1 X134.130 Y89.703 E0.28273
G1 X134.130 Y90.240 E0.01695
G1 X127.260 Y83.370 E0.30669
G1 X126.723 Y83.370 E0.01695
G1 X134.130 Y90.777 E0.33066
G1 X134.130 Y91.314 E0.01695
G1 X126.186 Y83.370 E0.35462
G1 X125.649 Y83.370 E0.01695
G1 X134.130 Y91.851 E0.37859
G1 X134.130 Y92.388 E0.01695
G1 X125.112 Y83.370 E0.40255
G1 X124.575 Y83.370 E0.01695
G1 X134.130 Y92.925 E0.42651
G1 X134.130 Y93.461 E0.01695
G1 X124.039 Y83.370 E0.45048
G1 X123.502 Y83.370 E0.01695
G1 X134.130 Y93.998 E0.47444
G1 X134.130 Y94.535 E0.01695
G1 X122.965 Y83.370 E0.49841
G1 X122.428 Y83.370 E0.01695
G1 X134.130 Y95.072 E0.52237
G1 X134.130 Y95.609 E0.01695
G1 X121.891 Y83.370 E0.54634
G1 X121.354 Y83.370 E0.01695
G1 X134.130 Y96.146 E0.57030
G1 X134.130 Y96.683 E0.01695
G1 X120.817 Y83.370 E0.59427
G1 X120.281 Y83.370 E0.01695
G1 X134.130 Y97.219 E0.61823
G1 X134.130 Y97.756 E0.01695
G1 X119.744 Y83.370 E0.64220
G1 X119.207 Y83.370 E0.01695
G1 X134.130 Y98.293 E0.66616
G1 X134.130 Y98.830 E0.01695
G1 X118.670 Y83.370 E0.69013
G1 X118.133 Y83.370 E0.01695
G1 X134.130 Y99.367 E0.71409
G1 X134.130 Y99.904 E0.01695
G1 X117.596 Y83.370 E0.73805
G1 X117.060 Y83.370 E0.01695
G1 X134.130 Y100.440 E0.76202
G1 X134.130 Y100.977 E0.01695
G1 X116.523 Y83.370 E0.78598
G1 X115.986 Y83.370 E0.01695
G1 X134.130 Y101.514 E0.80995
G1 X134.130 Y102.051 E0.01695
G1 X115.870 Y83.791 E0.81512
G1 X115.870 Y84.328 E0.01695
G1 X134.130 Y102.588 E0.81512
G1 X134.130 Y103.125 E0.01695
G1 X115.870 Y84.864 E0.81512
G1 X115.870 Y85.401 E0.01695
G1 X134.130 Y103.662 E0.81512
G1 X134.130 Y104.198 E0.01695
G1 X115.870 Y85.938 E0.81512
G1 X115.870 Y86.475 E0.01695
G1 X134.130 Y104.735 E0.81512
G1 X134.130 Y105.272 E0.01695
G1 X115.870 Y87.012 E0.81512
G1 X115.870 Y87.549 E0.01695
G1 X134.130 Y105.809 E0.81512
G1 X134.130 Y106.346 E0.01695
G1 X115.870 Y88.086 E0.81512
G1 X115.870 Y88.622 E0.01695
G1 X134.130 Y106.883 E0.81512
M73 P3 R27
G1 X134.130 Y107.420 E0.01695
G1 X115.870 Y89.159 E0.81512
G1 X115.870 Y89.696 E0.01695
G1 X134.130 Y107.956 E0.81512
G1 X134.130 Y108.493 E0.01695
G1 X115.870 Y90.233 E0.81512
G1 X115.870 Y90.770 E0.01695
G1 X134.130 Y109.030 E0.81512
G1 X134.130 Y109.567 E0.01695
G1 X115.870 Y91.307 E0.81512
G1 X115.870 Y91.843 E0.01695
G1 X134.130 Y110.104 E0.81512
G1 X134.130 Y110.641 E0.01695
G1 X115.870 Y92.380 E0.81512
G1 X115.870 Y92.917 E0.01695
G1 X134.130 Y111.177 E0.81512
G1 X134.130 Y111.714 E0.01695
G1 X115.870 Y93.454 E0.81512
G1 X115.870 Y93.991 E0.01695
G1 X134.130 Y112.251 E0.81512
G1 X134.130 Y112.788 E0.01695
G1 X115.870 Y94.528 E0.81512
G1 X115.870 Y95.065 E0.01695
G1 X134.130 Y113.325 E0.81512
G1 X134.130 Y113.862 E0.01695
G1 X115.870 Y95.601 E0.81512
G1 X115.870 Y96.138 E0.01695
G1 X134.130 Y114.399 E0.81512
G1 X134.130 Y114.935 E0.01695
G1 X115.870 Y96.675 E0.81512
G1 X115.870 Y97.212 E0.01695
G1 X134.130 Y115.472 E0.81512
G1 X134.130 Y116.009 E0.01695
G1 X115.870 Y97.749 E0.81512
G1 X115.870 Y98.286 E0.01695
G1 X134.130 Y116.546 E0.81512
G1 X134.130 Y117.083 E0.01695
G1 X115.870 Y98.823 E0.81512
G1 X115.870 Y99.359 E0.01695
G1 X134.130 Y117.620 E0.81512
G1 X134.130 Y118.157 E0.01695
G1 X115.870 Y99.896 E0.81512
G1 X115.870 Y100.433 E0.01695
G1 X134.130 Y118.693 E0.81512
G1 X134.130 Y119.230 E0.01695
G1 X115.870 Y100.970 E0.81512
G1 X115.870 Y101.507 E0.01695
G1 X134.130 Y119.767 E0.81512
G1 X134.130 Y120.304 E0.01695
G1 X115.870 Y102.044 E0.81512
G1 X115.870 Y102.580 E0.01695
G1 X134.130 Y120.841 E0.81512
G1 X134.130 Y121.378 E0.01695
G1 X115.870 Y103.117 E0.81512
G1 X115.870 Y103.654 E0.01695
G1 X134.130 Y121.914 E0.81512
G1 X134.130 Y122.451 E0.01695
G1 X115.870 Y104.191 E0.81512
G1 X115.870 Y104.728 E0.01695
G1 X134.130 Y122.988 E0.81512
G1 X134.130 Y123.525 E0.01695
G1 X115.870 Y105.265 E0.81512
G1 X115.870 Y105.802 E0.01695
G1 X134.130 Y124.062 E0.81512
G1 X134.130 Y124.599 E0.01695
G1 X115.870 Y106.338 E0.81512
G1 X115.870 Y106.875 E0.01695
G1 X134.130 Y125.136 E0.81512
G1 X134.130 Y125.672 E0.01695
G1 X115.870 Y107.412 E0.81512
G1 X115.870 Y107.949 E0.01695
G1 X134.130 Y126.209 E0.81512
G1 X134.130 Y126.630 E0.01328
G1 X134.014 Y126.630 E0.00366
G1 X115.870 Y108.486 E0.80995
G1 X115.870 Y109.023 E0.01695
G1 X133.477 Y126.630 E0.78598
G1 X132.940 Y126.630 E0.01695
G1 X115.870 Y109.560 E0.76202
G1 X115.870 Y110.096 E0.01695
G1 X132.404 Y126.630 E0.73805
G1 X131.867 Y126.630 E0.01695
G1 X115.870 Y110.633 E0.71409
G1 X115.870 Y111.170 E0.01695
G1 X131.330 Y126.630 E0.69012
G1 X130.793 Y126.630 E0.01695
G1 X115.870 Y111.707 E0.66616
G1 X115.870 Y112.244 E0.01695
G1 X130.256 Y126.630 E0.64220
G1 X129.719 Y126.630 E0.01695
G1 X115.870 Y112.781 E0.61823
G1 X115.870 Y113.317 E0.01695
G1 X129.183 Y126.630 E0.59427
G1 X128.646 Y126.630 E0.01695
G1 X115.870 Y113.854 E0.57030
M73 P7 R26
G1 X115.870 Y114.391 E0.01695
G1 X128.109 Y126.630 E0.54634
G1 X127.572 Y126.630 E0.01695
G1 X115.870 Y114.928 E0.52237
G1 X115.870 Y115.465 E0.01695
G1 X127.035 Y126.630 E0.49841
G1 X126.498 Y126.630 E0.01695
G1 X115.870 Y116.002 E0.47444
G1 X115.870 Y116.539 E0.01695
G1 X125.961 Y126.630 E0.45048
G1 X125.425 Y126.630 E0.01695
G1 X115.870 Y117.075 E0.42651
G1 X115.870 Y117.612 E0.01695
G1 X124.888 Y126.630 E0.40255
G1 X124.351 Y126.630 E0.01695
G1 X115.870 Y118.149 E0.37859
G1 X115.870 Y118.686 E0.01695
G1 X123.814 Y126.630 E0.35462
G1 X123.277 Y126.630 E0.01695
G1 X115.870 Y119.223 E0.33066
G1 X115.870 Y119.760 E0.01695
G1 X122.740 Y126.630 E0.30669
G1 X122.203 Y126.630 E0.01695
G1 X115.870 Y120.297 E0.28273
G1 X115.870 Y120.833 E0.01695
G1 X121.667 Y126.630 E0.25876
G1 X121.130 Y126.630 E0.01695
G1 X115.870 Y121.370 E0.23480
G1 X115.870 Y121.907 E0.01695
G1 X120.593 Y126.630 E0.21083
G1 X120.056 Y126.630 E0.01695
G1 X115.870 Y122.444 E0.18687
G1 X115.870 Y122.981 E0.01695
G1 X119.519 Y126.630 E0.16290
G1 X118.982 Y126.630 E0.01695
G1 X115.870 Y123.518 E0.13894
G1 X115.870 Y124.054 E0.01695
G1 X118.446 Y126.630 E0.11498
G1 X117.909 Y126.630 E0.01695
G1 X115.870 Y124.591 E0.09101
G1 X115.870 Y125.128 E0.01695
G1 X117.372 Y126.630 E0.06705
G1 X116.835 Y126.630 E0.01695
G1 X115.870 Y125.665 E0.04308
G1 X115.870 Y126.202 E0.01695
G1 X116.468 Y126.800 E0.02669
M106 S255
;BEFORE_LAYER_CHANGE
G92 E0.0
;0.4


G1 F8640
G1 X115.870 Y126.202 E-0.19526
G1 X115.870 Y125.665 E-0.12396
G1 X116.835 Y126.630 E-0.31515
G1 X117.372 Y126.630 E-0.12396
G1 X117.367 Y126.625 E-0.00167
G1 E-0.04000 F2100.00000
G1 Z0.800 F10800.000
;AFTER_LAYER_CHANGE
;0.4
M104 S210 ; set temperature
G1 X114.146 Y129.515
G1 Z0.400
G1 E0.80000 F2100.00000
G1 F3000
G1 X113.613 Y129.193 E0.01953
G1 X113.190 Y128.731 E0.01964
G1 X112.916 Y128.168 E0.01964
G1 X112.812 Y127.553 E0.01953
G1 X112.811 Y82.493 E1.41285
G1 X112.985 Y81.646 E0.02709
G1 X113.296 Y81.127 E0.01896
G1 X113.736 Y80.713 E0.01896
G1 X114.274 Y80.436 E0.01896
G1 X114.866 Y80.316 E0.01896
G1 X135.004 Y80.311 E0.63139
G1 X135.817 Y80.470 E0.02597
G1 X136.515 Y80.921 E0.02608
G1 X136.995 Y81.601 E0.02608
G1 X137.187 Y82.406 E0.02597
G1 X137.189 Y127.507 E1.41411
G1 X137.015 Y128.354 E0.02709
G1 X136.700 Y128.878 E0.01919
G1 X136.255 Y129.293 E0.01908
G1 X135.709 Y129.570 E0.01919
G1 X135.112 Y129.686 E0.01908
G1 X114.982 Y129.688 E0.63116
G1 X114.205 Y129.527 E0.02488
; PURGING FINISHED
G1 F8640
G1 X113.613 Y129.193 E-0.15695
G1 X113.190 Y128.731 E-0.14465
G1 X112.916 Y128.168 E-0.14465
G1 X112.812 Y127.553 E-0.14382
G1 X112.812 Y126.817 E-0.16992
G1 E-0.04000 F2100.00000
G1 Z1.000 F10800.000
G1 X115.632 Y126.868
G1 Z0.400
G1 E0.80000 F2100.00000
M204 S800
G1 F3000
G1 X115.632 Y83.132 E1.48041
G1 X134.368 Y83.132 E0.63419
G1 X134.368 Y126.868 E1.48041
G1 X115.692 Y126.868 E0.63216
M204 S1000
G1 X115.225 Y127.275 F10800.000
M204 S800
G1 F2400
G1 X115.225 Y82.725 E1.50796
G1 X134.775 Y82.725 E0.66174
G1 X134.775 Y127.275 E1.50796
G1 X115.285 Y127.275 E0.65971
M204 S1000
G1 X115.280 Y126.879 F10800.000
G1 F8640
G1 X115.281 Y123.984 E-0.76000
G1 E-0.04000 F2100.00000
G1 Z1.000 F10800.000
G1 X133.416 Y126.746
G1 Z0.400
G1 E0.80000 F2100.00000
M204 S2000
G1 F3000
G1 X134.063 Y126.100 E0.03117
G1 X134.063 Y125.520 E0.01978
G1 X133.020 Y126.563 E0.05031
G1 X132.439 Y126.563 E0.01978
G1 X134.063 Y124.939 E0.07829
G1 X134.063 Y124.359 E0.01978
G1 X131.859 Y126.563 E0.10626
G1 X131.279 Y126.563 E0.01978
G1 X134.063 Y123.779 E0.13424
G1 X134.063 Y123.199 E0.01978
G1 X130.699 Y126.563 E0.16221
G1 X130.119 Y126.563 E0.01978
G1 X134.063 Y122.619 E0.19019
G1 X134.063 Y122.039 E0.01978
G1 X129.539 Y126.563 E0.21816
G1 X128.959 Y126.563 E0.01978
G1 X134.063 Y121.459 E0.24614
G1 X134.063 Y120.879 E0.01978
G1 X128.379 Y126.563 E0.27412
G1 X127.799 Y126.563 E0.01978
G1 X134.063 Y120.299 E0.30209
G1 X134.063 Y119.719 E0.01978
G1 X127.219 Y126.563 E0.33007
G1 X126.639 Y126.563 E0.01978
G1 X134.063 Y119.139 E0.35804
G1 X134.063 Y118.559 E0.01978
G1 X126.059 Y126.563 E0.38602
G1 X125.479 Y126.563 E0.01978
G1 X134.063 Y117.979 E0.41400
G1 X134.063 Y117.399 E0.01978
G1 X124.899 Y126.563 E0.44197
G1 X124.319 Y126.563 E0.01978
G1 X134.063 Y116.819 E0.46995
G1 X134.063 Y116.239 E0.01978
G1 X123.739 Y126.563 E0.49792
G1 X123.159 Y126.563 E0.01978
G1 X134.063 Y115.659 E0.52590
G1 X134.063 Y115.079 E0.01978
G1 X122.579 Y126.563 E0.55388
G1 X121.999 Y126.563 E0.01978
G1 X134.063 Y114.499 E0.58185
G1 X134.063 Y113.919 E0.01978
G1 X121.419 Y126.563 E0.60983
G1 X120.839 Y126.563 E0.01978
G1 X134.063 Y113.339 E0.63780
G1 X134.063 Y112.759 E0.01978
G1 X120.259 Y126.563 E0.66578
G1 X119.679 Y126.563 E0.01978
G1 X134.063 Y112.179 E0.69375
G1 X134.063 Y111.599 E0.01978
G1 X119.099 Y126.563 E0.72173
G1 X118.518 Y126.563 E0.01978
G1 X134.063 Y111.018 E0.74971
G1 X134.063 Y110.438 E0.01978
G1 X117.938 Y126.563 E0.77768
G1 X117.358 Y126.563 E0.01978
G1 X134.063 Y109.858 E0.80566
G1 X134.063 Y109.278 E0.01978
G1 X116.778 Y126.563 E0.83363
G1 X116.198 Y126.563 E0.01978
G1 X134.063 Y108.698 E0.86161
G1 X134.063 Y108.118 E0.01978
G1 X115.937 Y126.243 E0.87419
G1 X115.937 Y125.663 E0.01978
G1 X134.063 Y107.538 E0.87419
G1 X134.063 Y106.958 E0.01978
G1 X115.937 Y125.083 E0.87419
G1 X115.937 Y124.503 E0.01978
G1 X134.063 Y106.378 E0.87419
G1 X134.063 Y105.798 E0.01978
G1 X115.937 Y123.923 E0.87419
G1 X115.937 Y123.343 E0.01978
G1 X134.063 Y105.218 E0.87419
G1 X134.063 Y104.638 E0.01978
G1 X115.937 Y122.763 E0.87419
G1 X115.937 Y122.183 E0.01978
G1 X134.063 Y104.058 E0.87419
G1 X134.063 Y103.478 E0.01978
G1 X115.937 Y121.603 E0.87419
G1 X115.937 Y121.023 E0.01978
G1 X134.063 Y102.898 E0.87419
G1 X134.063 Y102.318 E0.01978
G1 X115.937 Y120.443 E0.87419
G1 X115.937 Y119.863 E0.01978
G1 X134.063 Y101.738 E0.87419
G1 X134.063 Y101.158 E0.01978
G1 X115.937 Y119.283 E0.87419
G1 X115.937 Y118.703 E0.01978
G1 X134.063 Y100.578 E0.87419
G1 X134.063 Y99.998 E0.01978
G1 X115.937 Y118.123 E0.87419
G1 X115.937 Y117.543 E0.01978
G1 X134.063 Y99.418 E0.87419
G1 X134.063 Y98.838 E0.01978
G1 X115.937 Y116.963 E0.87419
G1 X115.937 Y116.383 E0.01978
G1 X134.063 Y98.258 E0.87419
G1 X134.063 Y97.677 E0.01978
G1 X115.937 Y115.803 E0.87419
G1 X115.937 Y115.223 E0.01978
G1 X134.063 Y97.097 E0.87419
G1 X134.063 Y96.517 E0.01978
G1 X115.937 Y114.643 E0.87419
G1 X115.937 Y114.063 E0.01978
G1 X134.063 Y95.937 E0.87419
G1 X134.063 Y95.357 E0.01978
G1 X115.937 Y113.483 E0.87419
G1 X115.937 Y112.903 E0.01978
G1 X134.063 Y94.777 E0.87419
G1 X134.063 Y94.197 E0.01978
G1 X115.937 Y112.322 E0.87419
G1 X115.937 Y111.742 E0.01978
G1 X134.063 Y93.617 E0.87419
G1 X134.063 Y93.037 E0.01978
G1 X115.937 Y111.162 E0.87419
G1 X115.937 Y110.582 E0.01978
G1 X134.063 Y92.457 E0.87419
G1 X134.063 Y91.877 E0.01978
G1 X115.937 Y110.002 E0.87419
G1 X115.937 Y109.422 E0.01978
G1 X134.063 Y91.297 E0.87419
G1 X134.063 Y90.717 E0.01978
G1 X115.937 Y108.842 E0.87419
G1 X115.937 Y108.262 E0.01978
G1 X134.063 Y90.137 E0.87419
G1 X134.063 Y89.557 E0.01978
G1 X115.937 Y107.682 E0.87419
G1 X115.937 Y107.102 E0.01978
G1 X134.063 Y88.977 E0.87419
G1 X134.063 Y88.397 E0.01978
G1 X115.937 Y106.522 E0.87419
G1 X115.937 Y105.942 E0.01978
G1 X134.063 Y87.817 E0.87419
G1 X134.063 Y87.237 E0.01978
G1 X115.937 Y105.362 E0.87419
G1 X115.937 Y104.782 E0.01978
G1 X134.063 Y86.657 E0.87419
G1 X134.063 Y86.077 E0.01978
G1 X115.937 Y104.202 E0.87419
G1 X115.937 Y103.622 E0.01978
G1 X134.063 Y85.497 E0.87419
G1 X134.063 Y84.917 E0.01978
G1 X115.937 Y103.042 E0.87419
G1 X115.937 Y102.462 E0.01978
G1 X134.063 Y84.337 E0.87419
G1 X134.063 Y83.756 E0.01978
G1 X115.937 Y101.882 E0.87419
G1 X115.937 Y101.302 E0.01978
G1 X133.802 Y83.437 E0.86161
G1 X133.222 Y83.437 E0.01978
G1 X115.937 Y100.722 E0.83363
